; generated by Slic3r 0.9.10b on 2013-12-09 at 21:16:51

; layer_height = 0.3
; perimeters = 2
; top_solid_layers = 3
; bottom_solid_layers = 3
; fill_density = 0.4
; perimeter_speed = 30
; infill_speed = 60
; travel_speed = 130
; nozzle_diameter = 0.5
; filament_diameter = 2.85
; extrusion_multiplier = 1
; perimeters extrusion width = 0.70mm
; infill extrusion width = 0.70mm
; solid infill extrusion width = 0.70mm
; top infill extrusion width = 0.70mm
; first layer extrusion width = 0.60mm

G21 ; set units to millimeters
M107
M104 S0
M83
M140 S70
G28
G1Y98F9000
M190 S70
G1X5Y98Z150F9000
M104 S210
G1X5Y98Z1F9000
G1Z0.05
M109 S210
G1Z5
G1X15
;G1E5F50
G90 ; use absolute coordinates
G92 E0
M82 ; use absolute distances for extrusion
G1 F1800.000 E-1.00000
G92 E0
G1 Z0.300 F7800.000
G1 X39.243 Y-1.233
G1 F1800.000 E1.00000
G1 X38.913 Y21.427 F540.000 E1.61657
G1 X38.773 Y22.697 E1.65133
G1 X38.383 Y23.907 E1.68592
G1 X37.773 Y25.027 E1.72062
G1 X36.953 Y26.017 E1.75559
G1 X35.953 Y26.817 E1.79043
G1 X34.833 Y27.417 E1.82500
G1 X33.603 Y27.777 E1.85987
G1 X32.333 Y27.907 E1.89460
G1 X-32.667 Y27.907 E3.66303
G1 X-33.947 Y27.777 E3.69804
G1 X-35.187 Y27.407 E3.73324
G1 X-36.317 Y26.797 E3.76818
G1 X-37.317 Y25.977 E3.80336
G1 X-38.137 Y24.977 E3.83855
G1 X-38.747 Y23.847 E3.87348
G1 X-39.117 Y22.607 E3.90869
G1 X-39.247 Y21.327 E3.94369
G1 X-39.247 Y1.227 E4.49055
G1 X-38.917 Y-21.433 E5.10711
G1 X-38.777 Y-22.703 E5.14188
G1 X-38.387 Y-23.913 E5.17646
G1 X-37.777 Y-25.033 E5.21116
G1 X-36.957 Y-26.023 E5.24614
G1 X-35.957 Y-26.823 E5.28098
G1 X-34.837 Y-27.423 E5.31555
G1 X-33.607 Y-27.783 E5.35041
G1 X-32.337 Y-27.913 E5.38515
G1 X32.663 Y-27.913 E7.15358
G1 X33.943 Y-27.783 E7.18858
G1 X35.183 Y-27.413 E7.22379
G1 X36.313 Y-26.803 E7.25872
G1 X37.313 Y-25.983 E7.29391
G1 X38.133 Y-24.983 E7.32909
G1 X38.743 Y-23.853 E7.36403
G1 X39.113 Y-22.613 E7.39924
G1 X39.243 Y-21.333 E7.43424
G1 X39.243 Y-1.320 E7.97873
G1 F1800.000 E6.97873
G92 E0
G1 X-16.837 Y-10.649 F7800.000
G1 F1800.000 E1.00000
G1 X-17.065 Y-9.999 F540.000 E1.01873
G1 X-17.431 Y-9.417 E1.03744
G1 X-17.917 Y-8.931 E1.05615
G1 X-18.499 Y-8.565 E1.07487
G1 X-19.149 Y-8.337 E1.09360
G1 X-19.833 Y-8.260 E1.11233
G1 X-20.518 Y-8.337 E1.13107
G1 X-21.167 Y-8.565 E1.14980
G1 X-21.750 Y-8.931 E1.16852
G1 X-22.236 Y-9.417 E1.18723
G1 X-22.602 Y-9.999 E1.20594
G1 X-22.830 Y-10.649 E1.22467
G1 X-22.907 Y-11.333 E1.24341
G1 X-22.830 Y-12.018 E1.26214
G1 X-22.602 Y-12.667 E1.28087
G1 X-22.236 Y-13.250 E1.29959
G1 X-21.750 Y-13.736 E1.31830
G1 X-21.167 Y-14.102 E1.33701
G1 X-20.518 Y-14.330 E1.35574
G1 X-19.833 Y-14.407 E1.37448
G1 X-19.149 Y-14.330 E1.39322
G1 X-18.499 Y-14.102 E1.41195
G1 X-17.917 Y-13.736 E1.43066
G1 X-17.431 Y-13.250 E1.44937
G1 X-17.065 Y-12.667 E1.46808
G1 X-16.837 Y-12.018 E1.48681
G1 X-16.760 Y-11.333 E1.50555
G1 X-16.827 Y-10.735 E1.52193
G1 X-17.405 Y-10.779 F7800.000
G1 X-17.589 Y-10.252 F540.000 E1.53711
G1 X-17.886 Y-9.780 E1.55228
G1 X-18.280 Y-9.386 E1.56744
G1 X-18.752 Y-9.089 E1.58261
G1 X-19.279 Y-8.905 E1.59779
G1 X-19.833 Y-8.842 E1.61298
G1 X-20.388 Y-8.905 E1.62817
G1 X-20.915 Y-9.089 E1.64335
G1 X-21.387 Y-9.386 E1.65852
G1 X-21.781 Y-9.780 E1.67368
G1 X-22.078 Y-10.252 E1.68885
G1 X-22.262 Y-10.779 E1.70403
G1 X-22.324 Y-11.333 E1.71922
G1 X-22.262 Y-11.888 E1.73441
G1 X-22.078 Y-12.415 E1.74959
G1 X-21.781 Y-12.887 E1.76476
G1 X-21.387 Y-13.281 E1.77993
G1 X-20.915 Y-13.578 E1.79510
G1 X-20.388 Y-13.762 E1.81028
G1 X-19.833 Y-13.824 E1.82547
G1 X-19.279 Y-13.762 E1.84065
G1 X-18.752 Y-13.578 E1.85584
G1 X-18.280 Y-13.281 E1.87101
G1 X-17.886 Y-12.887 E1.88617
G1 X-17.589 Y-12.415 E1.90134
G1 X-17.405 Y-11.888 E1.91652
G1 X-17.342 Y-11.333 E1.93171
G1 X-17.395 Y-10.865 E1.94454
G1 X-17.944 Y-10.634 F7800.000
G1 F1800.000 E0.94454
G92 E0
G1 X-2.907 Y-11.333 F7800.000
G1 F1800.000 E1.00000
G1 X-2.830 Y-12.018 F540.000 E1.01874
G1 X-2.602 Y-12.667 E1.03747
G1 X-2.236 Y-13.250 E1.05618
G1 X-1.750 Y-13.736 E1.07489
G1 X-1.167 Y-14.102 E1.09360
G1 X-0.518 Y-14.330 E1.11233
G1 X0.167 Y-14.407 E1.13107
G1 X0.851 Y-14.330 E1.14981
G1 X1.501 Y-14.102 E1.16854
G1 X2.083 Y-13.736 E1.18725
G1 X2.569 Y-13.250 E1.20596
G1 X2.935 Y-12.667 E1.22468
G1 X3.163 Y-12.018 E1.24341
G1 X3.240 Y-11.333 E1.26214
G1 X3.163 Y-10.649 E1.28088
G1 X2.935 Y-9.999 E1.29961
G1 X2.569 Y-9.417 E1.31832
G1 X2.083 Y-8.931 E1.33703
G1 X1.501 Y-8.565 E1.35575
G1 X0.851 Y-8.337 E1.37448
G1 X0.167 Y-8.260 E1.39322
G1 X-0.518 Y-8.337 E1.41195
G1 X-1.167 Y-8.565 E1.43068
G1 X-1.750 Y-8.931 E1.44940
G1 X-2.236 Y-9.417 E1.46811
G1 X-2.602 Y-9.999 E1.48682
G1 X-2.830 Y-10.649 E1.50555
G1 X-2.897 Y-11.247 E1.52193
G1 X-2.324 Y-11.333 F7800.000
G1 X-2.262 Y-11.888 F540.000 E1.53711
G1 X-2.078 Y-12.415 E1.55230
G1 X-1.781 Y-12.887 E1.56747
G1 X-1.387 Y-13.281 E1.58263
G1 X-0.915 Y-13.578 E1.59780
G1 X-0.388 Y-13.762 E1.61298
G1 X0.167 Y-13.824 E1.62817
G1 X0.721 Y-13.762 E1.64336
G1 X1.248 Y-13.578 E1.65854
G1 X1.720 Y-13.281 E1.67371
G1 X2.114 Y-12.887 E1.68887
G1 X2.411 Y-12.415 E1.70404
G1 X2.595 Y-11.888 E1.71922
G1 X2.658 Y-11.333 E1.73441
G1 X2.595 Y-10.779 E1.74960
G1 X2.411 Y-10.252 E1.76478
G1 X2.114 Y-9.780 E1.77995
G1 X1.720 Y-9.386 E1.79511
G1 X1.248 Y-9.089 E1.81028
G1 X0.721 Y-8.905 E1.82547
G1 X0.167 Y-8.842 E1.84065
G1 X-0.388 Y-8.905 E1.85584
G1 X-0.915 Y-9.089 E1.87102
G1 X-1.387 Y-9.386 E1.88619
G1 X-1.781 Y-9.780 E1.90136
G1 X-2.078 Y-10.252 E1.91653
G1 X-2.262 Y-10.779 E1.93171
G1 X-2.315 Y-11.247 E1.94454
G1 X-1.831 Y-11.594 F7800.000
G1 F1800.000 E0.94454
G92 E0
G1 X17.093 Y-11.333 F7800.000
G1 F1800.000 E1.00000
G1 X17.170 Y-12.018 F540.000 E1.01874
G1 X17.398 Y-12.667 E1.03747
G1 X17.764 Y-13.250 E1.05618
G1 X18.250 Y-13.736 E1.07489
G1 X18.833 Y-14.102 E1.09360
G1 X19.482 Y-14.330 E1.11233
G1 X20.167 Y-14.407 E1.13107
G1 X20.851 Y-14.330 E1.14981
G1 X21.501 Y-14.102 E1.16854
G1 X22.083 Y-13.736 E1.18725
G1 X22.569 Y-13.250 E1.20596
G1 X22.935 Y-12.667 E1.22468
G1 X23.163 Y-12.018 E1.24341
G1 X23.240 Y-11.333 E1.26214
G1 X23.163 Y-10.649 E1.28088
G1 X22.935 Y-9.999 E1.29961
G1 X22.569 Y-9.417 E1.31832
G1 X22.083 Y-8.931 E1.33703
G1 X21.501 Y-8.565 E1.35575
G1 X20.851 Y-8.337 E1.37448
G1 X20.167 Y-8.260 E1.39322
G1 X19.482 Y-8.337 E1.41195
G1 X18.833 Y-8.565 E1.43068
G1 X18.250 Y-8.931 E1.44940
G1 X17.764 Y-9.417 E1.46811
G1 X17.398 Y-9.999 E1.48682
G1 X17.170 Y-10.649 E1.50555
G1 X17.103 Y-11.247 E1.52193
G1 X17.676 Y-11.333 F7800.000
G1 X17.738 Y-11.888 F540.000 E1.53711
G1 X17.922 Y-12.415 E1.55230
G1 X18.219 Y-12.887 E1.56747
G1 X18.613 Y-13.281 E1.58263
G1 X19.085 Y-13.578 E1.59780
G1 X19.612 Y-13.762 E1.61298
G1 X20.167 Y-13.824 E1.62817
G1 X20.721 Y-13.762 E1.64336
G1 X21.248 Y-13.578 E1.65854
G1 X21.720 Y-13.281 E1.67371
G1 X22.114 Y-12.887 E1.68887
G1 X22.411 Y-12.415 E1.70404
G1 X22.595 Y-11.888 E1.71922
G1 X22.658 Y-11.333 E1.73441
G1 X22.595 Y-10.779 E1.74960
G1 X22.411 Y-10.252 E1.76478
G1 X22.114 Y-9.780 E1.77995
G1 X21.720 Y-9.386 E1.79511
G1 X21.248 Y-9.089 E1.81028
G1 X20.721 Y-8.905 E1.82547
G1 X20.167 Y-8.842 E1.84065
G1 X19.612 Y-8.905 E1.85584
G1 X19.085 Y-9.089 E1.87102
G1 X18.613 Y-9.386 E1.88619
G1 X18.219 Y-9.780 E1.90136
G1 X17.922 Y-10.252 E1.91653
G1 X17.738 Y-10.779 E1.93171
G1 X17.685 Y-11.247 E1.94454
G1 X18.169 Y-11.594 F7800.000
G1 F1800.000 E0.94454
G92 E0
G1 X31.799 Y-2.201 F7800.000
G1 F1800.000 E1.00000
G1 X-31.466 Y-2.201 F540.000 E2.72121
G1 X-31.466 Y-20.466 E3.21812
G1 X31.799 Y-20.466 E4.93933
G1 X31.799 Y-2.288 E5.43389
G1 X32.377 Y-1.623 F7800.000
G1 X-32.044 Y-1.623 F540.000 E7.18658
G1 X-32.044 Y-21.044 E7.71497
G1 X32.377 Y-21.044 E9.46766
G1 X32.377 Y-1.709 E9.99369
G1 X31.876 Y-1.912 F7800.000
G1 X23.644 Y-11.173
G1 X31.380 Y-3.437 F1080.000 E10.29321
G1 X31.373 Y-2.620 E10.31557
G1 X23.539 Y-10.454 E10.61889
G1 X23.325 Y-9.845 E10.63657
G1 X30.550 Y-2.620 E10.91628
G1 X29.726 Y-2.620 E10.93882
G1 X23.013 Y-9.334 E11.19877
G1 X22.634 Y-8.889 E11.21476
G1 X28.903 Y-2.620 E11.45747
G1 X28.080 Y-2.620 E11.48001
G1 X22.195 Y-8.505 E11.70787
G1 X21.689 Y-8.188 E11.72422
G1 X27.256 Y-2.620 E11.93977
G1 X26.433 Y-2.620 E11.96231
G1 X21.080 Y-7.973 E12.16956
G1 X20.369 Y-7.861 E12.18927
G1 X25.610 Y-2.620 E12.39217
G1 X24.786 Y-2.620 E12.41471
G1 X19.493 Y-7.914 E12.61966
G1 F1800.000 E11.61966
G92 E0
G1 X23.580 Y-12.060 F7800.000
G1 F1800.000 E1.00000
G1 X31.380 Y-4.261 F1080.000 E1.30198
G1 X31.380 Y-5.084 E1.32452
G1 X16.417 Y-20.046 E1.90384
G1 X17.241 Y-20.046 E1.92638
G1 X31.380 Y-5.907 E2.47383
G1 X31.380 Y-6.731 E2.49637
G1 X18.064 Y-20.046 E3.01194
G1 X18.887 Y-20.046 E3.03448
G1 X31.380 Y-7.554 E3.51817
G1 X31.380 Y-8.377 E3.54071
G1 X19.711 Y-20.046 E3.99252
G1 X20.534 Y-20.046 E4.01506
G1 X31.380 Y-9.201 E4.43499
G1 X31.380 Y-10.024 E4.45753
G1 X21.357 Y-20.046 E4.84558
G1 X22.181 Y-20.046 E4.86812
G1 X31.380 Y-10.847 E5.22429
G1 X31.380 Y-11.671 E5.24683
G1 X23.004 Y-20.046 E5.57113
G1 X23.827 Y-20.046 E5.59367
G1 X31.380 Y-12.494 E5.88608
G1 X31.380 Y-13.317 E5.90862
G1 X24.651 Y-20.046 E6.16916
G1 X25.474 Y-20.046 E6.19170
G1 X31.380 Y-14.141 E6.42035
G1 X31.380 Y-14.964 E6.44290
G1 X26.297 Y-20.046 E6.63967
G1 X27.121 Y-20.046 E6.66221
G1 X31.380 Y-15.787 E6.82711
G1 X31.380 Y-16.611 E6.84965
G1 X27.944 Y-20.046 E6.98267
G1 X28.767 Y-20.046 E7.00521
G1 X31.380 Y-17.434 E7.10635
G1 X31.380 Y-18.257 E7.12889
G1 X29.591 Y-20.046 E7.19815
G1 X30.414 Y-20.046 E7.22070
G1 X31.380 Y-19.081 E7.25808
G1 X31.380 Y-19.904 E7.28062
G1 X31.237 Y-20.046 E7.28612
G1 X20.893 Y-14.747 F7800.000
G1 X15.594 Y-20.046 F1080.000 E7.49130
G1 X14.771 Y-20.046 E7.51384
G1 X20.006 Y-14.811 E7.71656
G1 X19.288 Y-14.706 E7.73644
G1 X13.947 Y-20.046 E7.94322
G1 X13.124 Y-20.046 E7.96576
G1 X18.678 Y-14.492 E8.18081
G1 X18.167 Y-14.179 E8.19720
G1 X12.301 Y-20.046 E8.42436
G1 X11.477 Y-20.046 E8.44690
G1 X17.722 Y-13.801 E8.68870
G1 X17.339 Y-13.361 E8.70468
G1 X10.654 Y-20.046 E8.96351
G1 X9.830 Y-20.046 E8.98605
G1 X17.021 Y-12.856 E9.26446
G1 X16.806 Y-12.247 E9.28213
G1 X9.007 Y-20.046 E9.58410
G1 X8.184 Y-20.046 E9.60665
G1 X16.694 Y-11.536 E9.93616
G1 X16.747 Y-10.660 E9.96019
G1 X7.360 Y-20.046 E10.32363
G1 X6.537 Y-20.046 E10.34617
G1 X23.963 Y-2.620 E11.02088
G1 X23.139 Y-2.620 E11.04342
G1 X5.714 Y-20.046 E11.71813
G1 X4.890 Y-20.046 E11.74067
G1 X22.316 Y-2.620 E12.41538
G1 X21.493 Y-2.620 E12.43792
G1 X4.067 Y-20.046 E13.11262
G1 X3.244 Y-20.046 E13.13517
G1 X20.669 Y-2.620 E13.80987
G1 X19.846 Y-2.620 E13.83241
G1 X2.420 Y-20.046 E14.50712
G1 X1.597 Y-20.046 E14.52966
G1 X19.023 Y-2.620 E15.20437
G1 X18.199 Y-2.620 E15.22691
G1 X0.774 Y-20.046 E15.90162
G1 X-0.050 Y-20.046 E15.92416
G1 X17.376 Y-2.620 E16.59886
G1 X16.553 Y-2.620 E16.62141
G1 X-0.873 Y-20.046 E17.29611
G1 X-1.696 Y-20.046 E17.31865
G1 X15.729 Y-2.620 E17.99336
G1 X14.906 Y-2.620 E18.01590
G1 X-2.520 Y-20.046 E18.69061
G1 X-3.343 Y-20.046 E18.71315
G1 X14.083 Y-2.620 E19.38785
G1 X13.259 Y-2.620 E19.41040
G1 X3.470 Y-12.410 E19.78943
G1 X3.654 Y-11.402 E19.81747
G1 X12.436 Y-2.620 E20.15749
G1 X11.613 Y-2.620 E20.18004
G1 X3.585 Y-10.648 E20.49086
G1 X3.388 Y-10.022 E20.50883
G1 X10.789 Y-2.620 E20.79541
G1 X9.966 Y-2.620 E20.81796
G1 X3.105 Y-9.481 E21.08360
G1 X2.754 Y-9.009 E21.09971
G1 X9.143 Y-2.620 E21.34706
G1 X8.319 Y-2.620 E21.36960
G1 X2.342 Y-8.598 E21.60104
G1 X1.836 Y-8.280 E21.61739
G1 X7.496 Y-2.620 E21.83653
G1 X6.673 Y-2.620 E21.85907
G1 X1.258 Y-8.035 E22.06872
G1 X0.585 Y-7.885 E22.08761
G1 X5.849 Y-2.620 E22.29145
G1 X5.026 Y-2.620 E22.31399
G1 X-0.237 Y-7.883 E22.51777
G1 X-1.380 Y-8.203 E22.55025
G1 X4.203 Y-2.620 E22.76640
G1 X3.379 Y-2.620 E22.78894
G1 X-14.047 Y-20.046 E23.46365
G1 X-14.870 Y-20.046 E23.48619
G1 X2.556 Y-2.620 E24.16089
G1 X1.733 Y-2.620 E24.18344
G1 X-15.693 Y-20.046 E24.85814
G1 X-16.517 Y-20.046 E24.88068
G1 X0.909 Y-2.620 E25.55539
G1 X0.086 Y-2.620 E25.57793
G1 X-17.340 Y-20.046 E26.25264
G1 X-18.163 Y-20.046 E26.27518
G1 X-0.738 Y-2.620 E26.94988
G1 X-1.561 Y-2.620 E26.97243
G1 X-18.987 Y-20.046 E27.64713
G1 X-19.810 Y-20.046 E27.66967
G1 X-2.384 Y-2.620 E28.34438
G1 X-3.208 Y-2.620 E28.36692
G1 X-20.633 Y-20.046 E29.04163
G1 X-21.457 Y-20.046 E29.06417
G1 X-4.031 Y-2.620 E29.73888
G1 X-4.854 Y-2.620 E29.76142
G1 X-22.280 Y-20.046 E30.43612
G1 X-23.103 Y-20.046 E30.45867
G1 X-5.678 Y-2.620 E31.13337
G1 X-6.501 Y-2.620 E31.15591
G1 X-16.659 Y-12.779 E31.54924
G1 X-16.376 Y-11.672 E31.58051
G1 X-7.324 Y-2.620 E31.93099
G1 X-8.148 Y-2.620 E31.95353
G1 X-16.391 Y-10.864 E32.27270
G1 X-16.550 Y-10.200 E32.29140
G1 X-8.971 Y-2.620 E32.58486
G1 X-9.794 Y-2.620 E32.60740
G1 X-16.802 Y-9.629 E32.87874
G1 X-17.126 Y-9.129 E32.89504
G1 X-10.618 Y-2.620 E33.14703
G1 X-11.441 Y-2.620 E33.16957
G1 X-17.537 Y-8.717 E33.40562
G1 X-18.017 Y-8.373 E33.42178
G1 X-12.264 Y-2.620 E33.64450
G1 X-13.088 Y-2.620 E33.66704
G1 X-18.565 Y-8.097 E33.87910
G1 X-19.200 Y-7.909 E33.89724
G1 X-13.911 Y-2.620 E34.10201
G1 X-14.734 Y-2.620 E34.12455
G1 X-19.967 Y-7.853 E34.32716
G1 X-20.998 Y-8.061 E34.35596
G1 X-15.558 Y-2.620 E34.56661
G1 X-16.381 Y-2.620 E34.58915
G1 X-31.046 Y-17.286 E35.15697
G1 X-31.046 Y-16.462 E35.17951
G1 X-17.204 Y-2.620 E35.71545
G1 X-18.028 Y-2.620 E35.73799
G1 X-31.046 Y-15.639 E36.24205
G1 X-31.046 Y-14.816 E36.26460
G1 X-18.851 Y-2.620 E36.73678
G1 X-19.674 Y-2.620 E36.75932
G1 X-31.046 Y-13.992 E37.19962
G1 X-31.046 Y-13.169 E37.22216
G1 X-20.498 Y-2.620 E37.63059
G1 X-21.321 Y-2.620 E37.65313
G1 X-31.046 Y-12.346 E38.02967
G1 X-31.046 Y-11.522 E38.05222
G1 X-22.144 Y-2.620 E38.39688
G1 X-22.968 Y-2.620 E38.41942
G1 X-31.046 Y-10.699 E38.73221
G1 X-31.046 Y-9.876 E38.75475
G1 X-23.791 Y-2.620 E39.03566
G1 X-24.614 Y-2.620 E39.05820
G1 X-31.046 Y-9.052 E39.30723
G1 X-31.046 Y-8.229 E39.32977
G1 X-25.438 Y-2.620 E39.54692
G1 X-26.261 Y-2.620 E39.56947
G1 X-31.046 Y-7.405 E39.75474
G1 X-31.046 Y-6.582 E39.77728
G1 X-27.085 Y-2.620 E39.93067
G1 X-27.908 Y-2.620 E39.95321
G1 X-31.046 Y-5.759 E40.07472
G1 X-31.046 Y-4.935 E40.09727
G1 X-28.731 Y-2.620 E40.18690
G1 X-29.555 Y-2.620 E40.20944
G1 X-31.046 Y-4.112 E40.26720
G1 X-31.046 Y-3.289 E40.28974
G1 X-30.378 Y-2.620 E40.31561
G1 X-23.106 Y-10.168 F7800.000
G1 X-31.046 Y-18.109 F1080.000 E40.62306
G1 X-31.046 Y-18.932 E40.64560
G1 X-23.314 Y-11.200 E40.94500
G1 X-23.257 Y-11.967 E40.96607
G1 X-31.046 Y-19.756 E41.26764
G1 X-30.513 Y-20.046 E41.28425
G1 X-23.069 Y-12.602 E41.57248
G1 X-22.794 Y-13.150 E41.58927
G1 X-29.690 Y-20.046 E41.85628
G1 X-28.867 Y-20.046 E41.87883
G1 X-22.450 Y-13.629 E42.12728
G1 X-22.038 Y-14.041 E42.14322
G1 X-28.043 Y-20.046 E42.37574
G1 X-27.220 Y-20.046 E42.39828
G1 X-21.538 Y-14.364 E42.61828
G1 X-20.967 Y-14.617 E42.63537
G1 X-26.397 Y-20.046 E42.84560
G1 X-25.573 Y-20.046 E42.86814
G1 X-20.303 Y-14.776 E43.07221
G1 X-19.494 Y-14.790 E43.09435
G1 X-24.750 Y-20.046 E43.29785
G1 X-23.927 Y-20.046 E43.32039
G1 X-18.388 Y-14.507 E43.53485
G1 X-2.964 Y-9.787 F7800.000
G1 X-13.223 Y-20.046 F1080.000 E43.93208
G1 X-12.400 Y-20.046 E43.95462
G1 X-3.283 Y-10.930 E44.30761
G1 X-3.282 Y-11.751 E44.33011
G1 X-11.576 Y-20.046 E44.65127
G1 X-10.753 Y-20.046 E44.67382
G1 X-3.132 Y-12.425 E44.96892
G1 X-2.886 Y-13.003 E44.98611
G1 X-9.930 Y-20.046 E45.25882
G1 X-9.106 Y-20.046 E45.28137
G1 X-2.569 Y-13.509 E45.53450
G1 X-2.158 Y-13.921 E45.55044
G1 X-8.283 Y-20.046 E45.78760
G1 X-7.460 Y-20.046 E45.81014
G1 X-1.685 Y-14.272 E46.03372
G1 X-1.145 Y-14.554 E46.05042
G1 X-6.636 Y-20.046 E46.26306
G1 X-5.813 Y-20.046 E46.28560
G1 X-0.519 Y-14.752 E46.49060
G1 X0.236 Y-14.821 E46.51134
G1 X-4.990 Y-20.046 E46.71366
G1 X-4.166 Y-20.046 E46.73620
G1 X1.243 Y-14.637 E46.94565
G1 F1800.000 E45.94565
G92 E0
G1 X-18.250 Y8.931 F7800.000
G1 F1800.000 E1.00000
G1 X-17.764 Y9.417 F540.000 E1.01871
G1 X-17.398 Y9.999 E1.03742
G1 X-17.170 Y10.649 E1.05615
G1 X-17.093 Y11.333 E1.07489
G1 X-17.170 Y12.018 E1.09363
G1 X-17.398 Y12.667 E1.11236
G1 X-17.764 Y13.250 E1.13107
G1 X-18.250 Y13.736 E1.14978
G1 X-18.833 Y14.102 E1.16850
G1 X-19.482 Y14.330 E1.18723
G1 X-20.167 Y14.407 E1.20596
G1 X-20.851 Y14.330 E1.22470
