; generated by Slic3r 0.9.10b on 2013-11-29 at 23:54:30

; layer_height = 0.3
; perimeters = 2
; top_solid_layers = 3
; bottom_solid_layers = 3
; fill_density = 0.4
; perimeter_speed = 30
; infill_speed = 60
; travel_speed = 130
; nozzle_diameter = 0.5
; filament_diameter = 2.85
; extrusion_multiplier = 1
; perimeters extrusion width = 0.70mm
; infill extrusion width = 0.70mm
; solid infill extrusion width = 0.70mm
; top infill extrusion width = 0.70mm
; first layer extrusion width = 0.60mm

G21 ; set units to millimeters
M107
M104 S0
M83
M140 S70
G28
G1Y98F9000
M190 S70
G1X5Y98Z150F9000
M104 S210
G1X5Y98Z1F9000
G1Z0.05
M109 S210
G1Z5
G1X15
;G1E5F50
G90 ; use absolute coordinates
G92 E0
M82 ; use absolute distances for extrusion
G1 F1800.000 E-1.00000
G92 E0
G1 Z0.300 F7800.000
G1 X-32.500 Y-16.580
G1 F1800.000 E1.00000
G1 X32.500 Y-16.580 F540.000 E2.76843
G1 X33.780 Y-16.450 E2.80344
G1 X35.020 Y-16.080 E2.83864
G1 X36.150 Y-15.470 E2.87358
G1 X37.150 Y-14.650 E2.90876
G1 X37.970 Y-13.650 E2.94395
G1 X38.580 Y-12.520 E2.97888
G1 X38.950 Y-11.280 E3.01409
G1 X39.080 Y-10.000 E3.04909
G1 X39.080 Y10.000 E3.59323
G1 X38.950 Y11.280 E3.62823
G1 X38.580 Y12.520 E3.66344
G1 X37.970 Y13.650 E3.69837
G1 X37.150 Y14.650 E3.73356
G1 X36.150 Y15.470 E3.76874
G1 X35.020 Y16.080 E3.80368
G1 X33.780 Y16.450 E3.83888
G1 X32.500 Y16.580 E3.87389
G1 X-32.500 Y16.580 E5.64232
G1 X-33.780 Y16.450 E5.67732
G1 X-35.020 Y16.080 E5.71253
G1 X-36.150 Y15.470 E5.74747
G1 X-37.150 Y14.650 E5.78265
G1 X-37.970 Y13.650 E5.81783
G1 X-38.580 Y12.520 E5.85277
G1 X-38.950 Y11.280 E5.88798
G1 X-39.080 Y10.000 E5.92298
G1 X-39.080 Y-10.000 E6.46711
G1 X-38.950 Y-11.280 E6.50212
G1 X-38.580 Y-12.520 E6.53732
G1 X-37.970 Y-13.650 E6.57226
G1 X-37.150 Y-14.650 E6.60744
G1 X-36.150 Y-15.470 E6.64263
G1 X-35.020 Y-16.080 E6.67756
G1 X-33.780 Y-16.450 E6.71277
G1 X-32.586 Y-16.571 E6.74541
G1 F1800.000 E5.74541
G92 E0
G1 X-32.735 Y-10.868 F7800.000
G1 F1800.000 E1.00000
G1 X32.735 Y-10.868 F540.000 E2.78121
G1 X32.948 Y-10.780 E2.78747
G1 X33.280 Y-10.448 E2.80026
G1 X33.368 Y-10.235 E2.80652
G1 X33.368 Y10.235 E3.36343
G1 X33.280 Y10.448 E3.36969
G1 X32.948 Y10.780 E3.38248
G1 X32.735 Y10.868 E3.38874
G1 X-32.735 Y10.868 E5.16995
G1 X-32.948 Y10.780 E5.17621
G1 X-33.280 Y10.448 E5.18899
G1 X-33.368 Y10.235 E5.19526
G1 X-33.368 Y-10.235 E5.75217
G1 X-33.280 Y-10.448 E5.75843
G1 X-32.948 Y-10.780 E5.77121
G1 X-32.815 Y-10.835 E5.77511
G1 X-32.450 Y-10.289 F7800.000
G1 X32.450 Y-10.289 F540.000 E7.54085
G1 X32.789 Y-9.950 E7.55388
G1 X32.789 Y9.950 E8.09532
G1 X32.450 Y10.289 E8.10836
G1 X-32.450 Y10.289 E9.87409
G1 X-32.789 Y9.950 E9.88713
G1 X-32.789 Y-9.950 E10.42856
G1 X-32.512 Y-10.228 E10.43924
G1 X-32.211 Y-9.711 F7800.000
G1 X32.211 Y-9.711 F540.000 E12.19193
G1 X32.211 Y9.711 E12.72032
G1 X-32.211 Y9.711 E14.47301
G1 X-32.211 Y-9.624 E14.99904
G1 X-31.710 Y-9.421 F7800.000
G1 X-31.632 Y9.132
G1 X-31.632 Y-9.132 F540.000 E15.49596
G1 X31.632 Y-9.132 E17.21717
G1 X31.632 Y9.132 E17.71408
G1 X-31.545 Y9.132 E19.43293
G1 X17.571 Y0.555 F7800.000
G1 X17.509 Y0.000 F540.000 E19.44812
G1 X17.571 Y-0.555 E19.46331
G1 X17.756 Y-1.081 E19.47849
G1 X18.052 Y-1.553 E19.49366
G1 X18.447 Y-1.948 E19.50882
G1 X18.919 Y-2.244 E19.52399
G1 X19.445 Y-2.429 E19.53917
G1 X20.000 Y-2.491 E19.55436
G1 X20.555 Y-2.429 E19.56955
G1 X21.081 Y-2.244 E19.58473
G1 X21.554 Y-1.948 E19.59990
G1 X21.948 Y-1.553 E19.61507
G1 X22.244 Y-1.081 E19.63024
G1 X22.429 Y-0.555 E19.64542
G1 X22.491 Y0.000 E19.66061
G1 X22.429 Y0.555 E19.67580
G1 X22.244 Y1.081 E19.69098
G1 X21.948 Y1.553 E19.70615
G1 X21.554 Y1.948 E19.72131
G1 X21.081 Y2.244 E19.73648
G1 X20.555 Y2.429 E19.75166
G1 X20.000 Y2.491 E19.76685
G1 X19.445 Y2.429 E19.78204
G1 X18.919 Y2.244 E19.79722
G1 X18.447 Y1.948 E19.81239
G1 X18.052 Y1.553 E19.82755
G1 X17.756 Y1.081 E19.84272
G1 X17.600 Y0.637 E19.85554
G1 X17.994 Y0.191 F7800.000
G1 X16.990 Y0.562
G1 X16.927 Y0.000 F540.000 E19.87094
G1 X17.004 Y-0.684 E19.88967
G1 X17.231 Y-1.334 E19.90840
G1 X17.597 Y-1.916 E19.92712
G1 X18.084 Y-2.403 E19.94583
G1 X18.666 Y-2.769 E19.96454
G1 X19.316 Y-2.996 E19.98327
G1 X20.000 Y-3.073 E20.00201
G1 X20.684 Y-2.996 E20.02074
G1 X21.334 Y-2.769 E20.03948
G1 X21.917 Y-2.403 E20.05819
G1 X22.403 Y-1.916 E20.07690
G1 X22.769 Y-1.334 E20.09561
G1 X22.996 Y-0.684 E20.11434
G1 X23.073 Y0.000 E20.13308
G1 X22.996 Y0.684 E20.15182
G1 X22.769 Y1.334 E20.17055
G1 X22.403 Y1.916 E20.18926
G1 X21.917 Y2.403 E20.20797
G1 X21.334 Y2.769 E20.22668
G1 X20.684 Y2.996 E20.24541
G1 X20.000 Y3.073 E20.26415
G1 X19.316 Y2.996 E20.28289
G1 X18.666 Y2.769 E20.30162
G1 X18.084 Y2.403 E20.32033
G1 X17.597 Y1.916 E20.33904
G1 X17.231 Y1.334 E20.35775
G1 X17.000 Y0.649 E20.37744
G1 X2.491 Y0.000 F7800.000
G1 X2.429 Y0.555 F540.000 E20.39263
G1 X2.244 Y1.081 E20.40781
G1 X1.948 Y1.553 E20.42298
G1 X1.554 Y1.948 E20.43815
G1 X1.081 Y2.244 E20.45332
G1 X0.555 Y2.429 E20.46850
G1 X0.000 Y2.491 E20.48369
G1 X-0.555 Y2.429 E20.49888
G1 X-1.081 Y2.244 E20.51406
G1 X-1.553 Y1.948 E20.52923
G1 X-1.948 Y1.553 E20.54439
G1 X-2.244 Y1.081 E20.55956
G1 X-2.429 Y0.555 E20.57474
G1 X-2.491 Y0.000 E20.58993
G1 X-2.429 Y-0.555 E20.60512
G1 X-2.244 Y-1.081 E20.62030
G1 X-1.948 Y-1.553 E20.63547
G1 X-1.553 Y-1.948 E20.65063
G1 X-1.081 Y-2.244 E20.66580
G1 X-0.555 Y-2.429 E20.68098
G1 X0.000 Y-2.491 E20.69617
G1 X0.555 Y-2.429 E20.71136
G1 X1.081 Y-2.244 E20.72654
G1 X1.554 Y-1.948 E20.74171
G1 X1.948 Y-1.553 E20.75688
G1 X2.244 Y-1.081 E20.77205
G1 X2.429 Y-0.555 E20.78723
G1 X2.481 Y-0.086 E20.80005
G1 X1.998 Y0.261 F7800.000
G1 X3.060 Y0.121
G1 X2.996 Y0.684 F540.000 E20.81547
G1 X2.769 Y1.334 E20.83420
G1 X2.403 Y1.916 E20.85291
G1 X1.917 Y2.403 E20.87162
G1 X1.334 Y2.769 E20.89034
G1 X0.684 Y2.996 E20.90907
G1 X0.000 Y3.073 E20.92780
G1 X-0.684 Y2.996 E20.94654
G1 X-1.334 Y2.769 E20.96527
G1 X-1.916 Y2.403 E20.98399
G1 X-2.403 Y1.916 E21.00270
G1 X-2.769 Y1.334 E21.02141
G1 X-2.996 Y0.684 E21.04014
G1 X-3.073 Y0.000 E21.05888
G1 X-2.996 Y-0.684 E21.07761
G1 X-2.769 Y-1.334 E21.09634
G1 X-2.403 Y-1.916 E21.11506
G1 X-1.916 Y-2.403 E21.13377
G1 X-1.334 Y-2.769 E21.15248
G1 X-0.684 Y-2.996 E21.17121
G1 X0.000 Y-3.073 E21.18995
G1 X0.684 Y-2.996 E21.20869
G1 X1.334 Y-2.769 E21.22742
G1 X1.917 Y-2.403 E21.24613
G1 X2.403 Y-1.916 E21.26484
G1 X2.769 Y-1.334 E21.28355
G1 X2.996 Y-0.684 E21.30228
G1 X3.069 Y0.035 E21.32196
G1 F1800.000 E20.32196
G92 E0
G1 X-17.509 Y0.000 F7800.000
G1 F1800.000 E1.00000
G1 X-17.571 Y0.555 F540.000 E1.01519
G1 X-17.756 Y1.081 E1.03037
G1 X-18.052 Y1.553 E1.04554
G1 X-18.447 Y1.948 E1.06070
G1 X-18.919 Y2.244 E1.07587
G1 X-19.445 Y2.429 E1.09105
G1 X-20.000 Y2.491 E1.10624
G1 X-20.555 Y2.429 E1.12143
G1 X-21.081 Y2.244 E1.13661
G1 X-21.553 Y1.948 E1.15178
G1 X-21.948 Y1.553 E1.16695
G1 X-22.244 Y1.081 E1.18212
G1 X-22.429 Y0.555 E1.19730
G1 X-22.491 Y0.000 E1.21249
G1 X-22.429 Y-0.555 E1.22767
G1 X-22.244 Y-1.081 E1.24286
G1 X-21.948 Y-1.553 E1.25803
G1 X-21.553 Y-1.948 E1.27319
G1 X-21.081 Y-2.244 E1.28836
G1 X-20.555 Y-2.429 E1.30354
G1 X-20.000 Y-2.491 E1.31873
G1 X-19.445 Y-2.429 E1.33392
G1 X-18.919 Y-2.244 E1.34910
G1 X-18.447 Y-1.948 E1.36427
G1 X-18.052 Y-1.553 E1.37943
G1 X-17.756 Y-1.081 E1.39460
G1 X-17.571 Y-0.555 E1.40978
G1 X-17.519 Y-0.086 E1.42261
G1 X-18.002 Y0.261 F7800.000
G1 X-17.004 Y0.684
G1 X-17.231 Y1.334 F540.000 E1.44134
G1 X-17.597 Y1.916 E1.46005
G1 X-18.084 Y2.403 E1.47876
G1 X-18.666 Y2.769 E1.49748
G1 X-19.316 Y2.996 E1.51621
G1 X-20.000 Y3.073 E1.53495
G1 X-20.684 Y2.996 E1.55368
G1 X-21.334 Y2.769 E1.57241
G1 X-21.916 Y2.403 E1.59113
G1 X-22.403 Y1.916 E1.60984
G1 X-22.769 Y1.334 E1.62855
G1 X-22.996 Y0.684 E1.64728
G1 X-23.073 Y0.000 E1.66602
G1 X-22.996 Y-0.684 E1.68475
G1 X-22.769 Y-1.334 E1.70349
G1 X-22.403 Y-1.916 E1.72220
G1 X-21.916 Y-2.403 E1.74091
G1 X-21.334 Y-2.769 E1.75962
G1 X-20.684 Y-2.996 E1.77835
G1 X-20.000 Y-3.073 E1.79709
G1 X-19.316 Y-2.996 E1.81583
G1 X-18.666 Y-2.769 E1.83456
G1 X-18.084 Y-2.403 E1.85327
G1 X-17.597 Y-1.916 E1.87198
G1 X-17.231 Y-1.334 E1.89069
G1 X-17.004 Y-0.684 E1.90942
G1 X-16.927 Y0.000 E1.92816
G1 X-16.994 Y0.598 E1.94454
G1 X-18.554 Y-3.174 F7800.000
G1 X-24.093 Y-8.713 F1080.000 E2.15900
G1 X-24.917 Y-8.713 E2.18154
G1 X-19.661 Y-3.457 E2.38504
G1 X-20.470 Y-3.443 E2.40718
G1 X-25.740 Y-8.713 E2.61124
G1 X-26.563 Y-8.713 E2.63378
G1 X-21.134 Y-3.283 E2.84401
G1 X-21.705 Y-3.031 E2.86111
G1 X-27.387 Y-8.713 E3.08110
G1 X-28.210 Y-8.713 E3.10364
G1 X-22.205 Y-2.708 E3.33616
G1 X-22.616 Y-2.296 E3.35210
G1 X-29.033 Y-8.713 E3.60056
G1 X-29.857 Y-8.713 E3.62310
G1 X-22.961 Y-1.817 E3.89011
G1 X-23.236 Y-1.269 E3.90690
G1 X-30.680 Y-8.713 E4.19513
G1 X-31.213 Y-8.422 E4.21175
G1 X-23.424 Y-0.634 E4.51332
G1 X-23.480 Y0.134 E4.53438
G1 X-31.213 Y-7.599 E4.83378
G1 X-31.213 Y-6.776 E4.85632
G1 X-23.272 Y1.165 E5.16377
G1 X-30.545 Y8.713 F7800.000
G1 X-31.213 Y8.045 F1080.000 E5.18965
G1 X-31.213 Y7.221 E5.21219
G1 X-29.721 Y8.713 E5.26994
G1 X-28.898 Y8.713 E5.29249
G1 X-31.213 Y6.398 E5.38212
G1 X-31.213 Y5.575 E5.40466
G1 X-28.075 Y8.713 E5.52617
G1 X-27.251 Y8.713 E5.54872
G1 X-31.213 Y4.751 E5.70211
G1 X-31.213 Y3.928 E5.72465
G1 X-26.428 Y8.713 E5.90992
G1 X-25.605 Y8.713 E5.93246
G1 X-31.213 Y3.105 E6.14961
G1 X-31.213 Y2.281 E6.17215
G1 X-24.781 Y8.713 E6.42118
G1 X-23.958 Y8.713 E6.44373
G1 X-31.213 Y1.458 E6.72463
G1 X-31.213 Y0.634 E6.74718
G1 X-23.134 Y8.713 E7.05996
G1 X-22.311 Y8.713 E7.08250
G1 X-31.213 Y-0.189 E7.42717
G1 X-31.213 Y-1.012 E7.44971
G1 X-21.488 Y8.713 E7.82626
G1 X-20.664 Y8.713 E7.84880
G1 X-31.213 Y-1.836 E8.25722
G1 X-31.213 Y-2.659 E8.27976
G1 X-19.841 Y8.713 E8.72007
G1 X-19.018 Y8.713 E8.74261
G1 X-31.213 Y-3.482 E9.21479
G1 X-31.213 Y-4.306 E9.23733
G1 X-18.194 Y8.713 E9.74139
G1 X-17.371 Y8.713 E9.76394
G1 X-31.213 Y-5.129 E10.29988
G1 X-31.213 Y-5.952 E10.32242
G1 X-16.548 Y8.713 E10.89024
G1 X-15.724 Y8.713 E10.91278
G1 X-21.165 Y3.272 E11.12343
G1 X-20.134 Y3.480 E11.15223
G1 X-14.901 Y8.713 E11.35483
G1 X-14.078 Y8.713 E11.37738
G1 X-19.366 Y3.424 E11.58215
G1 X-18.731 Y3.236 E11.60029
G1 X-13.254 Y8.713 E11.81235
G1 X-12.431 Y8.713 E11.83489
G1 X-18.183 Y2.961 E12.05761
G1 X-17.704 Y2.616 E12.07376
G1 X-11.608 Y8.713 E12.30981
G1 X-10.784 Y8.713 E12.33235
G1 X-17.292 Y2.205 E12.58434
G1 X-16.969 Y1.705 E12.60064
G1 X-9.961 Y8.713 E12.87199
G1 X-9.138 Y8.713 E12.89453
G1 X-16.717 Y1.134 E13.18799
G1 X-16.558 Y0.470 E13.20668
G1 X-8.314 Y8.713 E13.52585
G1 X-7.491 Y8.713 E13.54839
G1 X-16.543 Y-0.339 E13.89888
G1 X-16.826 Y-1.446 E13.93015
G1 X-6.668 Y8.713 E14.32347
G1 X-5.844 Y8.713 E14.34601
G1 X-23.270 Y-8.713 E15.02072
G1 X-22.447 Y-8.713 E15.04326
G1 X-5.021 Y8.713 E15.71797
G1 X-4.198 Y8.713 E15.74051
G1 X-21.623 Y-8.713 E16.41522
G1 X-20.800 Y-8.713 E16.43776
G1 X-3.374 Y8.713 E17.11246
G1 X-2.551 Y8.713 E17.13501
G1 X-19.977 Y-8.713 E17.80971
G1 X-19.153 Y-8.713 E17.83225
G1 X-1.728 Y8.713 E18.50696
G1 X-0.904 Y8.713 E18.52950
G1 X-18.330 Y-8.713 E19.20421
G1 X-17.507 Y-8.713 E19.22675
G1 X-0.081 Y8.713 E19.90146
G1 X0.743 Y8.713 E19.92400
G1 X-16.683 Y-8.713 E20.59870
G1 X-15.860 Y-8.713 E20.62124
G1 X1.566 Y8.713 E21.29595
G1 X2.389 Y8.713 E21.31849
G1 X-15.037 Y-8.713 E21.99320
G1 X-14.213 Y-8.713 E22.01574
G1 X3.213 Y8.713 E22.69045
G1 X4.036 Y8.713 E22.71299
G1 X-1.547 Y3.130 E22.92913
G1 X-0.404 Y3.450 E22.96162
G1 X4.859 Y8.713 E23.16540
G1 X5.683 Y8.713 E23.18794
G1 X0.418 Y3.448 E23.39178
G1 X1.091 Y3.298 E23.41066
G1 X6.506 Y8.713 E23.62031
G1 X7.329 Y8.713 E23.64286
G1 X1.670 Y3.053 E23.86199
G1 X2.175 Y2.735 E23.87834
G1 X8.153 Y8.713 E24.10978
G1 X8.976 Y8.713 E24.13233
G1 X2.588 Y2.325 E24.37967
G1 X2.938 Y1.852 E24.39579
G1 X9.799 Y8.713 E24.66143
G1 X10.623 Y8.713 E24.68397
G1 X3.221 Y1.311 E24.97055
G1 X3.418 Y0.685 E24.98853
G1 X11.446 Y8.713 E25.29935
G1 X12.269 Y8.713 E25.32189
G1 X3.487 Y-0.069 E25.66192
G1 X3.303 Y-1.076 E25.68996
G1 X13.093 Y8.713 E26.06899
G1 X13.916 Y8.713 E26.09153
G1 X-3.510 Y-8.713 E26.76624
G1 X-2.686 Y-8.713 E26.78878
G1 X14.739 Y8.713 E27.46349
G1 X15.563 Y8.713 E27.48603
G1 X-1.863 Y-8.713 E28.16073
G1 X-1.040 Y-8.713 E28.18328
G1 X16.386 Y8.713 E28.85798
G1 X17.209 Y8.713 E28.88052
G1 X-0.216 Y-8.713 E29.55523
G1 X0.607 Y-8.713 E29.57777
G1 X18.033 Y8.713 E30.25248
G1 X18.856 Y8.713 E30.27502
G1 X1.430 Y-8.713 E30.94972
G1 X2.254 Y-8.713 E30.97227
G1 X19.679 Y8.713 E31.64697
G1 X20.503 Y8.713 E31.66951
G1 X3.077 Y-8.713 E32.34422
G1 X3.900 Y-8.713 E32.36676
G1 X21.326 Y8.713 E33.04147
G1 X22.149 Y8.713 E33.06401
G1 X4.724 Y-8.713 E33.73872
G1 X5.547 Y-8.713 E33.76126
G1 X22.973 Y8.713 E34.43596
G1 X23.796 Y8.713 E34.45851
G1 X6.370 Y-8.713 E35.13321
G1 X7.194 Y-8.713 E35.15575
G1 X16.580 Y0.674 E35.51919
G1 X16.528 Y-0.202 E35.54323
G1 X8.017 Y-8.713 E35.87274
G1 X8.840 Y-8.713 E35.89528
G1 X16.640 Y-0.914 E36.19726
G1 X16.854 Y-1.522 E36.21493
G1 X9.664 Y-8.713 E36.49334
G1 X10.487 Y-8.713 E36.51588
G1 X17.172 Y-2.028 E36.77471
G1 X17.556 Y-2.468 E36.79069
G1 X11.310 Y-8.713 E37.03249
G1 X12.134 Y-8.713 E37.05503
G1 X18.001 Y-2.846 E37.28219
G1 X18.511 Y-3.159 E37.29858
G1 X12.957 Y-8.713 E37.51363
G1 X13.781 Y-8.713 E37.53617
G1 X19.121 Y-3.373 E37.74294
G1 X19.840 Y-3.477 E37.76283
G1 X14.604 Y-8.713 E37.96555
G1 X15.427 Y-8.713 E37.98809
G1 X20.726 Y-3.414 E38.19327
G1 X23.414 Y-0.726 F7800.000
G1 X31.213 Y7.073 F1080.000 E38.49524
G1 X31.213 Y6.249 E38.51778
G1 X16.251 Y-8.713 E39.09711
G1 X17.074 Y-8.713 E39.11965
G1 X31.213 Y5.426 E39.66710
G1 X31.213 Y4.603 E39.68964
G1 X17.897 Y-8.713 E40.20520
G1 X18.721 Y-8.713 E40.22775
G1 X31.213 Y3.779 E40.71143
G1 X31.213 Y2.956 E40.73397
G1 X19.544 Y-8.713 E41.18578
G1 X20.367 Y-8.713 E41.20832
G1 X31.213 Y2.133 E41.62825
G1 X31.213 Y1.309 E41.65080
G1 X21.191 Y-8.713 E42.03885
G1 X22.014 Y-8.713 E42.06139
G1 X31.213 Y0.486 E42.41756
G1 X31.213 Y-0.337 E42.44010
G1 X22.837 Y-8.713 E42.76439
G1 X23.661 Y-8.713 E42.78693
G1 X31.213 Y-1.161 E43.07935
G1 X31.213 Y-1.984 E43.10189
G1 X24.484 Y-8.713 E43.36242
G1 X25.307 Y-8.713 E43.38497
G1 X31.213 Y-2.807 E43.61362
G1 X31.213 Y-3.631 E43.63616
G1 X26.131 Y-8.713 E43.83294
G1 X26.954 Y-8.713 E43.85548
G1 X31.213 Y-4.454 E44.02038
G1 X31.213 Y-5.277 E44.04292
G1 X27.777 Y-8.713 E44.17594
G1 X28.601 Y-8.713 E44.19848
G1 X31.213 Y-6.101 E44.29962
G1 X31.213 Y-6.924 E44.32216
G1 X29.424 Y-8.713 E44.39142
G1 X30.247 Y-8.713 E44.41396
G1 X31.213 Y-7.747 E44.45134
G1 X31.213 Y-8.571 E44.47388
G1 X31.071 Y-8.713 E44.47939
G1 X23.477 Y0.160 F7800.000
G1 X31.213 Y7.896 F1080.000 E44.77890
G1 X31.206 Y8.713 E44.80126
G1 X23.373 Y0.879 E45.10458
G1 X23.159 Y1.489 E45.12227
G1 X30.383 Y8.713 E45.40198
G1 X29.560 Y8.713 E45.42452
G1 X22.846 Y1.999 E45.68446
G1 X22.468 Y2.444 E45.70045
G1 X28.736 Y8.713 E45.94316
G1 X27.913 Y8.713 E45.96570
G1 X22.028 Y2.828 E46.19356
G1 X21.522 Y3.146 E46.20991
G1 X27.090 Y8.713 E46.42547
G1 X26.266 Y8.713 E46.44801
G1 X20.914 Y3.360 E46.65525
G1 X20.202 Y3.472 E46.67496
G1 X25.443 Y8.713 E46.87787
G1 X24.620 Y8.713 E46.90041
G1 X19.326 Y3.420 E47.10536
G1 X1.076 Y-3.303 F7800.000
G1 X-4.333 Y-8.713 F1080.000 E47.31481
G1 X-5.156 Y-8.713 E47.33735
G1 X0.069 Y-3.487 E47.53967
G1 X-0.685 Y-3.418 E47.56041
G1 X-5.980 Y-8.713 E47.76541
G1 X-6.803 Y-8.713 E47.78795
G1 X-1.311 Y-3.221 E48.00059
G1 X-1.852 Y-2.938 E48.01729
G1 X-7.626 Y-8.713 E48.24087
G1 X-8.450 Y-8.713 E48.26341
G1 X-2.325 Y-2.588 E48.50057
G1 X-2.735 Y-2.175 E48.51651
G1 X-9.273 Y-8.713 E48.76964
G1 X-10.096 Y-8.713 E48.79219
G1 X-3.053 Y-1.670 E49.06489
G1 X-3.298 Y-1.091 E49.08209
G1 X-10.920 Y-8.713 E49.37719
G1 X-11.743 Y-8.713 E49.39973
G1 X-3.448 Y-0.418 E49.72090
G1 X-3.450 Y0.404 E49.74340
G1 X-12.566 Y-8.713 E50.09638
G1 X-13.390 Y-8.713 E50.11893
G1 X-3.130 Y1.547 E50.51616
M104 S200 ; set temperature
M140 S50 ; set bed temperature
G1 F1800.000 E49.51616
G92 E0
G1 Z0.600 F7800.000
G1 X-16.812 Y0.000
G1 F1800.000 E1.00000
G1 X-16.892 Y0.710 F1800.000 E1.02199
G1 X-17.128 Y1.384 E1.04397
G1 X-17.508 Y1.988 E1.06593
G1 X-18.012 Y2.492 E1.08789
