; generated by Slic3r 0.9.10b on 2013-12-22 at 23:52:38

; layer_height = 0.2
; perimeters = 2
; top_solid_layers = 3
; bottom_solid_layers = 3
; fill_density = 0.4
; perimeter_speed = 30
; infill_speed = 60
; travel_speed = 130
; nozzle_diameter = 0.5
; filament_diameter = 2.85
; extrusion_multiplier = 1
; perimeters extrusion width = 0.85mm
; infill extrusion width = 1.02mm
; solid infill extrusion width = 0.85mm
; top infill extrusion width = 0.85mm
; first layer extrusion width = 0.40mm

G21 ; set units to millimeters
M107
M104 S0
M83
M140 S70
G28
G1Y98F9000
M190 S70
G1X5Y98Z150F9000
M104 S210
G1X5Y98Z1F9000
G1Z0.05
M109 S210
G1Z5
G1X15
;G1E5F50
G90 ; use absolute coordinates
G92 E0
M82 ; use absolute distances for extrusion
G1 F1800.000 E-1.00000
G92 E0
G1 Z0.200 F7800.000
G1 X8.900 Y16.169
G1 F1800.000 E1.00000
G1 X-8.910 Y16.169 F540.000 E1.23533
G1 X-10.330 Y16.009 E1.25421
G1 X-11.670 Y15.549 E1.27293
G1 X-12.880 Y14.789 E1.29181
G1 X-13.900 Y13.789 E1.31068
G1 X-15.350 Y11.999 E1.34112
G1 X-15.810 Y11.349 E1.35164
G1 X-16.190 Y10.649 E1.36217
G1 X-17.830 Y7.089 E1.41396
G1 X-18.270 Y5.779 E1.43222
G1 X-18.420 Y4.399 E1.45056
G1 X-18.420 Y-9.751 E1.63752
G1 X-18.300 Y-11.001 E1.65412
G1 X-17.930 Y-12.211 E1.67083
G1 X-17.340 Y-13.321 E1.68744
G1 X-16.540 Y-14.291 E1.70406
G1 X-15.570 Y-15.091 E1.72067
G1 X-14.460 Y-15.681 E1.73728
G1 X-13.250 Y-16.051 E1.75400
G1 X-12.000 Y-16.171 E1.77059
G1 X12.000 Y-16.171 E2.08771
G1 X13.250 Y-16.051 E2.10430
G1 X14.460 Y-15.681 E2.12102
G1 X15.570 Y-15.091 E2.13763
G1 X16.540 Y-14.291 E2.15424
G1 X17.340 Y-13.321 E2.17086
G1 X17.930 Y-12.211 E2.18747
G1 X18.300 Y-11.001 E2.20418
G1 X18.420 Y-9.751 E2.22078
G1 X18.420 Y4.399 E2.40774
G1 X18.270 Y5.779 E2.42608
G1 X17.830 Y7.099 E2.44447
G1 X16.180 Y10.659 E2.49631
G1 X15.800 Y11.359 E2.50684
G1 X15.340 Y11.999 E2.51725
G1 X13.890 Y13.789 E2.54769
G1 X12.870 Y14.789 E2.56657
G1 X11.660 Y15.549 E2.58545
G1 X10.320 Y16.009 E2.60416
G1 X8.963 Y16.162 E2.62221
G1 F1800.000 E1.62221
G92 E0
G1 X6.518 Y3.632 F7800.000
G1 F1800.000 E1.00000
G1 X6.518 Y9.120 F540.000 E1.07251
G1 X6.423 Y9.153 E1.07384
G1 X5.241 Y7.677 E1.09883
G1 X5.034 Y6.508 E1.11452
G1 X6.118 Y6.317 E1.12906
G1 X5.644 Y3.632 E1.16507
G1 X6.455 Y3.632 E1.17578
G1 F1800.000 E0.17578
G92 E0
G1 X8.577 Y9.153 F7800.000
G1 F1800.000 E1.00000
G1 X8.482 Y9.120 F540.000 E1.00133
G1 X8.482 Y3.632 E1.07384
G1 X9.356 Y3.632 E1.08538
G1 X8.882 Y6.317 E1.12140
G1 X9.966 Y6.508 E1.13593
G1 X9.759 Y7.677 E1.15163
G1 X8.617 Y9.104 E1.17578
G1 X8.829 Y9.513 F7800.000
G1 X8.061 Y9.377 F540.000 E1.18609
G1 X8.061 Y3.489 E1.26389
G1 X6.939 Y3.489 E1.27871
G1 X6.939 Y9.377 E1.35651
G1 X6.171 Y9.513 E1.36682
G1 X4.844 Y7.857 E1.39486
G1 X4.546 Y6.166 E1.41755
G1 X5.629 Y5.975 E1.43208
G1 X5.315 Y4.189 E1.45604
G1 X3.211 Y4.189 E1.48384
G1 X3.211 Y3.211 E1.49677
G1 X11.789 Y3.211 E1.61012
G1 X11.789 Y4.189 E1.62305
G1 X9.685 Y4.189 E1.65085
G1 X9.371 Y5.975 E1.67480
G1 X10.454 Y6.166 E1.68933
G1 X10.156 Y7.857 E1.71202
G1 X8.869 Y9.464 E1.73923
G1 X8.556 Y9.192 F7800.000
G1 F1800.000 E0.73923
G92 E0
G1 X7.500 Y3.350 F7800.000
G1 F1800.000 E1.00000
G1 X7.587 Y3.438 F540.000 E1.00164
G1 X7.500 Y3.350 F7800.000
G1 X7.587 Y3.262 F540.000 E1.00327
G1 X7.413 Y3.263 F7800.000
G1 X7.413 Y3.262 F540.000 E1.00327
G1 X7.413 Y3.263 F7800.000
G1 X7.500 Y3.350 F540.000 E1.00491
G1 X7.413 Y3.438 E1.00654
G1 F1800.000 E0.00654
G92 E0
G1 X6.111 Y6.628 F7800.000
G1 F1800.000 E1.00000
G1 X6.212 Y6.729 F1080.000 E1.00191
G1 X6.212 Y7.331 E1.00995
G1 X5.599 Y6.718 E1.02152
G1 X5.464 Y7.185 E1.02801
G1 X6.212 Y7.933 E1.04213
G1 F1800.000 E0.04213
G92 E0
G1 X8.788 Y8.100 F7800.000
G1 F1800.000 E1.00000
G1 X8.922 Y8.235 F1080.000 E1.00251
G1 X9.190 Y7.900 F7800.000
G1 X8.788 Y7.498 F1080.000 E1.01002
G1 X8.788 Y6.896 F7800.000
G1 X9.457 Y7.566 F1080.000 E1.02253
G1 X9.557 Y7.064 F7800.000
G1 X9.171 Y6.678 F1080.000 E1.02975
G1 X8.809 Y5.058 F7800.000
G1 X8.773 Y5.022 F360.000 E1.03013
G1 X8.859 Y4.775 F7800.000
G1 X8.773 Y4.689 F360.000 E1.03102
G1 X8.909 Y4.493 F7800.000
G1 X8.773 Y4.357 F360.000 E1.03242
G1 X8.959 Y4.210 F7800.000
G1 X8.773 Y4.024 F360.000 E1.03434
G1 X9.004 Y3.923 F7800.000
G1 X9.009 Y3.927 F360.000 E1.03439
G1 X9.884 Y3.779 F7800.000
G1 X9.767 Y3.662 F360.000 E1.03659
G1 X10.329 Y3.621 E1.04411
G1 X10.486 Y3.779 E1.04707
G1 X10.931 Y3.621 E1.05337
G1 X11.088 Y3.779 E1.05634
G1 F1800.000 E0.05634
G92 E0
G1 X6.227 Y5.136 F7800.000
G1 F1800.000 E1.00000
G1 X6.200 Y5.108 F360.000 E1.00029
G1 X6.227 Y4.803 E1.00254
G1 X6.128 Y4.704 E1.00357
G1 X6.227 Y4.471 E1.00544
G1 X6.057 Y4.301 E1.00721
G1 X6.227 Y4.138 E1.00895
G1 X6.012 Y3.923 E1.01119
G1 X4.911 Y3.621 F7800.000
G1 X5.068 Y3.779 F360.000 E1.01413
G1 X4.309 Y3.621 F7800.000
G1 X4.466 Y3.779 F360.000 E1.01707
G1 X3.864 Y3.779 F7800.000
G1 X3.706 Y3.621 F360.000 E1.02001
G1 F1800.000 E0.02001
G92 E0
G1 X5.644 Y-9.119 F7800.000
G1 F1800.000 E1.00000
G1 X6.518 Y-9.119 F540.000 E1.01154
G1 X6.518 Y-3.631 E1.08405
G1 X6.423 Y-3.598 E1.08538
G1 X5.241 Y-5.074 E1.11037
G1 X5.034 Y-6.244 E1.12607
G1 X6.118 Y-6.435 E1.14060
G1 X5.655 Y-9.057 E1.17578
G1 X9.356 Y-9.119 F7800.000
G1 X8.882 Y-6.435 F540.000 E1.21180
G1 X9.966 Y-6.244 E1.22633
G1 X9.759 Y-5.074 E1.24203
G1 X8.577 Y-3.598 E1.26701
G1 X8.482 Y-3.631 E1.26834
G1 X8.482 Y-9.119 E1.34086
G1 X9.292 Y-9.119 E1.35156
G1 X9.685 Y-8.562 F7800.000
G1 X9.371 Y-6.776 F540.000 E1.37552
G1 X10.454 Y-6.585 E1.39005
G1 X10.156 Y-4.894 E1.41274
G1 X8.829 Y-3.238 E1.44078
G1 X8.061 Y-3.374 E1.45109
G1 X8.061 Y-9.262 E1.52889
G1 X6.939 Y-9.262 E1.54371
G1 X6.939 Y-3.374 E1.62151
G1 X6.171 Y-3.238 E1.63182
G1 X4.844 Y-4.894 E1.65986
G1 X4.546 Y-6.585 E1.68255
G1 X5.629 Y-6.776 E1.69708
G1 X5.315 Y-8.562 E1.72104
G1 X3.211 Y-8.562 E1.74883
G1 X3.211 Y-9.540 E1.76176
G1 X11.789 Y-9.540 E1.87511
G1 X11.789 Y-8.562 E1.88804
G1 X9.749 Y-8.562 E1.91501
G1 X9.267 Y-8.611 F7800.000
G1 X7.500 Y-9.401
G1 X7.587 Y-9.314 F540.000 E1.91664
G1 X7.500 Y-9.401 F7800.000
G1 X7.587 Y-9.489 F540.000 E1.91828
G1 X7.413 Y-9.489 F7800.000
G1 X7.413 Y-9.489 F540.000 E1.91828
G1 X7.413 Y-9.489 F7800.000
G1 X7.500 Y-9.401 F540.000 E1.91991
G1 X7.413 Y-9.314 E1.92155
G1 F1800.000 E0.92155
G92 E0
G1 X6.111 Y-6.123 F7800.000
G1 F1800.000 E1.00000
G1 X6.212 Y-6.022 F1080.000 E1.00191
G1 X6.212 Y-5.420 E1.00995
G1 X5.599 Y-6.033 E1.02152
G1 X5.464 Y-5.566 E1.02801
G1 X6.212 Y-4.818 E1.04213
G1 F1800.000 E0.04213
G92 E0
G1 X8.788 Y-4.651 F7800.000
G1 F1800.000 E1.00000
G1 X8.922 Y-4.516 F1080.000 E1.00251
G1 X9.190 Y-4.851 F7800.000
G1 X8.788 Y-5.253 F1080.000 E1.01002
G1 X8.788 Y-5.855 F7800.000
G1 X9.457 Y-5.185 F1080.000 E1.02253
G1 X9.557 Y-5.687 F7800.000
G1 X9.171 Y-6.074 F1080.000 E1.02975
G1 X8.809 Y-7.693 F7800.000
G1 X8.773 Y-7.730 F360.000 E1.03013
G1 X8.859 Y-7.976 F7800.000
G1 X8.773 Y-8.062 F360.000 E1.03102
G1 X8.909 Y-8.258 F7800.000
G1 X8.773 Y-8.395 F360.000 E1.03242
G1 X8.959 Y-8.541 F7800.000
G1 X8.773 Y-8.727 F360.000 E1.03434
G1 X9.004 Y-8.828 F7800.000
G1 X9.009 Y-8.824 F360.000 E1.03439
G1 X9.884 Y-8.972 F7800.000
G1 X9.767 Y-9.089 F360.000 E1.03659
G1 X10.329 Y-9.130 E1.04411
G1 X10.486 Y-8.972 E1.04707
G1 X10.931 Y-9.130 E1.05337
G1 X11.088 Y-8.972 E1.05634
G1 F1800.000 E0.05634
G92 E0
G1 X6.227 Y-7.615 F7800.000
G1 F1800.000 E1.00000
G1 X6.200 Y-7.643 F360.000 E1.00029
G1 X6.227 Y-7.948 E1.00254
G1 X6.128 Y-8.047 E1.00357
G1 X6.227 Y-8.280 E1.00544
G1 X6.057 Y-8.450 E1.00721
G1 X6.227 Y-8.613 E1.00895
G1 X6.012 Y-8.828 E1.01119
G1 X4.911 Y-9.130 F7800.000
G1 X5.068 Y-8.972 F360.000 E1.01413
G1 X4.309 Y-9.130 F7800.000
G1 X4.466 Y-8.972 F360.000 E1.01707
G1 X3.864 Y-8.972 F7800.000
G1 X3.706 Y-9.130 F360.000 E1.02001
G1 F1800.000 E0.02001
G92 E0
G1 X-8.482 Y-9.119 F7800.000
G1 F1800.000 E1.00000
G1 X-8.482 Y-3.631 F540.000 E1.07251
G1 X-8.577 Y-3.598 E1.07384
G1 X-9.759 Y-5.074 E1.09883
G1 X-9.966 Y-6.244 E1.11452
G1 X-8.882 Y-6.435 E1.12906
G1 X-9.356 Y-9.119 E1.16507
G1 X-8.545 Y-9.119 E1.17578
G1 F1800.000 E0.17578
G92 E0
G1 X-6.423 Y-3.598 F7800.000
G1 F1800.000 E1.00000
G1 X-6.518 Y-3.631 F540.000 E1.00133
G1 X-6.518 Y-9.119 E1.07384
G1 X-5.644 Y-9.119 E1.08538
G1 X-6.118 Y-6.435 E1.12140
G1 X-5.034 Y-6.244 E1.13593
G1 X-5.241 Y-5.074 E1.15163
G1 X-6.383 Y-3.647 E1.17578
G1 X-6.171 Y-3.238 F7800.000
G1 X-6.939 Y-3.374 F540.000 E1.18609
G1 X-6.939 Y-9.262 E1.26389
G1 X-8.061 Y-9.262 E1.27871
G1 X-8.061 Y-3.374 E1.35651
G1 X-8.829 Y-3.238 E1.36682
G1 X-10.156 Y-4.894 E1.39486
G1 X-10.454 Y-6.585 E1.41755
G1 X-9.371 Y-6.776 E1.43208
G1 X-9.685 Y-8.562 E1.45604
G1 X-11.789 Y-8.562 E1.48384
G1 X-11.789 Y-9.540 E1.49677
G1 X-3.211 Y-9.540 E1.61012
G1 X-3.211 Y-8.562 E1.62305
G1 X-5.315 Y-8.562 E1.65085
G1 X-5.629 Y-6.776 E1.67480
G1 X-4.546 Y-6.585 E1.68933
G1 X-4.844 Y-4.894 E1.71202
G1 X-6.131 Y-3.287 E1.73923
G1 X-6.444 Y-3.559 F7800.000
G1 F1800.000 E0.73923
G92 E0
G1 X-7.500 Y-9.401 F7800.000
G1 F1800.000 E1.00000
G1 X-7.413 Y-9.314 F540.000 E1.00164
G1 X-7.500 Y-9.401 F7800.000
G1 X-7.413 Y-9.489 F540.000 E1.00327
G1 X-7.587 Y-9.489 F7800.000
G1 X-7.587 Y-9.489 F540.000 E1.00327
G1 X-7.587 Y-9.489 F7800.000
G1 X-7.500 Y-9.401 F540.000 E1.00491
G1 X-7.587 Y-9.314 E1.00654
G1 F1800.000 E0.00654
G92 E0
G1 X-8.889 Y-6.123 F7800.000
G1 F1800.000 E1.00000
G1 X-8.788 Y-6.022 F1080.000 E1.00191
G1 X-8.788 Y-5.420 E1.00995
G1 X-9.401 Y-6.033 E1.02152
G1 X-9.536 Y-5.566 E1.02801
G1 X-8.788 Y-4.818 E1.04213
G1 F1800.000 E0.04213
G92 E0
G1 X-6.212 Y-4.651 F7800.000
G1 F1800.000 E1.00000
G1 X-6.078 Y-4.516 F1080.000 E1.00251
G1 X-5.810 Y-4.851 F7800.000
G1 X-6.212 Y-5.253 F1080.000 E1.01002
G1 X-6.212 Y-5.855 F7800.000
G1 X-5.543 Y-5.185 F1080.000 E1.02253
G1 X-5.443 Y-5.687 F7800.000
G1 X-5.829 Y-6.074 F1080.000 E1.02975
G1 X-6.191 Y-7.693 F7800.000
G1 X-6.227 Y-7.730 F360.000 E1.03013
G1 X-6.141 Y-7.976 F7800.000
G1 X-6.227 Y-8.062 F360.000 E1.03102
G1 X-6.091 Y-8.258 F7800.000
G1 X-6.227 Y-8.395 F360.000 E1.03242
G1 X-6.041 Y-8.541 F7800.000
G1 X-6.227 Y-8.727 F360.000 E1.03434
G1 X-5.996 Y-8.828 F7800.000
G1 X-5.991 Y-8.824 F360.000 E1.03439
G1 X-5.116 Y-8.972 F7800.000
G1 X-5.233 Y-9.089 F360.000 E1.03659
G1 X-4.671 Y-9.130 E1.04411
G1 X-4.514 Y-8.972 E1.04707
G1 X-4.069 Y-9.130 E1.05337
G1 X-3.912 Y-8.972 E1.05634
G1 F1800.000 E0.05634
G92 E0
G1 X-8.773 Y-7.615 F7800.000
G1 F1800.000 E1.00000
G1 X-8.800 Y-7.643 F360.000 E1.00029
G1 X-8.773 Y-7.948 E1.00254
G1 X-8.872 Y-8.047 E1.00357
G1 X-8.773 Y-8.280 E1.00544
G1 X-8.943 Y-8.450 E1.00721
G1 X-8.773 Y-8.613 E1.00895
G1 X-8.988 Y-8.828 E1.01119
G1 X-10.089 Y-9.130 F7800.000
G1 X-9.932 Y-8.972 F360.000 E1.01413
G1 X-10.691 Y-9.130 F7800.000
G1 X-10.534 Y-8.972 F360.000 E1.01707
G1 X-11.136 Y-8.972 F7800.000
G1 X-11.294 Y-9.130 F360.000 E1.02001
G1 F1800.000 E0.02001
G92 E0
G1 X-8.482 Y9.120 F7800.000
G1 F1800.000 E1.00000
G1 X-8.577 Y9.153 F540.000 E1.00133
G1 X-9.759 Y7.677 E1.02632
G1 X-9.966 Y6.508 E1.04201
G1 X-8.882 Y6.317 E1.05655
G1 X-9.356 Y3.632 E1.09256
G1 X-8.482 Y3.632 E1.10411
G1 X-8.482 Y9.057 E1.17578
G1 F1800.000 E0.17578
G92 E0
G1 X-5.241 Y7.677 F7800.000
G1 F1800.000 E1.00000
G1 X-6.423 Y9.153 F540.000 E1.02499
G1 X-6.518 Y9.120 E1.02632
G1 X-6.518 Y3.632 E1.09883
G1 X-5.644 Y3.632 E1.11037
G1 X-6.118 Y6.317 E1.14639
G1 X-5.034 Y6.508 E1.16092
G1 X-5.230 Y7.615 E1.17578
G1 X-4.844 Y7.857 F7800.000
G1 X-6.171 Y9.513 F540.000 E1.20382
G1 X-6.939 Y9.377 E1.21413
G1 X-6.939 Y3.489 E1.29193
G1 X-8.061 Y3.489 E1.30675
G1 X-8.061 Y9.377 E1.38455
G1 X-8.829 Y9.513 E1.39486
G1 X-10.156 Y7.857 E1.42290
G1 X-10.454 Y6.166 E1.44559
G1 X-9.371 Y5.975 E1.46012
G1 X-9.685 Y4.189 E1.48408
G1 X-11.789 Y4.189 E1.51188
G1 X-11.789 Y3.211 E1.52481
G1 X-3.211 Y3.211 E1.63815
G1 X-3.211 Y4.189 E1.65108
G1 X-5.315 Y4.189 E1.67888
G1 X-5.629 Y5.975 E1.70284
G1 X-4.546 Y6.166 E1.71737
G1 X-4.833 Y7.794 E1.73923
G1 X-5.266 Y7.863 F7800.000
G1 F1800.000 E0.73923
G92 E0
G1 X-7.500 Y3.350 F7800.000
G1 F1800.000 E1.00000
G1 X-7.413 Y3.438 F540.000 E1.00164
G1 X-7.500 Y3.350 F7800.000
G1 X-7.413 Y3.262 F540.000 E1.00327
G1 X-7.587 Y3.263 F7800.000
G1 X-7.587 Y3.262 F540.000 E1.00327
G1 X-7.587 Y3.263 F7800.000
G1 X-7.500 Y3.350 F540.000 E1.00491
G1 X-7.587 Y3.438 E1.00654
G1 F1800.000 E0.00654
G92 E0
G1 X-8.889 Y6.628 F7800.000
G1 F1800.000 E1.00000
G1 X-8.788 Y6.729 F1080.000 E1.00191
G1 X-8.788 Y7.331 E1.00995
G1 X-9.401 Y6.718 E1.02152
G1 X-9.536 Y7.185 E1.02801
G1 X-8.788 Y7.933 E1.04213
G1 F1800.000 E0.04213
G92 E0
G1 X-6.212 Y8.100 F7800.000
G1 F1800.000 E1.00000
G1 X-6.078 Y8.235 F1080.000 E1.00251
G1 X-5.810 Y7.900 F7800.000
G1 X-6.212 Y7.498 F1080.000 E1.01002
G1 X-6.212 Y6.896 F7800.000
G1 X-5.543 Y7.566 F1080.000 E1.02253
G1 X-5.443 Y7.064 F7800.000
G1 X-5.829 Y6.678 F1080.000 E1.02975
G1 X-6.191 Y5.058 F7800.000
G1 X-6.227 Y5.022 F360.000 E1.03013
G1 X-6.141 Y4.775 F7800.000
G1 X-6.227 Y4.689 F360.000 E1.03102
G1 X-6.091 Y4.493 F7800.000
G1 X-6.227 Y4.357 F360.000 E1.03242
G1 X-6.041 Y4.210 F7800.000
G1 X-6.227 Y4.024 F360.000 E1.03434
G1 X-5.996 Y3.923 F7800.000
G1 X-5.991 Y3.927 F360.000 E1.03439
G1 X-5.116 Y3.779 F7800.000
G1 X-5.233 Y3.662 F360.000 E1.03659
G1 X-4.671 Y3.621 E1.04411
G1 X-4.514 Y3.779 E1.04707
G1 X-4.069 Y3.621 E1.05337
G1 X-3.912 Y3.779 E1.05634
G1 F1800.000 E0.05634
G92 E0
G1 X-8.773 Y5.136 F7800.000
G1 F1800.000 E1.00000
G1 X-8.800 Y5.108 F360.000 E1.00029
G1 X-8.773 Y4.803 E1.00254
G1 X-8.872 Y4.704 E1.00357
G1 X-8.773 Y4.471 E1.00544
G1 X-8.943 Y4.301 E1.00721
G1 X-8.773 Y4.138 E1.00895
G1 X-8.988 Y3.923 E1.01119
G1 X-10.089 Y3.621 F7800.000
G1 X-9.932 Y3.779 F360.000 E1.01413
G1 X-10.691 Y3.621 F7800.000
G1 X-10.534 Y3.779 F360.000 E1.01707
G1 X-11.136 Y3.779 F7800.000
G1 X-11.294 Y3.621 F360.000 E1.02001
M104 S200 ; set temperature
M140 S50 ; set bed temperature
G1 F1800.000 E0.02001
G92 E0
G1 Z0.400 F7800.000
G1 X3.404 Y3.404
G1 F1800.000 E1.00000
G1 X6.746 Y3.404 F693.365 E1.08458
G1 X6.746 Y9.216 E1.23165
G1 X6.250 Y9.303 E1.24441
G1 X5.026 Y7.775 E1.29396
G1 X4.769 Y6.322 E1.33128
G1 X5.853 Y6.131 E1.35911
G1 X5.476 Y3.996 E1.41395
G1 X3.404 Y3.996 E1.46640
G1 X3.404 Y3.525 E1.47834
G1 X4.102 Y3.807 F7800.000
G1 X8.254 Y3.404
G1 X11.596 Y3.404 F693.365 E1.56293
G1 X11.596 Y3.996 E1.57793
G1 X9.524 Y3.996 E1.63038
G1 X9.147 Y6.131 E1.68522
G1 X10.231 Y6.322 E1.71306
G1 X9.974 Y7.775 E1.75038
G1 X8.750 Y9.303 E1.79993
G1 X8.254 Y9.216 E1.81269
G1 X8.254 Y3.525 E1.95669
G1 X8.952 Y3.807 F7800.000
G1 X10.701 Y3.696
G1 X11.299 Y3.699 F693.365 E1.97182
G1 X11.487 Y3.525 E1.97830
G1 X11.299 Y3.699 F7800.000
G1 X11.466 Y3.869 F693.365 E1.98432
G1 X11.466 Y3.869 F7800.000
G1 X11.478 Y3.875 F693.365 E1.98467
G1 X10.632 Y3.634 F7800.000
G1 X10.397 Y3.952 F693.365 E1.99470
G1 X10.397 Y3.952 F7800.000
G1 X10.395 Y3.953 F693.365 E1.99474
G1 F1800.000 E0.99474
G92 E0
G1 X4.605 Y3.953 F7800.000
G1 F1800.000 E1.00000
G1 X4.603 Y3.952 F693.365 E1.00005
G1 X4.603 Y3.952 F7800.000
G1 X4.299 Y3.696 F693.365 E1.01011
G1 X4.368 Y3.634 F7800.000
G1 X3.945 Y3.693 F693.365 E1.02090
G1 X3.945 Y3.693 F7800.000
G1 X3.701 Y3.699 F693.365 E1.02708
G1 X3.534 Y3.869 F7800.000
G1 X3.522 Y3.875 F693.365 E1.02744
G1 X3.534 Y3.869 F7800.000
G1 X3.701 Y3.699 F693.365 E1.03346
G1 X3.513 Y3.525 E1.03994
G1 F1800.000 E0.03994
G92 E0
G1 X5.918 Y7.116 F7800.000
G1 F1800.000 E1.00000
G1 X5.776 Y7.259 F600.000 E1.00523
G1 X6.173 Y4.600 F7800.000
G1 X6.087 Y4.156 F600.000 E1.01055
G1 X6.173 Y4.070 E1.01198
G1 F1800.000 E0.01198
G92 E0
G1 X8.837 Y4.588 F7800.000
G1 F1800.000 E1.00000
G1 X8.827 Y4.598 F600.000 E1.00017
G1 X8.827 Y4.068 E1.00639
G1 X8.918 Y3.977 E1.00790
G1 X9.209 Y7.342 F7800.000
G1 X9.082 Y7.470 F600.000 E1.01246
G1 F1800.000 E0.01246
G92 E0
G1 X6.746 Y-3.535 F7800.000
G1 F1800.000 E1.00000
G1 X6.250 Y-3.448 F693.365 E1.01276
G1 X5.026 Y-4.976 E1.06231
G1 X4.769 Y-6.429 E1.09963
G1 X5.853 Y-6.620 E1.12746
G1 X5.476 Y-8.755 E1.18231
G1 X3.404 Y-8.755 E1.23476
G1 X3.404 Y-9.348 E1.24976
G1 X6.746 Y-9.348 E1.33434
G1 X6.746 Y-3.656 E1.47834
G1 X6.283 Y-3.735 F7800.000
G1 X8.254 Y-3.535
G1 X8.254 Y-9.348 F693.365 E1.62540
