; generated by Slic3r 0.9.10b on 2013-12-23 at 13:18:49

; layer_height = 0.2
; perimeters = 2
; top_solid_layers = 3
; bottom_solid_layers = 3
; fill_density = 0.4
; perimeter_speed = 30
; infill_speed = 60
; travel_speed = 130
; nozzle_diameter = 0.5
; filament_diameter = 2.85
; extrusion_multiplier = 1
; perimeters extrusion width = 0.85mm
; infill extrusion width = 1.02mm
; solid infill extrusion width = 0.85mm
; top infill extrusion width = 0.85mm
; first layer extrusion width = 0.40mm

G21 ; set units to millimeters
M107
M104 S0
M83
M140 S70
G28
G1Y98F9000
M190 S70
G1X5Y98Z150F9000
M104 S210
G1X5Y98Z1F9000
G1Z0.05
M109 S210
G1Z5
G1X15
;G1E5F50
G90 ; use absolute coordinates
G92 E0
M82 ; use absolute distances for extrusion
G1 F1800.000 E-1.00000
G92 E0
G1 Z0.200 F7800.000
G1 X8.900 Y9.794
G1 F1800.000 E1.00000
G1 X-8.910 Y9.794 F540.000 E1.23533
G1 X-10.220 Y9.664 E1.25272
G1 X-11.470 Y9.264 E1.27006
G1 X-12.620 Y8.614 E1.28752
G1 X-13.610 Y7.754 E1.30484
G1 X-15.250 Y5.994 E1.33663
G1 X-15.970 Y5.064 E1.35217
G1 X-16.500 Y4.014 E1.36771
G1 X-17.950 Y0.424 E1.41887
G1 X-18.300 Y-0.756 E1.43513
G1 X-18.420 Y-1.976 E1.45133
G1 X-18.420 Y-3.376 E1.46983
G1 X-18.300 Y-4.626 E1.48642
G1 X-17.930 Y-5.836 E1.50314
G1 X-17.340 Y-6.946 E1.51975
G1 X-16.540 Y-7.916 E1.53636
G1 X-15.570 Y-8.716 E1.55298
G1 X-14.460 Y-9.306 E1.56959
G1 X-13.250 Y-9.676 E1.58631
G1 X-12.000 Y-9.796 E1.60290
G1 X12.000 Y-9.796 E1.92001
G1 X13.250 Y-9.676 E1.93661
G1 X14.460 Y-9.306 E1.95333
G1 X15.570 Y-8.716 E1.96993
G1 X16.540 Y-7.916 E1.98655
G1 X17.340 Y-6.946 E2.00316
G1 X17.930 Y-5.836 E2.01977
G1 X18.300 Y-4.626 E2.03649
G1 X18.420 Y-3.376 E2.05308
G1 X18.420 Y-1.976 E2.07158
G1 X18.300 Y-0.746 E2.08791
G1 X17.950 Y0.444 E2.10430
G1 X16.490 Y4.034 E2.15551
G1 X15.950 Y5.074 E2.17099
G1 X15.240 Y5.994 E2.18635
G1 X13.600 Y7.754 E2.21813
G1 X12.610 Y8.614 E2.23546
G1 X11.460 Y9.264 E2.25292
G1 X10.210 Y9.664 E2.27026
G1 X8.963 Y9.788 E2.28682
G1 F1800.000 E1.28682
G92 E0
G1 X8.898 Y4.017 F7800.000
G1 F1800.000 E1.00000
G1 X7.587 Y3.773 F540.000 E1.01762
G1 X7.500 Y3.722 E1.01896
G1 X7.413 Y3.773 E1.02029
G1 X6.102 Y4.017 E1.03791
G1 X5.996 Y4.010 E1.03931
G1 X5.792 Y3.943 E1.04214
G1 X5.703 Y3.886 E1.04355
G1 X3.949 Y2.011 E1.07747
G1 X3.840 Y1.794 E1.08068
G1 X3.453 Y-0.405 E1.11017
G1 X3.489 Y-0.568 E1.11239
G1 X3.685 Y-0.849 E1.11691
G1 X3.827 Y-0.939 E1.11913
G1 X4.653 Y-1.085 E1.13021
G1 X4.607 Y-1.343 E1.13368
G1 X2.829 Y-1.343 E1.15718
G1 X2.674 Y-1.408 E1.15940
G1 X2.432 Y-1.650 E1.16392
G1 X2.368 Y-1.804 E1.16613
G1 X2.368 Y-3.547 E1.18915
G1 X2.432 Y-3.702 E1.19137
G1 X2.674 Y-3.944 E1.19589
G1 X2.829 Y-4.008 E1.19811
G1 X7.192 Y-4.008 E1.25576
G1 X7.241 Y-4.028 E1.25646
G1 X7.540 Y-4.035 E1.26040
G1 X7.759 Y-4.028 E1.26330
G1 X7.808 Y-4.008 E1.26400
G1 X12.171 Y-4.008 E1.32166
G1 X12.326 Y-3.944 E1.32387
G1 X12.568 Y-3.702 E1.32839
G1 X12.632 Y-3.547 E1.33061
G1 X12.632 Y-1.804 E1.35363
G1 X12.568 Y-1.650 E1.35585
G1 X12.326 Y-1.408 E1.36037
G1 X12.171 Y-1.343 E1.36258
G1 X10.393 Y-1.343 E1.38608
G1 X10.347 Y-1.085 E1.38955
G1 X11.173 Y-0.939 E1.40064
G1 X11.315 Y-0.849 E1.40285
G1 X11.511 Y-0.568 E1.40738
G1 X11.547 Y-0.405 E1.40959
G1 X11.141 Y1.851 E1.43988
G1 X11.051 Y2.011 E1.44230
G1 X9.297 Y3.886 E1.47622
G1 X9.208 Y3.943 E1.47763
G1 X8.961 Y4.012 E1.48101
G1 X8.863 Y3.581 F7800.000
G1 X7.834 Y3.390 F540.000 E1.49483
G1 X7.639 Y3.156 E1.49886
G1 X7.639 Y-2.465 E1.57312
G1 X7.537 Y-2.465 E1.57447
G1 X7.500 Y-2.554 E1.57575
G1 X7.463 Y-2.465 E1.57703
G1 X7.361 Y-2.465 E1.57838
G1 X7.361 Y3.156 E1.65265
G1 X7.166 Y3.390 E1.65667
G1 X6.137 Y3.581 E1.67049
G1 X5.932 Y3.514 E1.67335
G1 X4.299 Y1.768 E1.70493
G1 X4.245 Y1.659 E1.70655
G1 X3.904 Y-0.274 E1.73248
G1 X4.104 Y-0.560 E1.73709
G1 X5.141 Y-0.743 E1.75101
G1 X4.961 Y-1.765 E1.76472
G1 X3.036 Y-1.765 E1.79015
G1 X2.789 Y-2.012 E1.79477
G1 X2.789 Y-3.339 E1.81231
G1 X3.036 Y-3.586 E1.81692
G1 X7.283 Y-3.586 E1.87303
G1 X7.485 Y-3.461 E1.87618
G1 X7.537 Y-3.586 E1.87797
G1 X11.964 Y-3.586 E1.93646
G1 X12.211 Y-3.339 E1.94107
G1 X12.211 Y-2.012 E1.95862
G1 X11.964 Y-1.765 E1.96323
G1 X10.039 Y-1.765 E1.98866
G1 X9.859 Y-0.743 E2.00238
G1 X10.896 Y-0.560 E2.01629
G1 X11.096 Y-0.274 E2.02090
G1 X10.755 Y1.659 E2.04684
G1 X10.701 Y1.768 E2.04845
G1 X9.068 Y3.514 E2.08004
G1 X8.923 Y3.562 E2.08205
G1 F1800.000 E1.08205
G92 E0
G1 X-2.432 Y-1.650 F7800.000
G1 F1800.000 E1.00000
G1 X-2.674 Y-1.408 F540.000 E1.00452
G1 X-2.829 Y-1.343 E1.00674
G1 X-4.607 Y-1.343 E1.03024
G1 X-4.653 Y-1.085 E1.03371
G1 X-3.827 Y-0.939 E1.04479
G1 X-3.685 Y-0.849 E1.04701
G1 X-3.489 Y-0.568 E1.05153
G1 X-3.453 Y-0.405 E1.05375
G1 X-3.840 Y1.794 E1.08324
G1 X-3.949 Y2.011 E1.08645
G1 X-5.703 Y3.886 E1.12037
G1 X-5.792 Y3.943 E1.12178
G1 X-5.996 Y4.010 E1.12460
G1 X-6.102 Y4.017 E1.12601
G1 X-7.413 Y3.773 E1.14363
G1 X-7.500 Y3.722 E1.14496
G1 X-7.587 Y3.773 E1.14630
G1 X-8.898 Y4.017 E1.16392
G1 X-9.004 Y4.010 E1.16532
G1 X-9.208 Y3.943 E1.16815
G1 X-9.297 Y3.886 E1.16955
G1 X-11.051 Y2.011 E1.20348
G1 X-11.160 Y1.794 E1.20669
G1 X-11.547 Y-0.405 E1.23618
G1 X-11.511 Y-0.568 E1.23840
G1 X-11.315 Y-0.849 E1.24292
G1 X-11.173 Y-0.939 E1.24513
G1 X-10.347 Y-1.085 E1.25622
G1 X-10.393 Y-1.343 E1.25969
G1 X-12.171 Y-1.343 E1.28319
G1 X-12.326 Y-1.408 E1.28540
G1 X-12.568 Y-1.650 E1.28993
G1 X-12.632 Y-1.804 E1.29214
G1 X-12.632 Y-3.547 E1.31516
G1 X-12.568 Y-3.702 E1.31738
G1 X-12.326 Y-3.944 E1.32190
G1 X-12.171 Y-4.008 E1.32411
G1 X-7.808 Y-4.008 E1.38177
G1 X-7.759 Y-4.028 E1.38247
G1 X-7.460 Y-4.035 E1.38641
G1 X-7.241 Y-4.028 E1.38931
G1 X-7.192 Y-4.008 E1.39001
G1 X-2.829 Y-4.008 E1.44767
G1 X-2.674 Y-3.944 E1.44988
G1 X-2.432 Y-3.702 E1.45440
G1 X-2.368 Y-3.547 E1.45662
G1 X-2.368 Y-1.804 E1.47964
G1 X-2.408 Y-1.708 E1.48102
G1 X-2.789 Y-2.012 F7800.000
G1 X-3.036 Y-1.765 F540.000 E1.48563
G1 X-4.961 Y-1.765 E1.51106
G1 X-5.141 Y-0.743 E1.52478
G1 X-4.104 Y-0.560 E1.53869
G1 X-3.904 Y-0.274 E1.54331
G1 X-4.245 Y1.659 E1.56924
G1 X-4.299 Y1.768 E1.57086
G1 X-5.932 Y3.514 E1.60244
G1 X-6.137 Y3.581 E1.60529
G1 X-7.166 Y3.390 E1.61912
G1 X-7.361 Y3.156 E1.62314
G1 X-7.361 Y-2.465 E1.69741
G1 X-7.463 Y-2.465 E1.69876
G1 X-7.500 Y-2.554 E1.70004
G1 X-7.537 Y-2.465 E1.70131
G1 X-7.639 Y-2.465 E1.70266
G1 X-7.639 Y3.156 E1.77693
G1 X-7.834 Y3.390 E1.78095
G1 X-8.863 Y3.581 E1.79478
G1 X-9.068 Y3.514 E1.79763
G1 X-10.701 Y1.768 E1.82921
G1 X-10.755 Y1.659 E1.83083
G1 X-11.096 Y-0.274 E1.85676
G1 X-10.896 Y-0.560 E1.86138
G1 X-9.859 Y-0.743 E1.87529
G1 X-10.039 Y-1.765 E1.88901
G1 X-11.964 Y-1.765 E1.91444
G1 X-12.211 Y-2.012 E1.91905
G1 X-12.211 Y-3.339 E1.93659
G1 X-11.964 Y-3.586 E1.94121
G1 X-7.717 Y-3.586 E1.99732
G1 X-7.515 Y-3.461 E2.00046
G1 X-7.463 Y-3.586 E2.00225
G1 X-3.036 Y-3.586 E2.06075
G1 X-2.789 Y-3.339 E2.06536
G1 X-2.789 Y-2.075 E2.08207
G1 F1800.000 E1.08207
G92 E0
G1 X3.211 Y-2.186 F7800.000
G1 F1800.000 E1.00000
G1 X3.211 Y-3.165 F540.000 E1.01293
G1 X11.789 Y-3.165 E1.12628
G1 X11.789 Y-2.186 E1.13921
G1 X9.685 Y-2.186 E1.16701
G1 X9.371 Y-0.401 E1.19096
G1 X10.651 Y-0.175 E1.20814
G1 X10.354 Y1.510 E1.23075
G1 X8.840 Y3.139 E1.26013
G1 X8.061 Y3.002 E1.27059
G1 X8.061 Y-2.886 E1.34839
G1 X6.939 Y-2.886 E1.36321
G1 X6.939 Y3.002 E1.44101
G1 X6.160 Y3.139 E1.45147
G1 X4.646 Y1.510 E1.48085
G1 X4.349 Y-0.175 E1.50347
G1 X5.629 Y-0.401 E1.52064
G1 X5.315 Y-2.186 E1.54460
G1 X3.274 Y-2.186 E1.57156
G1 X3.421 Y-2.551 F7800.000
G1 X8.482 Y-2.743
G1 X9.356 Y-2.743 F540.000 E1.58310
G1 X8.882 Y-0.059 E1.61912
G1 X10.163 Y0.167 E1.63630
G1 X9.960 Y1.315 E1.65170
G1 X8.482 Y2.906 E1.68039
G1 X8.482 Y-2.680 E1.75420
G1 F1800.000 E0.75420
G92 E0
G1 X6.518 Y2.906 F7800.000
G1 F1800.000 E1.00000
G1 X5.040 Y1.315 F540.000 E1.02869
G1 X4.837 Y0.167 E1.04410
G1 X6.118 Y-0.059 E1.06127
G1 X5.644 Y-2.743 E1.09729
G1 X6.518 Y-2.743 E1.10883
G1 X6.518 Y2.842 E1.18264
G1 F1800.000 E0.18264
G92 E0
G1 X7.500 Y-3.026 F7800.000
G1 F1800.000 E1.00000
G1 X7.587 Y-2.938 F540.000 E1.00164
G1 X7.500 Y-3.026 F7800.000
G1 X7.587 Y-3.113 F540.000 E1.00327
G1 X7.413 Y-3.113 F7800.000
G1 X7.413 Y-3.113 F540.000 E1.00327
G1 X7.413 Y-3.113 F7800.000
G1 X7.500 Y-3.026 F540.000 E1.00491
G1 X7.413 Y-2.938 E1.00654
G1 F1800.000 E0.00654
G92 E0
G1 X6.111 Y0.252 F7800.000
G1 F1800.000 E1.00000
G1 X6.212 Y0.354 F1080.000 E1.00191
G1 X6.212 Y0.956 E1.00995
G1 X5.599 Y0.343 E1.02152
G1 X5.217 Y0.563 E1.02741
G1 X6.212 Y1.558 E1.04618
G1 F1800.000 E0.04618
G92 E0
G1 X8.788 Y1.725 F7800.000
G1 F1800.000 E1.00000
G1 X8.982 Y1.919 F1080.000 E1.00363
G1 X9.272 Y1.607 F7800.000
G1 X8.788 Y1.123 F1080.000 E1.01268
G1 X8.788 Y0.521 F7800.000
G1 X9.562 Y1.295 F1080.000 E1.02714
G1 X9.730 Y0.861 F7800.000
G1 X9.171 Y0.302 F1080.000 E1.03759
G1 X8.809 Y-1.318 F7800.000
G1 X8.773 Y-1.354 F360.000 E1.03796
G1 X8.859 Y-1.600 F7800.000
G1 X8.773 Y-1.687 F360.000 E1.03885
G1 X8.909 Y-1.883 F7800.000
G1 X8.773 Y-2.019 F360.000 E1.04026
G1 X8.959 Y-2.166 F7800.000
G1 X8.773 Y-2.351 F360.000 E1.04218
G1 X9.004 Y-2.453 F7800.000
G1 X9.009 Y-2.448 F360.000 E1.04223
G1 X9.884 Y-2.597 F7800.000
G1 X9.767 Y-2.714 F360.000 E1.04443
G1 X10.329 Y-2.754 E1.05194
G1 X10.486 Y-2.597 E1.05491
G1 X10.931 Y-2.754 E1.06121
G1 X11.088 Y-2.597 E1.06418
G1 F1800.000 E0.06418
G92 E0
G1 X6.227 Y-1.240 F7800.000
G1 F1800.000 E1.00000
G1 X6.200 Y-1.267 F360.000 E1.00029
G1 X6.227 Y-1.572 E1.00254
G1 X6.128 Y-1.671 E1.00357
G1 X6.227 Y-1.905 E1.00544
G1 X6.057 Y-2.075 E1.00721
G1 X6.227 Y-2.237 E1.00895
G1 X6.012 Y-2.453 E1.01119
G1 X4.911 Y-2.754 F7800.000
G1 X5.068 Y-2.597 F360.000 E1.01413
G1 X4.309 Y-2.754 F7800.000
G1 X4.466 Y-2.597 F360.000 E1.01707
G1 X3.864 Y-2.597 F7800.000
G1 X3.706 Y-2.754 F360.000 E1.02001
G1 F1800.000 E0.02001
G92 E0
G1 X-3.211 Y-3.165 F7800.000
G1 F1800.000 E1.00000
G1 X-3.211 Y-2.186 F540.000 E1.01293
G1 X-5.315 Y-2.186 E1.04073
G1 X-5.629 Y-0.401 E1.06468
G1 X-4.349 Y-0.175 E1.08186
G1 X-4.646 Y1.510 E1.10448
G1 X-6.160 Y3.139 E1.13385
G1 X-6.939 Y3.002 E1.14431
G1 X-6.939 Y-2.886 E1.22211
G1 X-8.061 Y-2.886 E1.23693
G1 X-8.061 Y3.002 E1.31473
G1 X-8.840 Y3.139 E1.32519
G1 X-10.354 Y1.510 E1.35457
G1 X-10.651 Y-0.175 E1.37719
G1 X-9.371 Y-0.401 E1.39436
G1 X-9.685 Y-2.186 E1.41832
G1 X-11.789 Y-2.186 E1.44612
G1 X-11.789 Y-3.165 E1.45905
G1 X-3.274 Y-3.165 E1.57156
G1 X-3.421 Y-2.800 F7800.000
G1 X-6.518 Y-2.743
G1 X-5.644 Y-2.743 F540.000 E1.58310
G1 X-6.118 Y-0.059 E1.61912
G1 X-4.837 Y0.167 E1.63630
G1 X-5.040 Y1.315 E1.65170
G1 X-6.518 Y2.906 E1.68039
G1 X-6.518 Y-2.680 E1.75420
G1 X-9.356 Y-2.743 F7800.000
G1 X-8.482 Y-2.743 F540.000 E1.76574
G1 X-8.482 Y2.906 E1.84038
G1 X-9.960 Y1.315 E1.86907
G1 X-10.163 Y0.167 E1.88447
G1 X-8.882 Y-0.059 E1.90165
G1 X-9.345 Y-2.681 E1.93683
G1 X-7.500 Y-3.026 F7800.000
G1 X-7.413 Y-2.938 F540.000 E1.93847
G1 X-7.500 Y-3.026 F7800.000
G1 X-7.413 Y-3.113 F540.000 E1.94010
G1 X-7.587 Y-3.113 F7800.000
G1 X-7.587 Y-3.113 F540.000 E1.94010
G1 X-7.587 Y-3.113 F7800.000
G1 X-7.500 Y-3.026 F540.000 E1.94174
G1 X-7.587 Y-2.938 E1.94337
G1 F1800.000 E0.94337
G92 E0
G1 X-8.889 Y0.252 F7800.000
G1 F1800.000 E1.00000
G1 X-8.788 Y0.354 F1080.000 E1.00191
G1 X-8.788 Y0.956 E1.00995
G1 X-9.401 Y0.343 E1.02152
G1 X-9.783 Y0.563 E1.02741
G1 X-8.788 Y1.558 E1.04618
G1 F1800.000 E0.04618
G92 E0
G1 X-6.212 Y1.725 F7800.000
G1 F1800.000 E1.00000
G1 X-6.018 Y1.919 F1080.000 E1.00363
G1 X-5.728 Y1.607 F7800.000
G1 X-6.212 Y1.123 F1080.000 E1.01268
G1 X-6.212 Y0.521 F7800.000
G1 X-5.438 Y1.295 F1080.000 E1.02714
G1 X-5.270 Y0.861 F7800.000
G1 X-5.829 Y0.302 F1080.000 E1.03759
G1 X-6.191 Y-1.318 F7800.000
G1 X-6.227 Y-1.354 F360.000 E1.03796
G1 X-6.141 Y-1.600 F7800.000
G1 X-6.227 Y-1.687 F360.000 E1.03885
G1 X-6.091 Y-1.883 F7800.000
G1 X-6.227 Y-2.019 F360.000 E1.04026
G1 X-6.041 Y-2.166 F7800.000
G1 X-6.227 Y-2.351 F360.000 E1.04218
G1 X-5.996 Y-2.453 F7800.000
G1 X-5.991 Y-2.448 F360.000 E1.04223
G1 X-5.116 Y-2.597 F7800.000
G1 X-5.233 Y-2.714 F360.000 E1.04443
G1 X-4.671 Y-2.754 E1.05194
G1 X-4.514 Y-2.597 E1.05491
G1 X-4.069 Y-2.754 E1.06121
G1 X-3.912 Y-2.597 E1.06418
G1 F1800.000 E0.06418
G92 E0
G1 X-8.773 Y-1.240 F7800.000
G1 F1800.000 E1.00000
G1 X-8.800 Y-1.267 F360.000 E1.00029
G1 X-8.773 Y-1.572 E1.00254
G1 X-8.872 Y-1.671 E1.00357
G1 X-8.773 Y-1.905 E1.00544
G1 X-8.943 Y-2.075 E1.00721
G1 X-8.773 Y-2.237 E1.00895
G1 X-8.988 Y-2.453 E1.01119
G1 X-10.089 Y-2.754 F7800.000
G1 X-9.932 Y-2.597 F360.000 E1.01413
G1 X-10.691 Y-2.754 F7800.000
G1 X-10.534 Y-2.597 F360.000 E1.01707
G1 X-11.136 Y-2.597 F7800.000
G1 X-11.294 Y-2.754 F360.000 E1.02001
M104 S200 ; set temperature
M140 S50 ; set bed temperature
G1 F1800.000 E0.02001
G92 E0
G1 Z0.400 F7800.000
G1 X3.404 Y-2.972
G1 F1800.000 E1.00000
G1 X6.746 Y-2.972 F600.000 E1.08458
G1 X6.746 Y2.840 E1.23165
G1 X6.229 Y2.931 E1.24494
G1 X4.826 Y1.421 E1.29709
G1 X4.573 Y-0.019 E1.33408
G1 X5.852 Y-0.248 E1.36697
G1 X5.476 Y-2.379 E1.42173
G1 X3.404 Y-2.379 E1.47418
G1 X3.404 Y-2.851 E1.48612
G1 X4.102 Y-2.568 F7800.000
G1 X8.254 Y-2.972
G1 X11.596 Y-2.972 F600.000 E1.57070
G1 X11.596 Y-2.379 E1.58571
G1 X9.524 Y-2.379 E1.63816
G1 X9.147 Y-0.244 E1.69300
G1 X10.427 Y-0.019 E1.72589
G1 X10.174 Y1.421 E1.76288
G1 X8.770 Y2.931 E1.81505
G1 X8.254 Y2.840 E1.82833
G1 X8.254 Y-2.851 E1.97232
G1 X8.952 Y-2.568 F7800.000
G1 X10.701 Y-2.680
G1 X11.299 Y-2.677 F600.000 E1.98746
G1 X11.487 Y-2.851 E1.99394
G1 X11.299 Y-2.677 F7800.000
G1 X11.466 Y-2.507 F600.000 E1.99996
G1 X11.466 Y-2.507 F7800.000
G1 X11.478 Y-2.501 F600.000 E2.00031
G1 X10.632 Y-2.742 F7800.000
G1 X10.397 Y-2.424 F600.000 E2.01033
G1 X10.397 Y-2.424 F7800.000
G1 X10.395 Y-2.423 F600.000 E2.01038
G1 F1800.000 E1.01038
G92 E0
G1 X4.605 Y-2.423 F7800.000
G1 F1800.000 E1.00000
G1 X4.603 Y-2.424 F600.000 E1.00005
G1 X4.603 Y-2.424 F7800.000
G1 X4.299 Y-2.680 F600.000 E1.01011
G1 X4.368 Y-2.742 F7800.000
G1 X3.945 Y-2.683 F600.000 E1.02090
G1 X3.945 Y-2.683 F7800.000
G1 X3.701 Y-2.677 F600.000 E1.02708
G1 X3.534 Y-2.507 F7800.000
G1 X3.522 Y-2.501 F600.000 E1.02744
G1 X3.534 Y-2.507 F7800.000
G1 X3.701 Y-2.677 F600.000 E1.03345
G1 X3.513 Y-2.851 E1.03994
G1 F1800.000 E0.03994
G92 E0
G1 X5.918 Y0.741 F7800.000
G1 F1800.000 E1.00000
G1 X5.611 Y1.048 F600.000 E1.01129
G1 X6.173 Y-1.775 F7800.000
G1 X6.087 Y-2.219 F600.000 E1.01660
G1 X6.173 Y-2.306 E1.01804
G1 F1800.000 E0.01804
G92 E0
G1 X8.837 Y-1.787 F7800.000
G1 F1800.000 E1.00000
G1 X8.827 Y-1.777 F600.000 E1.00017
G1 X8.827 Y-2.308 E1.00640
G1 X8.918 Y-2.399 E1.00791
G1 X9.456 Y0.720 F7800.000
G1 X9.082 Y1.094 F600.000 E1.02130
G1 F1800.000 E0.02130
G92 E0
G1 X-8.254 Y2.840 F7800.000
G1 F1800.000 E1.00000
G1 X-8.771 Y2.931 F600.000 E1.01329
G1 X-10.174 Y1.421 E1.06544
G1 X-10.427 Y-0.019 E1.10243
G1 X-9.148 Y-0.248 E1.13532
G1 X-9.524 Y-2.379 E1.19009
G1 X-11.596 Y-2.379 E1.24253
G1 X-11.596 Y-2.972 E1.25754
G1 X-8.254 Y-2.972 E1.34212
G1 X-8.254 Y2.719 E1.48612
G1 X-8.736 Y2.632 F7800.000
G1 F1800.000 E0.48612
G92 E0
G1 X-6.746 Y2.840 F7800.000
G1 F1800.000 E1.00000
G1 X-6.746 Y-2.972 F600.000 E1.14706
G1 X-3.404 Y-2.972 E1.23165
G1 X-3.404 Y-2.379 E1.24665
G1 X-5.476 Y-2.379 E1.29910
G1 X-5.853 Y-0.244 E1.35394
G1 X-4.573 Y-0.019 E1.38684
G1 X-4.826 Y1.421 E1.42383
G1 X-6.229 Y2.931 E1.47597
G1 X-6.627 Y2.861 E1.48620
G1 X-6.303 Y2.166 F7800.000
G1 F1800.000 E0.48620
G92 E0
G1 X-4.299 Y-2.680 F7800.000
G1 F1800.000 E1.00000
G1 X-3.701 Y-2.677 F600.000 E1.01513
G1 X-3.513 Y-2.851 E1.02161
G1 X-3.701 Y-2.677 F7800.000
G1 X-3.534 Y-2.507 F600.000 E1.02763
G1 X-3.534 Y-2.507 F7800.000
G1 X-3.522 Y-2.501 F600.000 E1.02799
G1 X-4.368 Y-2.742 F7800.000
G1 X-4.603 Y-2.424 F600.000 E1.03801
G1 X-4.603 Y-2.424 F7800.000
G1 X-4.605 Y-2.423 F600.000 E1.03806
G1 F1800.000 E0.03806
G92 E0
G1 X-10.395 Y-2.423 F7800.000
G1 F1800.000 E1.00000
G1 X-10.397 Y-2.424 F600.000 E1.00005
G1 X-10.397 Y-2.424 F7800.000
G1 X-10.701 Y-2.680 F600.000 E1.01011
G1 X-10.632 Y-2.742 F7800.000
G1 X-11.055 Y-2.683 F600.000 E1.02090
G1 X-11.055 Y-2.683 F7800.000
G1 X-11.299 Y-2.677 F600.000 E1.02708
G1 X-11.466 Y-2.507 F7800.000
G1 X-11.478 Y-2.501 F600.000 E1.02744
