; generated by Slic3r 0.9.10b on 2013-11-30 at 12:04:20

; layer_height = 0.3
; perimeters = 2
; top_solid_layers = 3
; bottom_solid_layers = 3
; fill_density = 0.4
; perimeter_speed = 30
; infill_speed = 60
; travel_speed = 130
; nozzle_diameter = 0.5
; filament_diameter = 2.85
; extrusion_multiplier = 1
; perimeters extrusion width = 0.70mm
; infill extrusion width = 0.70mm
; solid infill extrusion width = 0.70mm
; top infill extrusion width = 0.70mm
; first layer extrusion width = 0.60mm

G21 ; set units to millimeters
M107
M104 S0
M83
M140 S70
G28
G1Y98F9000
M190 S70
G1X5Y98Z150F9000
M104 S210
G1X5Y98Z1F9000
G1Z0.05
M109 S210
G1Z5
G1X15
;G1E5F50
G90 ; use absolute coordinates
G92 E0
M82 ; use absolute distances for extrusion
G1 F1800.000 E-1.00000
G92 E0
G1 Z0.300 F7800.000
G1 X-1.813 Y32.937
G1 F1800.000 E1.00000
G1 X-41.833 Y32.937 F540.000 E2.08881
G1 X-43.113 Y32.807 E2.12381
G1 X-44.353 Y32.437 E2.15902
G1 X-45.483 Y31.827 E2.19396
G1 X-46.483 Y31.007 E2.22914
G1 X-47.303 Y30.007 E2.26432
G1 X-47.913 Y28.877 E2.29926
G1 X-48.283 Y27.637 E2.33447
G1 X-48.413 Y26.357 E2.36947
G1 X-48.413 Y-26.273 E3.80136
G1 X-48.283 Y-27.553 E3.83636
G1 X-47.913 Y-28.783 E3.87131
G1 X-47.303 Y-29.923 E3.90648
G1 X-46.493 Y-30.923 E3.94149
G1 X-45.493 Y-31.743 E3.97668
G1 X-44.363 Y-32.343 E4.01149
G1 X-43.133 Y-32.723 E4.04651
G1 X-41.843 Y-32.853 E4.08179
G1 X1.817 Y-32.943 E5.26963
G1 X41.827 Y-32.943 E6.35817
G1 X43.107 Y-32.813 E6.39317
G1 X44.347 Y-32.443 E6.42838
G1 X45.477 Y-31.833 E6.46331
G1 X46.477 Y-31.013 E6.49850
G1 X47.297 Y-30.013 E6.53368
G1 X47.907 Y-28.883 E6.56862
G1 X48.277 Y-27.643 E6.60383
G1 X48.407 Y-26.363 E6.63883
G1 X48.407 Y26.257 E8.07044
G1 X48.277 Y27.537 E8.10545
G1 X47.907 Y28.767 E8.14039
G1 X47.297 Y29.907 E8.17557
G1 X46.487 Y30.907 E8.21058
G1 X45.487 Y31.717 E8.24559
G1 X44.357 Y32.327 E8.28053
G1 X43.127 Y32.707 E8.31555
G1 X41.847 Y32.837 E8.35056
G1 X-1.727 Y32.936 E9.53604
G1 F1800.000 E8.53604
G92 E0
G1 X1.386 Y27.044 F7800.000
G1 F1800.000 E1.00000
G1 X1.054 Y26.712 F540.000 E1.01278
G1 X0.966 Y26.499 E1.01904
G1 X0.966 Y-26.597 E2.46360
G1 X1.054 Y-26.810 E2.46986
G1 X1.386 Y-27.142 E2.48264
G1 X1.598 Y-27.230 E2.48891
G1 X42.068 Y-27.230 E3.58995
G1 X42.281 Y-27.142 E3.59622
G1 X42.613 Y-26.810 E3.60900
G1 X42.701 Y-26.597 E3.61526
G1 X42.701 Y26.499 E5.05982
G1 X42.613 Y26.712 E5.06608
G1 X42.281 Y27.044 E5.07886
G1 X42.068 Y27.132 E5.08512
G1 X1.598 Y27.132 E6.18617
G1 X1.466 Y27.077 E6.19007
G1 X1.883 Y26.553 F7800.000
G1 X1.544 Y26.214 F540.000 E6.20311
G1 X1.544 Y-26.312 E7.63219
G1 X1.883 Y-26.651 E7.64523
G1 X41.784 Y-26.651 E8.73079
G1 X42.123 Y-26.312 E8.74383
G1 X42.123 Y26.214 E10.17291
G1 X41.784 Y26.553 E10.18595
G1 X1.970 Y26.553 E11.26915
G1 F1800.000 E10.26915
G92 E0
G1 X-0.966 Y26.597 F7800.000
G1 F1800.000 E1.00000
G1 X-1.054 Y26.810 F540.000 E1.00626
G1 X-1.386 Y27.142 E1.01904
G1 X-1.598 Y27.230 E1.02531
G1 X-42.068 Y27.230 E2.12635
G1 X-42.281 Y27.142 E2.13261
G1 X-42.613 Y26.810 E2.14540
G1 X-42.701 Y26.597 E2.15166
G1 X-42.701 Y-26.499 E3.59622
G1 X-42.613 Y-26.712 E3.60248
G1 X-42.281 Y-27.044 E3.61526
G1 X-42.068 Y-27.132 E3.62152
G1 X-1.598 Y-27.132 E4.72257
G1 X-1.386 Y-27.044 E4.72883
G1 X-1.054 Y-26.712 E4.74161
G1 X-0.966 Y-26.499 E4.74787
G1 X-0.966 Y26.510 E6.19007
G1 X-1.544 Y26.312 F7800.000
G1 X-1.883 Y26.651 F540.000 E6.20311
G1 X-41.784 Y26.651 E7.28867
G1 X-42.123 Y26.312 E7.30171
G1 X-42.123 Y-26.214 E8.73079
G1 X-41.784 Y-26.553 E8.74383
G1 X-1.883 Y-26.553 E9.82939
G1 X-1.544 Y-26.214 E9.84243
G1 X-1.544 Y26.226 E11.26915
G1 X-2.123 Y26.073 F7800.000
G1 X-41.544 Y26.073 F540.000 E12.34167
G1 X-41.544 Y-25.975 E13.75771
G1 X-2.123 Y-25.975 E14.83024
G1 X-2.123 Y25.986 E16.24391
G1 X-2.624 Y25.783 F7800.000
G1 X-2.701 Y-25.396
G1 X-2.701 Y25.494 F540.000 E17.62847
G1 X-3.966 Y25.494 E17.66287
G1 X-3.966 Y-25.396 E19.04742
G1 X-2.788 Y-25.396 E19.07946
G1 X-22.466 Y-25.396 F7800.000
G1 X-21.201 Y-25.396 F540.000 E19.11386
G1 X-21.201 Y25.494 E20.49842
G1 X-22.466 Y25.494 E20.53282
G1 X-22.466 Y-25.309 E21.91501
G1 X-40.966 Y-25.396 F7800.000
G1 X-39.701 Y-25.396 F540.000 E21.94941
G1 X-39.701 Y25.494 E23.33397
G1 X-40.966 Y25.494 E23.36837
G1 X-40.966 Y-25.309 E24.75056
G1 X-20.623 Y-25.139 F7800.000
G1 X-4.544 Y-25.139 F540.000 E25.18801
G1 X-4.544 Y25.237 E26.55857
G1 X-20.623 Y25.237 E26.99601
G1 X-20.623 Y-25.052 E28.36421
G1 X-20.122 Y-24.850 F7800.000
G1 F1800.000 E27.36421
G92 E0
G1 X-23.044 Y-25.139 F7800.000
G1 F1800.000 E1.00000
G1 X-23.044 Y25.237 F540.000 E2.37056
G1 X-39.123 Y25.237 E2.80800
G1 X-39.123 Y-25.139 E4.17856
G1 X-23.131 Y-25.139 E4.61364
G1 X-23.333 Y-24.638 F7800.000
G1 F1800.000 E3.61364
G92 E0
G1 X-40.290 Y24.513 F7800.000
G1 F1800.000 E1.00000
G1 X-40.376 Y24.427 F360.000 E1.00333
G1 X-40.290 Y23.690 E1.02362
G1 X-40.376 Y23.604 E1.02695
G1 X-40.290 Y22.868 E1.04724
G1 X-40.376 Y22.782 E1.05057
G1 X-40.290 Y22.045 E1.07086
G1 X-40.376 Y21.959 E1.07419
G1 X-40.290 Y21.222 E1.09448
G1 X-40.376 Y21.136 E1.09780
G1 X-40.290 Y20.400 E1.11809
G1 X-40.376 Y20.314 E1.12142
G1 X-40.290 Y19.577 E1.14171
G1 X-40.376 Y19.491 E1.14504
G1 X-40.290 Y18.754 E1.16533
G1 X-40.376 Y18.668 E1.16866
G1 X-40.290 Y17.932 E1.18895
G1 X-40.376 Y17.846 E1.19228
G1 X-40.290 Y17.109 E1.21257
G1 X-40.376 Y17.023 E1.21590
G1 X-40.290 Y16.286 E1.23619
G1 X-40.376 Y16.200 E1.23952
G1 X-40.290 Y15.463 E1.25981
G1 X-40.376 Y15.377 E1.26314
G1 X-40.290 Y14.641 E1.28343
G1 X-40.376 Y14.555 E1.28675
G1 X-40.290 Y13.818 E1.30704
G1 X-40.376 Y13.732 E1.31037
G1 X-40.290 Y12.995 E1.33066
G1 X-40.376 Y12.909 E1.33399
G1 X-40.290 Y12.173 E1.35428
G1 X-40.376 Y12.087 E1.35761
G1 X-40.290 Y11.350 E1.37790
G1 X-40.376 Y11.264 E1.38123
G1 X-40.290 Y10.527 E1.40152
G1 X-40.376 Y10.441 E1.40485
G1 X-40.290 Y9.705 E1.42514
G1 X-40.376 Y9.618 E1.42847
G1 X-40.290 Y8.882 E1.44876
G1 X-40.376 Y8.796 E1.45209
G1 X-40.290 Y8.059 E1.47238
G1 X-40.376 Y7.973 E1.47571
G1 X-40.290 Y7.236 E1.49600
G1 X-40.376 Y7.150 E1.49932
G1 X-40.290 Y6.414 E1.51961
G1 X-40.376 Y6.328 E1.52294
G1 X-40.290 Y5.591 E1.54323
G1 X-40.376 Y5.505 E1.54656
G1 X-40.290 Y4.768 E1.56685
G1 X-40.376 Y4.682 E1.57018
G1 X-40.290 Y3.946 E1.59047
G1 X-40.376 Y3.860 E1.59380
G1 X-40.290 Y3.123 E1.61409
G1 X-40.376 Y3.037 E1.61742
G1 X-40.290 Y2.300 E1.63771
G1 X-40.376 Y2.214 E1.64104
G1 X-40.290 Y1.477 E1.66133
G1 X-40.376 Y1.391 E1.66466
G1 X-40.290 Y0.655 E1.68495
G1 X-40.376 Y0.569 E1.68828
G1 X-40.290 Y-0.168 E1.70856
G1 X-40.376 Y-0.254 E1.71189
G1 X-40.290 Y-0.991 E1.73218
G1 X-40.376 Y-1.077 E1.73551
G1 X-40.290 Y-1.813 E1.75580
G1 X-40.376 Y-1.899 E1.75913
G1 X-40.290 Y-2.636 E1.77942
G1 X-40.376 Y-2.722 E1.78275
G1 X-40.290 Y-3.459 E1.80304
G1 X-40.376 Y-3.545 E1.80637
G1 X-40.290 Y-4.281 E1.82666
G1 X-40.376 Y-4.367 E1.82999
G1 X-40.290 Y-5.104 E1.85028
G1 X-40.376 Y-5.190 E1.85361
G1 X-40.290 Y-5.927 E1.87390
G1 X-40.376 Y-6.013 E1.87723
G1 X-40.290 Y-6.750 E1.89752
G1 X-40.376 Y-6.836 E1.90084
G1 X-40.290 Y-7.572 E1.92113
G1 X-40.376 Y-7.658 E1.92446
G1 X-40.290 Y-8.395 E1.94475
G1 X-40.376 Y-8.481 E1.94808
G1 X-40.290 Y-9.218 E1.96837
G1 X-40.376 Y-9.304 E1.97170
G1 X-40.290 Y-10.040 E1.99199
G1 X-40.376 Y-10.126 E1.99532
G1 X-40.290 Y-10.863 E2.01561
G1 X-40.376 Y-10.949 E2.01894
G1 X-40.290 Y-11.686 E2.03923
G1 X-40.376 Y-11.772 E2.04256
G1 X-40.290 Y-12.508 E2.06285
G1 X-40.376 Y-12.595 E2.06618
G1 X-40.290 Y-13.331 E2.08647
G1 X-40.376 Y-13.417 E2.08980
G1 X-40.290 Y-14.154 E2.11009
G1 X-40.376 Y-14.240 E2.11341
G1 X-40.290 Y-14.977 E2.13370
G1 X-40.376 Y-15.063 E2.13703
G1 X-40.290 Y-15.799 E2.15732
G1 X-40.376 Y-15.885 E2.16065
G1 X-40.290 Y-16.622 E2.18094
G1 X-40.376 Y-16.708 E2.18427
G1 X-40.290 Y-17.445 E2.20456
G1 X-40.376 Y-17.531 E2.20789
G1 X-40.290 Y-18.267 E2.22818
G1 X-40.376 Y-18.353 E2.23151
G1 X-40.290 Y-19.090 E2.25180
G1 X-40.376 Y-19.176 E2.25513
G1 X-40.290 Y-19.913 E2.27542
G1 X-40.376 Y-19.999 E2.27875
G1 X-40.290 Y-20.735 E2.29904
G1 X-40.376 Y-20.822 E2.30236
G1 X-40.290 Y-21.558 E2.32265
G1 X-40.376 Y-21.644 E2.32598
G1 X-40.290 Y-22.381 E2.34627
G1 X-40.376 Y-22.467 E2.34960
G1 X-40.290 Y-23.204 E2.36989
G1 X-40.376 Y-23.290 E2.37322
G1 X-40.290 Y-24.026 E2.39351
G1 X-40.376 Y-24.112 E2.39684
G1 X-39.029 Y25.664 F7800.000
G1 X-39.046 Y25.646 F360.000 E2.39718
G1 X-38.627 Y25.646 E2.40301
G1 X-38.610 Y25.664 E2.40335
G1 X-38.208 Y25.646 E2.40894
G1 X-38.191 Y25.664 E2.40929
G1 X-37.790 Y25.646 E2.41488
G1 X-37.772 Y25.664 E2.41522
G1 X-37.371 Y25.646 E2.42081
G1 X-37.353 Y25.664 E2.42115
G1 X-36.952 Y25.646 E2.42674
G1 X-36.934 Y25.664 E2.42708
G1 X-36.533 Y25.646 E2.43267
G1 X-36.515 Y25.664 E2.43302
G1 X-36.114 Y25.646 E2.43861
G1 X-36.096 Y25.664 E2.43895
G1 X-35.695 Y25.646 E2.44454
G1 X-35.677 Y25.664 E2.44488
G1 X-35.276 Y25.646 E2.45047
G1 X-35.259 Y25.664 E2.45082
G1 X-34.857 Y25.646 E2.45641
G1 X-34.840 Y25.664 E2.45675
G1 X-34.438 Y25.646 E2.46234
G1 X-34.421 Y25.664 E2.46268
G1 X-34.019 Y25.646 E2.46827
G1 X-34.002 Y25.664 E2.46862
G1 X-33.600 Y25.646 E2.47421
G1 X-33.583 Y25.664 E2.47455
G1 X-33.181 Y25.646 E2.48014
G1 X-33.164 Y25.664 E2.48048
G1 X-32.762 Y25.646 E2.48607
G1 X-32.745 Y25.664 E2.48641
G1 X-32.344 Y25.646 E2.49200
G1 X-32.326 Y25.664 E2.49235
G1 X-31.925 Y25.646 E2.49794
G1 X-31.907 Y25.664 E2.49828
G1 X-31.506 Y25.646 E2.50387
G1 X-31.488 Y25.664 E2.50421
G1 X-31.087 Y25.646 E2.50980
G1 X-31.069 Y25.664 E2.51015
G1 X-30.668 Y25.646 E2.51574
G1 X-30.650 Y25.664 E2.51608
G1 X-30.249 Y25.646 E2.52167
G1 X-30.231 Y25.664 E2.52201
G1 X-29.830 Y25.646 E2.52760
G1 X-29.813 Y25.664 E2.52795
G1 X-29.411 Y25.646 E2.53354
G1 X-29.394 Y25.664 E2.53388
G1 X-28.992 Y25.646 E2.53947
G1 X-28.975 Y25.664 E2.53981
G1 X-28.573 Y25.646 E2.54540
G1 X-28.556 Y25.664 E2.54574
G1 X-28.154 Y25.646 E2.55133
G1 X-28.137 Y25.664 E2.55168
G1 X-27.735 Y25.646 E2.55727
G1 X-27.718 Y25.664 E2.55761
G1 X-27.316 Y25.646 E2.56320
G1 X-27.299 Y25.664 E2.56354
G1 X-26.898 Y25.646 E2.56913
G1 X-26.880 Y25.664 E2.56948
G1 X-26.479 Y25.646 E2.57507
G1 X-26.461 Y25.664 E2.57541
G1 X-26.060 Y25.646 E2.58100
G1 X-26.042 Y25.664 E2.58134
G1 X-25.641 Y25.646 E2.58693
G1 X-25.623 Y25.664 E2.58727
G1 X-25.222 Y25.646 E2.59287
G1 X-25.204 Y25.664 E2.59321
G1 X-24.803 Y25.646 E2.59880
G1 X-24.786 Y25.664 E2.59914
G1 X-23.546 Y25.646 E2.61638
G1 X-23.529 Y25.664 E2.61672
G1 X-23.127 Y25.646 E2.62232
G1 X-23.110 Y25.664 E2.62266
G1 X-21.799 Y24.905 F7800.000
G1 X-21.876 Y24.828 F360.000 E2.62564
G1 X-21.790 Y24.091 F7800.000
G1 X-21.876 Y24.005 F360.000 E2.62895
G1 X-21.790 Y23.268 F7800.000
G1 X-21.876 Y23.182 F360.000 E2.63226
G1 X-21.790 Y22.446 F7800.000
G1 X-21.876 Y22.360 F360.000 E2.63557
G1 X-21.790 Y21.623 F7800.000
G1 X-21.876 Y21.537 F360.000 E2.63888
G1 X-21.790 Y20.800 F7800.000
G1 X-21.876 Y20.714 F360.000 E2.64219
G1 X-21.790 Y19.978 F7800.000
G1 X-21.876 Y19.891 F360.000 E2.64550
G1 X-21.790 Y19.155 F7800.000
G1 X-21.876 Y19.069 F360.000 E2.64881
G1 X-21.790 Y18.332 F7800.000
G1 X-21.876 Y18.246 F360.000 E2.65212
G1 X-21.790 Y17.509 F7800.000
G1 X-21.876 Y17.423 F360.000 E2.65543
G1 X-21.790 Y16.687 F7800.000
G1 X-21.876 Y16.601 F360.000 E2.65874
G1 X-21.790 Y15.864 F7800.000
G1 X-21.876 Y15.778 F360.000 E2.66205
G1 X-21.790 Y15.041 F7800.000
G1 X-21.876 Y14.955 F360.000 E2.66536
G1 X-21.790 Y14.219 F7800.000
G1 X-21.876 Y14.133 F360.000 E2.66867
G1 X-21.790 Y13.396 F7800.000
G1 X-21.876 Y13.310 F360.000 E2.67198
G1 X-21.790 Y12.573 F7800.000
G1 X-21.876 Y12.487 F360.000 E2.67530
G1 X-21.790 Y11.750 F7800.000
G1 X-21.876 Y11.664 F360.000 E2.67861
G1 X-21.790 Y10.928 F7800.000
G1 X-21.876 Y10.842 F360.000 E2.68192
G1 X-21.790 Y10.105 F7800.000
G1 X-21.876 Y10.019 F360.000 E2.68523
G1 X-21.790 Y9.282 F7800.000
G1 X-21.876 Y9.196 F360.000 E2.68854
G1 X-21.790 Y8.460 F7800.000
G1 X-21.876 Y8.374 F360.000 E2.69185
G1 X-21.790 Y7.637 F7800.000
G1 X-21.876 Y7.551 F360.000 E2.69516
G1 X-21.790 Y6.814 F7800.000
G1 X-21.876 Y6.728 F360.000 E2.69847
G1 X-21.790 Y5.992 F7800.000
G1 X-21.876 Y5.905 F360.000 E2.70178
G1 X-21.790 Y5.169 F7800.000
G1 X-21.876 Y5.083 F360.000 E2.70509
G1 X-21.790 Y4.346 F7800.000
G1 X-21.876 Y4.260 F360.000 E2.70840
G1 X-21.790 Y3.523 F7800.000
G1 X-21.876 Y3.437 F360.000 E2.71171
G1 X-21.790 Y2.701 F7800.000
G1 X-21.876 Y2.615 F360.000 E2.71502
G1 X-21.790 Y1.878 F7800.000
G1 X-21.876 Y1.792 F360.000 E2.71833
G1 X-21.790 Y1.055 F7800.000
G1 X-21.876 Y0.969 F360.000 E2.72165
G1 X-21.790 Y0.233 F7800.000
G1 X-21.876 Y0.147 F360.000 E2.72496
G1 X-21.790 Y-0.590 F7800.000
G1 X-21.876 Y-0.676 F360.000 E2.72827
G1 X-21.790 Y-1.413 F7800.000
G1 X-21.876 Y-1.499 F360.000 E2.73158
G1 X-21.790 Y-2.235 F7800.000
G1 X-21.876 Y-2.322 F360.000 E2.73489
G1 X-21.790 Y-3.058 F7800.000
G1 X-21.876 Y-3.144 F360.000 E2.73820
G1 X-21.790 Y-3.881 F7800.000
G1 X-21.876 Y-3.967 F360.000 E2.74151
G1 X-21.790 Y-4.704 F7800.000
G1 X-21.876 Y-4.790 F360.000 E2.74482
G1 X-21.790 Y-5.526 F7800.000
G1 X-21.876 Y-5.612 F360.000 E2.74813
G1 X-21.790 Y-6.349 F7800.000
G1 X-21.876 Y-6.435 F360.000 E2.75144
G1 X-21.790 Y-7.172 F7800.000
G1 X-21.876 Y-7.258 F360.000 E2.75475
G1 X-21.790 Y-7.994 F7800.000
G1 X-21.876 Y-8.080 F360.000 E2.75806
G1 X-21.790 Y-8.817 F7800.000
G1 X-21.876 Y-8.903 F360.000 E2.76137
G1 X-21.790 Y-9.640 F7800.000
G1 X-21.876 Y-9.726 F360.000 E2.76468
G1 X-21.790 Y-10.463 F7800.000
G1 X-21.876 Y-10.549 F360.000 E2.76800
G1 X-21.790 Y-11.285 F7800.000
G1 X-21.876 Y-11.371 F360.000 E2.77131
G1 X-21.790 Y-12.108 F7800.000
G1 X-21.876 Y-12.194 F360.000 E2.77462
G1 X-21.790 Y-12.931 F7800.000
G1 X-21.876 Y-13.017 F360.000 E2.77793
G1 X-21.790 Y-13.753 F7800.000
G1 X-21.876 Y-13.839 F360.000 E2.78124
G1 X-21.790 Y-14.576 F7800.000
G1 X-21.876 Y-14.662 F360.000 E2.78455
G1 X-21.790 Y-15.399 F7800.000
G1 X-21.876 Y-15.485 F360.000 E2.78786
G1 X-21.790 Y-16.221 F7800.000
G1 X-21.876 Y-16.308 F360.000 E2.79117
G1 X-21.790 Y-17.044 F7800.000
G1 X-21.876 Y-17.130 F360.000 E2.79448
G1 X-21.790 Y-17.867 F7800.000
G1 X-21.876 Y-17.953 F360.000 E2.79779
G1 X-21.790 Y-18.690 F7800.000
G1 X-21.876 Y-18.776 F360.000 E2.80110
G1 X-21.790 Y-19.512 F7800.000
G1 X-21.876 Y-19.598 F360.000 E2.80441
G1 X-21.790 Y-20.335 F7800.000
G1 X-21.876 Y-20.421 F360.000 E2.80772
G1 X-21.790 Y-21.158 F7800.000
G1 X-21.876 Y-21.244 F360.000 E2.81103
G1 X-21.790 Y-21.980 F7800.000
G1 X-21.876 Y-22.066 F360.000 E2.81434
G1 X-21.790 Y-22.803 F7800.000
G1 X-21.876 Y-22.889 F360.000 E2.81766
G1 X-21.790 Y-23.626 F7800.000
G1 X-21.876 Y-23.712 F360.000 E2.82097
G1 X-21.790 Y-24.448 F7800.000
G1 X-21.876 Y-24.535 F360.000 E2.82428
G1 X-20.699 Y-25.548 F7800.000
G1 X-20.717 Y-25.566 F360.000 E2.82462
G1 X-20.298 Y-25.566 E2.83045
G1 X-20.280 Y-25.548 E2.83079
G1 X-19.879 Y-25.566 E2.83638
G1 X-19.862 Y-25.548 E2.83672
G1 X-19.460 Y-25.566 E2.84231
G1 X-19.443 Y-25.548 E2.84266
G1 X-19.041 Y-25.566 E2.84825
G1 X-19.024 Y-25.548 E2.84859
G1 X-18.622 Y-25.566 E2.85418
G1 X-18.605 Y-25.548 E2.85452
G1 X-18.203 Y-25.566 E2.86011
G1 X-18.186 Y-25.548 E2.86045
G1 X-17.784 Y-25.566 E2.86604
G1 X-17.767 Y-25.548 E2.86639
G1 X-17.365 Y-25.566 E2.87198
G1 X-17.348 Y-25.548 E2.87232
G1 X-16.947 Y-25.566 E2.87791
G1 X-16.929 Y-25.548 E2.87825
G1 X-16.528 Y-25.566 E2.88384
G1 X-16.510 Y-25.548 E2.88419
G1 X-16.109 Y-25.566 E2.88978
G1 X-16.091 Y-25.548 E2.89012
G1 X-15.690 Y-25.566 E2.89571
G1 X-15.672 Y-25.548 E2.89605
G1 X-15.271 Y-25.566 E2.90164
G1 X-15.253 Y-25.548 E2.90199
G1 X-14.852 Y-25.566 E2.90758
G1 X-14.834 Y-25.548 E2.90792
G1 X-14.433 Y-25.566 E2.91351
G1 X-14.416 Y-25.548 E2.91385
G1 X-14.014 Y-25.566 E2.91944
G1 X-13.997 Y-25.548 E2.91978
G1 X-13.595 Y-25.566 E2.92537
G1 X-13.578 Y-25.548 E2.92572
G1 X-13.176 Y-25.566 E2.93131
G1 X-13.159 Y-25.548 E2.93165
G1 X-12.757 Y-25.566 E2.93724
G1 X-12.740 Y-25.548 E2.93758
G1 X-12.338 Y-25.566 E2.94317
G1 X-12.321 Y-25.548 E2.94352
G1 X-11.919 Y-25.566 E2.94911
G1 X-11.902 Y-25.548 E2.94945
G1 X-11.501 Y-25.566 E2.95504
G1 X-11.483 Y-25.548 E2.95538
G1 X-11.082 Y-25.566 E2.96097
G1 X-11.064 Y-25.548 E2.96132
