; generated by Slic3r 0.9.10b on 2013-11-29 at 15:05:32

; layer_height = 0.3
; perimeters = 2
; top_solid_layers = 3
; bottom_solid_layers = 3
; fill_density = 0.4
; perimeter_speed = 30
; infill_speed = 60
; travel_speed = 130
; nozzle_diameter = 0.5
; filament_diameter = 2.85
; extrusion_multiplier = 1
; perimeters extrusion width = 0.70mm
; infill extrusion width = 0.70mm
; solid infill extrusion width = 0.70mm
; top infill extrusion width = 0.70mm
; first layer extrusion width = 0.60mm

G21 ; set units to millimeters
M107
M104 S0
M83
M140 S70
G28
G1Y98F9000
M190 S70
G1X5Y98Z150F9000
M104 S210
G1X5Y98Z1F9000
G1Z0.05
M109 S210
G1Z5
G1X15
;G1E5F50
G90 ; use absolute coordinates
G92 E0
M82 ; use absolute distances for extrusion
G1 F1800.000 E-1.00000
G92 E0
G1 Z0.300 F7800.000
G1 X-26.580 Y26.306
G1 F1800.000 E1.00000
G1 X-26.580 Y-26.314 F540.000 E2.43161
G1 X-26.450 Y-27.594 E2.46662
G1 X-26.080 Y-28.834 E2.50182
G1 X-25.470 Y-29.964 E2.53676
G1 X-24.650 Y-30.964 E2.57194
G1 X-23.650 Y-31.784 E2.60713
G1 X-22.520 Y-32.394 E2.64206
G1 X-21.280 Y-32.764 E2.67727
G1 X-20.000 Y-32.894 E2.71227
G1 X20.000 Y-32.894 E3.80054
G1 X21.280 Y-32.764 E3.83554
G1 X22.520 Y-32.394 E3.87075
G1 X23.650 Y-31.784 E3.90569
G1 X24.650 Y-30.964 E3.94087
G1 X25.470 Y-29.964 E3.97605
G1 X26.080 Y-28.834 E4.01099
G1 X26.450 Y-27.594 E4.04620
G1 X26.580 Y-26.314 E4.08120
G1 X26.580 Y26.306 E5.51281
G1 X26.450 Y27.586 E5.54782
G1 X26.080 Y28.826 E5.58302
G1 X25.470 Y29.956 E5.61796
G1 X24.650 Y30.956 E5.65315
G1 X23.650 Y31.776 E5.68833
G1 X22.520 Y32.386 E5.72327
G1 X21.280 Y32.756 E5.75847
G1 X20.000 Y32.886 E5.79348
G1 X-20.000 Y32.886 E6.88174
G1 X-21.280 Y32.756 E6.91675
G1 X-22.520 Y32.386 E6.95195
G1 X-23.650 Y31.776 E6.98689
G1 X-24.650 Y30.956 E7.02207
G1 X-25.470 Y29.956 E7.05726
G1 X-26.080 Y28.826 E7.09219
G1 X-26.450 Y27.586 E7.12740
G1 X-26.571 Y26.392 E7.16004
G1 F1800.000 E6.16004
G92 E0
G1 X-20.868 Y26.548 F7800.000
G1 F1800.000 E1.00000
G1 X-20.868 Y-26.548 F540.000 E2.44456
G1 X-20.780 Y-26.761 E2.45082
G1 X-20.448 Y-27.093 E2.46360
G1 X-20.235 Y-27.181 E2.46986
G1 X20.235 Y-27.181 E3.57091
G1 X20.448 Y-27.093 E3.57717
G1 X20.780 Y-26.761 E3.58995
G1 X20.868 Y-26.548 E3.59622
G1 X20.868 Y26.548 E5.04077
G1 X20.780 Y26.761 E5.04704
G1 X20.448 Y27.093 E5.05982
G1 X20.235 Y27.181 E5.06608
G1 X-20.235 Y27.181 E6.16713
G1 X-20.448 Y27.093 E6.17339
G1 X-20.780 Y26.761 E6.18617
G1 X-20.835 Y26.628 E6.19007
G1 X-20.289 Y26.263 F7800.000
G1 X-20.289 Y-26.263 F540.000 E7.61915
G1 X-19.950 Y-26.602 E7.63219
G1 X19.950 Y-26.602 E8.71775
G1 X20.289 Y-26.263 E8.73079
G1 X20.289 Y26.263 E10.15987
G1 X19.950 Y26.602 E10.17291
G1 X-19.950 Y26.602 E11.25847
G1 X-20.228 Y26.325 E11.26915
G1 X-19.711 Y26.024 F7800.000
G1 X-19.711 Y-26.024 F540.000 E12.68519
G1 X19.711 Y-26.024 E13.75771
G1 X19.711 Y26.024 E15.17375
G1 X-19.624 Y26.024 E16.24391
G1 X-19.421 Y25.523 F7800.000
G1 X19.132 Y25.445
G1 X17.868 Y25.445 F540.000 E16.27831
G1 X17.868 Y-25.445 E17.66287
G1 X19.132 Y-25.445 E17.69727
G1 X19.132 Y25.358 E19.07946
G1 F1800.000 E18.07946
G92 E0
G1 X-0.632 Y-25.445 F7800.000
G1 F1800.000 E1.00000
G1 X0.632 Y-25.445 F540.000 E1.03440
G1 X0.632 Y25.445 E2.41896
G1 X-0.632 Y25.445 E2.45336
G1 X-0.632 Y-25.358 E3.83555
G1 X-19.132 Y-25.445 F7800.000
G1 X-17.868 Y-25.445 F540.000 E3.86995
G1 X-17.868 Y25.445 E5.25451
G1 X-19.132 Y25.445 E5.28891
G1 X-19.132 Y-25.358 E6.67110
G1 X1.211 Y-25.188 F7800.000
G1 X17.289 Y-25.188 F540.000 E7.10854
G1 X17.289 Y25.188 E8.47910
G1 X1.211 Y25.188 E8.91655
G1 X1.211 Y-25.101 E10.28475
G1 X1.712 Y-24.899 F7800.000
G1 F1800.000 E9.28475
G92 E0
G1 X-1.211 Y-25.188 F7800.000
G1 F1800.000 E1.00000
G1 X-1.211 Y25.188 F540.000 E2.37056
G1 X-17.289 Y25.188 E2.80800
G1 X-17.289 Y-25.188 E4.17856
G1 X-1.298 Y-25.188 E4.61364
G1 X-1.500 Y-24.687 F7800.000
G1 F1800.000 E3.61364
G92 E0
G1 X-18.457 Y24.464 F7800.000
G1 F1800.000 E1.00000
G1 X-18.543 Y24.378 F360.000 E1.00333
G1 X-18.457 Y23.641 E1.02362
G1 X-18.543 Y23.555 E1.02695
G1 X-18.457 Y22.819 E1.04724
G1 X-18.543 Y22.733 E1.05057
G1 X-18.457 Y21.996 E1.07086
G1 X-18.543 Y21.910 E1.07419
G1 X-18.457 Y21.173 E1.09448
G1 X-18.543 Y21.087 E1.09780
G1 X-18.457 Y20.351 E1.11809
G1 X-18.543 Y20.265 E1.12142
G1 X-18.457 Y19.528 E1.14171
G1 X-18.543 Y19.442 E1.14504
G1 X-18.457 Y18.705 E1.16533
G1 X-18.543 Y18.619 E1.16866
G1 X-18.457 Y17.883 E1.18895
G1 X-18.543 Y17.796 E1.19228
G1 X-18.457 Y17.060 E1.21257
G1 X-18.543 Y16.974 E1.21590
G1 X-18.457 Y16.237 E1.23619
G1 X-18.543 Y16.151 E1.23952
G1 X-18.457 Y15.414 E1.25981
G1 X-18.543 Y15.328 E1.26314
G1 X-18.457 Y14.592 E1.28343
G1 X-18.543 Y14.506 E1.28675
G1 X-18.457 Y13.769 E1.30704
G1 X-18.543 Y13.683 E1.31037
G1 X-18.457 Y12.946 E1.33066
G1 X-18.543 Y12.860 E1.33399
G1 X-18.457 Y12.124 E1.35428
G1 X-18.543 Y12.038 E1.35761
G1 X-18.457 Y11.301 E1.37790
G1 X-18.543 Y11.215 E1.38123
G1 X-18.457 Y10.478 E1.40152
G1 X-18.543 Y10.392 E1.40485
G1 X-18.457 Y9.656 E1.42514
G1 X-18.543 Y9.569 E1.42847
G1 X-18.457 Y8.833 E1.44876
G1 X-18.543 Y8.747 E1.45209
G1 X-18.457 Y8.010 E1.47238
G1 X-18.543 Y7.924 E1.47571
G1 X-18.457 Y7.187 E1.49600
G1 X-18.543 Y7.101 E1.49932
G1 X-18.457 Y6.365 E1.51961
G1 X-18.543 Y6.279 E1.52294
G1 X-18.457 Y5.542 E1.54323
G1 X-18.543 Y5.456 E1.54656
G1 X-18.457 Y4.719 E1.56685
G1 X-18.543 Y4.633 E1.57018
G1 X-18.457 Y3.897 E1.59047
G1 X-18.543 Y3.811 E1.59380
G1 X-18.457 Y3.074 E1.61409
G1 X-18.543 Y2.988 E1.61742
G1 X-18.457 Y2.251 E1.63771
G1 X-18.543 Y2.165 E1.64104
G1 X-18.457 Y1.428 E1.66133
G1 X-18.543 Y1.342 E1.66466
G1 X-18.457 Y0.606 E1.68495
G1 X-18.543 Y0.520 E1.68828
G1 X-18.457 Y-0.217 E1.70856
G1 X-18.543 Y-0.303 E1.71189
G1 X-18.457 Y-1.040 E1.73218
G1 X-18.543 Y-1.126 E1.73551
G1 X-18.457 Y-1.862 E1.75580
G1 X-18.543 Y-1.948 E1.75913
G1 X-18.457 Y-2.685 E1.77942
G1 X-18.543 Y-2.771 E1.78275
G1 X-18.457 Y-3.508 E1.80304
G1 X-18.543 Y-3.594 E1.80637
G1 X-18.457 Y-4.330 E1.82666
G1 X-18.543 Y-4.417 E1.82999
G1 X-18.457 Y-5.153 E1.85028
G1 X-18.543 Y-5.239 E1.85361
G1 X-18.457 Y-5.976 E1.87390
G1 X-18.543 Y-6.062 E1.87723
G1 X-18.457 Y-6.799 E1.89752
G1 X-18.543 Y-6.885 E1.90084
G1 X-18.457 Y-7.621 E1.92113
G1 X-18.543 Y-7.707 E1.92446
G1 X-18.457 Y-8.444 E1.94475
G1 X-18.543 Y-8.530 E1.94808
G1 X-18.457 Y-9.267 E1.96837
G1 X-18.543 Y-9.353 E1.97170
G1 X-18.457 Y-10.089 E1.99199
G1 X-18.543 Y-10.175 E1.99532
G1 X-18.457 Y-10.912 E2.01561
G1 X-18.543 Y-10.998 E2.01894
G1 X-18.457 Y-11.735 E2.03923
G1 X-18.543 Y-11.821 E2.04256
G1 X-18.457 Y-12.557 E2.06285
G1 X-18.543 Y-12.644 E2.06618
G1 X-18.457 Y-13.380 E2.08647
G1 X-18.543 Y-13.466 E2.08980
G1 X-18.457 Y-14.203 E2.11009
G1 X-18.543 Y-14.289 E2.11341
G1 X-18.457 Y-15.026 E2.13370
G1 X-18.543 Y-15.112 E2.13703
G1 X-18.457 Y-15.848 E2.15732
G1 X-18.543 Y-15.934 E2.16065
G1 X-18.457 Y-16.671 E2.18094
G1 X-18.543 Y-16.757 E2.18427
G1 X-18.457 Y-17.494 E2.20456
G1 X-18.543 Y-17.580 E2.20789
G1 X-18.457 Y-18.316 E2.22818
G1 X-18.543 Y-18.402 E2.23151
G1 X-18.457 Y-19.139 E2.25180
G1 X-18.543 Y-19.225 E2.25513
G1 X-18.457 Y-19.962 E2.27542
G1 X-18.543 Y-20.048 E2.27875
G1 X-18.457 Y-20.785 E2.29904
G1 X-18.543 Y-20.871 E2.30236
G1 X-18.457 Y-21.607 E2.32265
G1 X-18.543 Y-21.693 E2.32598
G1 X-18.457 Y-22.430 E2.34627
G1 X-18.543 Y-22.516 E2.34960
G1 X-18.457 Y-23.253 E2.36989
G1 X-18.543 Y-23.339 E2.37322
G1 X-18.457 Y-24.075 E2.39351
G1 X-18.543 Y-24.161 E2.39684
G1 X-17.196 Y25.615 F7800.000
G1 X-17.213 Y25.597 F360.000 E2.39718
G1 X-16.794 Y25.597 E2.40301
G1 X-16.777 Y25.615 E2.40335
G1 X-16.375 Y25.597 E2.40894
G1 X-16.358 Y25.615 E2.40929
G1 X-15.956 Y25.597 E2.41488
G1 X-15.939 Y25.615 E2.41522
G1 X-15.537 Y25.597 E2.42081
G1 X-15.520 Y25.615 E2.42115
G1 X-15.118 Y25.597 E2.42674
G1 X-15.101 Y25.615 E2.42708
G1 X-14.699 Y25.597 E2.43267
G1 X-14.682 Y25.615 E2.43302
G1 X-14.281 Y25.597 E2.43861
G1 X-14.263 Y25.615 E2.43895
G1 X-13.862 Y25.597 E2.44454
G1 X-13.844 Y25.615 E2.44488
G1 X-13.443 Y25.597 E2.45047
G1 X-13.425 Y25.615 E2.45082
G1 X-13.024 Y25.597 E2.45641
G1 X-13.006 Y25.615 E2.45675
G1 X-12.605 Y25.597 E2.46234
G1 X-12.587 Y25.615 E2.46268
G1 X-12.186 Y25.597 E2.46827
G1 X-12.168 Y25.615 E2.46862
G1 X-11.767 Y25.597 E2.47421
G1 X-11.750 Y25.615 E2.47455
G1 X-11.348 Y25.597 E2.48014
G1 X-11.331 Y25.615 E2.48048
G1 X-10.929 Y25.597 E2.48607
G1 X-10.912 Y25.615 E2.48641
G1 X-10.510 Y25.597 E2.49200
G1 X-10.493 Y25.615 E2.49235
G1 X-10.091 Y25.597 E2.49794
G1 X-10.074 Y25.615 E2.49828
G1 X-9.672 Y25.597 E2.50387
G1 X-9.655 Y25.615 E2.50421
G1 X-9.253 Y25.597 E2.50980
G1 X-9.236 Y25.615 E2.51015
G1 X-8.835 Y25.597 E2.51574
G1 X-8.817 Y25.615 E2.51608
G1 X-8.416 Y25.597 E2.52167
G1 X-8.398 Y25.615 E2.52201
G1 X-7.997 Y25.597 E2.52760
G1 X-7.979 Y25.615 E2.52795
G1 X-7.578 Y25.597 E2.53354
G1 X-7.560 Y25.615 E2.53388
G1 X-7.159 Y25.597 E2.53947
G1 X-7.141 Y25.615 E2.53981
G1 X-6.740 Y25.597 E2.54540
G1 X-6.722 Y25.615 E2.54574
G1 X-6.321 Y25.597 E2.55133
G1 X-6.304 Y25.615 E2.55168
G1 X-5.902 Y25.597 E2.55727
G1 X-5.885 Y25.615 E2.55761
G1 X-5.483 Y25.597 E2.56320
G1 X-5.466 Y25.615 E2.56354
G1 X-5.064 Y25.597 E2.56913
G1 X-5.047 Y25.615 E2.56948
G1 X-4.645 Y25.597 E2.57507
G1 X-4.628 Y25.615 E2.57541
G1 X-4.226 Y25.597 E2.58100
G1 X-4.209 Y25.615 E2.58134
G1 X-3.807 Y25.597 E2.58693
G1 X-3.790 Y25.615 E2.58727
G1 X-3.389 Y25.597 E2.59287
G1 X-3.371 Y25.615 E2.59321
G1 X-2.970 Y25.597 E2.59880
G1 X-2.952 Y25.615 E2.59914
G1 X-1.713 Y25.597 E2.61638
G1 X-1.695 Y25.615 E2.61672
G1 X-1.294 Y25.597 E2.62232
G1 X-1.276 Y25.615 E2.62266
G1 X0.034 Y24.856 F7800.000
G1 X-0.043 Y24.779 F360.000 E2.62564
G1 X0.043 Y24.042 F7800.000
G1 X-0.043 Y23.956 F360.000 E2.62895
G1 X0.043 Y23.219 F7800.000
G1 X-0.043 Y23.133 F360.000 E2.63226
G1 X0.043 Y22.397 F7800.000
G1 X-0.043 Y22.311 F360.000 E2.63557
G1 X0.043 Y21.574 F7800.000
G1 X-0.043 Y21.488 F360.000 E2.63888
G1 X0.043 Y20.751 F7800.000
G1 X-0.043 Y20.665 F360.000 E2.64219
G1 X0.043 Y19.928 F7800.000
G1 X-0.043 Y19.842 F360.000 E2.64550
G1 X0.043 Y19.106 F7800.000
G1 X-0.043 Y19.020 F360.000 E2.64881
G1 X0.043 Y18.283 F7800.000
G1 X-0.043 Y18.197 F360.000 E2.65212
G1 X0.043 Y17.460 F7800.000
G1 X-0.043 Y17.374 F360.000 E2.65543
G1 X0.043 Y16.638 F7800.000
G1 X-0.043 Y16.552 F360.000 E2.65874
G1 X0.043 Y15.815 F7800.000
G1 X-0.043 Y15.729 F360.000 E2.66205
G1 X0.043 Y14.992 F7800.000
G1 X-0.043 Y14.906 F360.000 E2.66536
G1 X0.043 Y14.170 F7800.000
G1 X-0.043 Y14.083 F360.000 E2.66867
G1 X0.043 Y13.347 F7800.000
G1 X-0.043 Y13.261 F360.000 E2.67198
G1 X0.043 Y12.524 F7800.000
G1 X-0.043 Y12.438 F360.000 E2.67530
G1 X0.043 Y11.701 F7800.000
G1 X-0.043 Y11.615 F360.000 E2.67861
G1 X0.043 Y10.879 F7800.000
G1 X-0.043 Y10.793 F360.000 E2.68192
G1 X0.043 Y10.056 F7800.000
G1 X-0.043 Y9.970 F360.000 E2.68523
G1 X0.043 Y9.233 F7800.000
G1 X-0.043 Y9.147 F360.000 E2.68854
G1 X0.043 Y8.411 F7800.000
G1 X-0.043 Y8.325 F360.000 E2.69185
G1 X0.043 Y7.588 F7800.000
G1 X-0.043 Y7.502 F360.000 E2.69516
G1 X0.043 Y6.765 F7800.000
G1 X-0.043 Y6.679 F360.000 E2.69847
G1 X0.043 Y5.943 F7800.000
G1 X-0.043 Y5.856 F360.000 E2.70178
G1 X0.043 Y5.120 F7800.000
G1 X-0.043 Y5.034 F360.000 E2.70509
G1 X0.043 Y4.297 F7800.000
G1 X-0.043 Y4.211 F360.000 E2.70840
G1 X0.043 Y3.474 F7800.000
G1 X-0.043 Y3.388 F360.000 E2.71171
G1 X0.043 Y2.652 F7800.000
G1 X-0.043 Y2.566 F360.000 E2.71502
G1 X0.043 Y1.829 F7800.000
G1 X-0.043 Y1.743 F360.000 E2.71833
G1 X0.043 Y1.006 F7800.000
G1 X-0.043 Y0.920 F360.000 E2.72165
G1 X0.043 Y0.184 F7800.000
G1 X-0.043 Y0.098 F360.000 E2.72496
G1 X0.043 Y-0.639 F7800.000
G1 X-0.043 Y-0.725 F360.000 E2.72827
G1 X0.043 Y-1.462 F7800.000
G1 X-0.043 Y-1.548 F360.000 E2.73158
G1 X0.043 Y-2.285 F7800.000
G1 X-0.043 Y-2.371 F360.000 E2.73489
G1 X0.043 Y-3.107 F7800.000
G1 X-0.043 Y-3.193 F360.000 E2.73820
G1 X0.043 Y-3.930 F7800.000
G1 X-0.043 Y-4.016 F360.000 E2.74151
G1 X0.043 Y-4.753 F7800.000
G1 X-0.043 Y-4.839 F360.000 E2.74482
G1 X0.043 Y-5.575 F7800.000
G1 X-0.043 Y-5.661 F360.000 E2.74813
G1 X0.043 Y-6.398 F7800.000
G1 X-0.043 Y-6.484 F360.000 E2.75144
G1 X0.043 Y-7.221 F7800.000
G1 X-0.043 Y-7.307 F360.000 E2.75475
G1 X0.043 Y-8.043 F7800.000
G1 X-0.043 Y-8.130 F360.000 E2.75806
G1 X0.043 Y-8.866 F7800.000
G1 X-0.043 Y-8.952 F360.000 E2.76137
G1 X0.043 Y-9.689 F7800.000
G1 X-0.043 Y-9.775 F360.000 E2.76468
G1 X0.043 Y-10.512 F7800.000
G1 X-0.043 Y-10.598 F360.000 E2.76800
G1 X0.043 Y-11.334 F7800.000
G1 X-0.043 Y-11.420 F360.000 E2.77131
G1 X0.043 Y-12.157 F7800.000
G1 X-0.043 Y-12.243 F360.000 E2.77462
G1 X0.043 Y-12.980 F7800.000
G1 X-0.043 Y-13.066 F360.000 E2.77793
G1 X0.043 Y-13.802 F7800.000
G1 X-0.043 Y-13.888 F360.000 E2.78124
G1 X0.043 Y-14.625 F7800.000
G1 X-0.043 Y-14.711 F360.000 E2.78455
G1 X0.043 Y-15.448 F7800.000
G1 X-0.043 Y-15.534 F360.000 E2.78786
G1 X0.043 Y-16.270 F7800.000
G1 X-0.043 Y-16.357 F360.000 E2.79117
G1 X0.043 Y-17.093 F7800.000
G1 X-0.043 Y-17.179 F360.000 E2.79448
G1 X0.043 Y-17.916 F7800.000
G1 X-0.043 Y-18.002 F360.000 E2.79779
G1 X0.043 Y-18.739 F7800.000
G1 X-0.043 Y-18.825 F360.000 E2.80110
G1 X0.043 Y-19.561 F7800.000
G1 X-0.043 Y-19.647 F360.000 E2.80441
G1 X0.043 Y-20.384 F7800.000
G1 X-0.043 Y-20.470 F360.000 E2.80772
G1 X0.043 Y-21.207 F7800.000
G1 X-0.043 Y-21.293 F360.000 E2.81103
G1 X0.043 Y-22.029 F7800.000
G1 X-0.043 Y-22.115 F360.000 E2.81434
G1 X0.043 Y-22.852 F7800.000
G1 X-0.043 Y-22.938 F360.000 E2.81766
G1 X0.043 Y-23.675 F7800.000
G1 X-0.043 Y-23.761 F360.000 E2.82097
G1 X0.043 Y-24.498 F7800.000
G1 X-0.043 Y-24.584 F360.000 E2.82428
G1 X1.134 Y-25.597 F7800.000
G1 X1.117 Y-25.615 F360.000 E2.82462
G1 X1.535 Y-25.615 E2.83045
G1 X1.553 Y-25.597 E2.83079
G1 X1.954 Y-25.615 E2.83638
G1 X1.972 Y-25.597 E2.83672
G1 X2.373 Y-25.615 E2.84231
G1 X2.391 Y-25.597 E2.84266
G1 X2.792 Y-25.615 E2.84825
G1 X2.810 Y-25.597 E2.84859
G1 X3.211 Y-25.615 E2.85418
G1 X3.229 Y-25.597 E2.85452
G1 X3.630 Y-25.615 E2.86011
G1 X3.647 Y-25.597 E2.86045
G1 X4.049 Y-25.615 E2.86604
G1 X4.066 Y-25.597 E2.86639
G1 X4.468 Y-25.615 E2.87198
G1 X4.485 Y-25.597 E2.87232
G1 X4.887 Y-25.615 E2.87791
G1 X4.904 Y-25.597 E2.87825
G1 X5.306 Y-25.615 E2.88384
G1 X5.323 Y-25.597 E2.88419
G1 X5.725 Y-25.615 E2.88978
G1 X5.742 Y-25.597 E2.89012
G1 X6.144 Y-25.615 E2.89571
G1 X6.161 Y-25.597 E2.89605
G1 X6.563 Y-25.615 E2.90164
G1 X6.580 Y-25.597 E2.90199
G1 X6.981 Y-25.615 E2.90758
G1 X6.999 Y-25.597 E2.90792
G1 X7.400 Y-25.615 E2.91351
G1 X7.418 Y-25.597 E2.91385
G1 X7.819 Y-25.615 E2.91944
G1 X7.837 Y-25.597 E2.91978
G1 X8.238 Y-25.615 E2.92537
G1 X8.256 Y-25.597 E2.92572
G1 X8.657 Y-25.615 E2.93131
G1 X8.675 Y-25.597 E2.93165
G1 X9.076 Y-25.615 E2.93724
G1 X9.093 Y-25.597 E2.93758
G1 X9.495 Y-25.615 E2.94317
G1 X9.512 Y-25.597 E2.94352
G1 X9.914 Y-25.615 E2.94911
G1 X9.931 Y-25.597 E2.94945
G1 X10.333 Y-25.615 E2.95504
G1 X10.350 Y-25.597 E2.95538
G1 X10.752 Y-25.615 E2.96097
G1 X10.769 Y-25.597 E2.96132
G1 X11.171 Y-25.615 E2.96691
G1 X11.188 Y-25.597 E2.96725
G1 X11.590 Y-25.615 E2.97284
G1 X11.607 Y-25.597 E2.97318
G1 X12.009 Y-25.615 E2.97877
G1 X12.026 Y-25.597 E2.97911
G1 X12.427 Y-25.615 E2.98470
G1 X12.445 Y-25.597 E2.98505
G1 X12.846 Y-25.615 E2.99064
G1 X12.864 Y-25.597 E2.99098
G1 X13.265 Y-25.615 E2.99657
G1 X13.283 Y-25.597 E2.99691
G1 X13.684 Y-25.615 E3.00250
G1 X13.702 Y-25.597 E3.00285
G1 X14.103 Y-25.615 E3.00844
G1 X14.121 Y-25.597 E3.00878
G1 X14.522 Y-25.615 E3.01437
G1 X14.539 Y-25.597 E3.01471
G1 X14.941 Y-25.615 E3.02030
G1 X14.958 Y-25.597 E3.02064
G1 X15.360 Y-25.615 E3.02623
G1 X15.377 Y-25.597 E3.02658
G1 X15.779 Y-25.615 E3.03217
G1 X15.796 Y-25.597 E3.03251
G1 X16.198 Y-25.615 E3.03810
G1 X16.215 Y-25.597 E3.03844
G1 X16.617 Y-25.615 E3.04403
G1 X16.634 Y-25.597 E3.04438
G1 X17.459 Y-25.610 E3.05585
G1 X18.543 Y-24.097 F7800.000
G1 X18.457 Y-24.183 F360.000 E3.05916
G1 X18.543 Y-23.274 F7800.000
G1 X18.457 Y-23.360 F360.000 E3.06247
G1 X18.543 Y-22.452 F7800.000
G1 X18.457 Y-22.538 F360.000 E3.06578
G1 X18.543 Y-21.629 F7800.000
G1 X18.457 Y-21.715 F360.000 E3.06909
G1 X18.543 Y-20.806 F7800.000
