; generated by Slic3r 0.9.10b on 2013-12-01 at 10:18:37

; layer_height = 0.3
; perimeters = 2
; top_solid_layers = 3
; bottom_solid_layers = 3
; fill_density = 0.4
; perimeter_speed = 30
; infill_speed = 60
; travel_speed = 130
; nozzle_diameter = 0.5
; filament_diameter = 2.85
; extrusion_multiplier = 1
; perimeters extrusion width = 0.70mm
; infill extrusion width = 0.70mm
; solid infill extrusion width = 0.70mm
; top infill extrusion width = 0.70mm
; first layer extrusion width = 0.60mm

G21 ; set units to millimeters
M107
M104 S0
M83
M140 S70
G28
G1Y98F9000
M190 S70
G1X5Y98Z150F9000
M104 S210
G1X5Y98Z1F9000
G1Z0.05
M109 S210
G1Z5
G1X15
;G1E5F50
G90 ; use absolute coordinates
G92 E0
M82 ; use absolute distances for extrusion
G1 F1800.000 E-1.00000
G92 E0
G1 Z0.300 F7800.000
G1 X-27.580 Y26.484
G1 F1800.000 E1.00000
G1 X-27.580 Y-26.486 F540.000 E2.44114
G1 X-27.450 Y-27.766 E2.47614
G1 X-27.080 Y-29.006 E2.51135
G1 X-26.470 Y-30.136 E2.54628
G1 X-25.650 Y-31.136 E2.58147
G1 X-24.650 Y-31.956 E2.61665
G1 X-23.520 Y-32.566 E2.65159
G1 X-22.280 Y-32.936 E2.68679
G1 X-21.000 Y-33.066 E2.72180
G1 X21.000 Y-33.066 E3.86448
G1 X22.280 Y-32.936 E3.89948
G1 X23.520 Y-32.566 E3.93469
G1 X24.650 Y-31.956 E3.96962
G1 X25.650 Y-31.136 E4.00481
G1 X26.470 Y-30.136 E4.03999
G1 X27.080 Y-29.006 E4.07493
G1 X27.450 Y-27.766 E4.11013
G1 X27.580 Y-26.486 E4.14514
G1 X27.580 Y26.484 E5.58627
G1 X27.450 Y27.764 E5.62128
G1 X27.080 Y29.004 E5.65648
G1 X26.470 Y30.134 E5.69142
G1 X25.650 Y31.134 E5.72660
G1 X24.650 Y31.954 E5.76179
G1 X23.520 Y32.564 E5.79672
G1 X22.280 Y32.934 E5.83193
G1 X21.000 Y33.064 E5.86693
G1 X-21.000 Y33.064 E7.00961
G1 X-22.280 Y32.934 E7.04462
G1 X-23.520 Y32.564 E7.07982
G1 X-24.650 Y31.954 E7.11476
G1 X-25.650 Y31.134 E7.14994
G1 X-26.470 Y30.134 E7.18513
G1 X-27.080 Y29.004 E7.22006
G1 X-27.450 Y27.764 E7.25527
G1 X-27.571 Y26.571 E7.28791
G1 F1800.000 E6.28791
G92 E0
G1 X-18.289 Y25.360 F7800.000
G1 F1800.000 E1.00000
G1 X-18.289 Y6.096 F540.000 E1.52409
G1 X-5.711 Y6.096 E1.86631
G1 X-5.711 Y25.360 E2.39040
G1 X-18.202 Y25.360 E2.73026
G1 X-18.000 Y24.859 F7800.000
G1 X-18.868 Y25.617
G1 X-20.132 Y25.617 F540.000 E2.76466
G1 X-20.132 Y5.839 E3.30274
G1 X-18.868 Y5.839 E3.33714
G1 X-18.868 Y25.530 E3.87287
G1 F1800.000 E2.87287
G92 E0
G1 X-3.868 Y5.839 F7800.000
G1 F1800.000 E1.00000
G1 X-3.868 Y25.617 F540.000 E1.53808
G1 X-5.132 Y25.617 E1.57248
G1 X-5.132 Y5.839 E2.11056
G1 X-3.955 Y5.839 E2.14260
G1 X-3.289 Y5.261 F7800.000
G1 X-3.289 Y26.195 F540.000 E2.71216
G1 X-20.711 Y26.195 E3.18614
G1 X-20.711 Y5.261 E3.75570
G1 X-3.376 Y5.261 E4.22732
G1 X-3.579 Y5.762 F7800.000
G1 F1800.000 E3.22732
G92 E0
G1 X-19.457 Y24.974 F7800.000
G1 F1800.000 E1.00000
G1 X-19.543 Y24.888 F360.000 E1.00332
G1 X-19.457 Y24.155 E1.02344
G1 X-19.543 Y24.069 E1.02675
G1 X-19.457 Y23.335 E1.04687
G1 X-19.543 Y23.249 E1.05019
G1 X-19.457 Y22.516 E1.07031
G1 X-19.543 Y22.430 E1.07362
G1 X-19.457 Y21.696 E1.09374
G1 X-19.543 Y21.610 E1.09706
G1 X-19.457 Y20.877 E1.11718
G1 X-19.543 Y20.791 E1.12049
G1 X-19.457 Y20.058 E1.14061
G1 X-19.543 Y19.972 E1.14393
G1 X-19.457 Y19.238 E1.16405
G1 X-19.543 Y19.152 E1.16736
G1 X-19.457 Y18.419 E1.18748
G1 X-19.543 Y18.333 E1.19080
G1 X-19.457 Y17.599 E1.21092
G1 X-19.543 Y17.513 E1.21423
G1 X-19.457 Y16.780 E1.23435
G1 X-19.543 Y16.694 E1.23767
G1 X-19.457 Y15.961 E1.25779
G1 X-19.543 Y15.875 E1.26110
G1 X-19.457 Y15.141 E1.28122
G1 X-19.543 Y15.055 E1.28454
G1 X-19.457 Y14.322 E1.30466
G1 X-19.543 Y14.236 E1.30797
G1 X-19.457 Y13.502 E1.32809
G1 X-19.543 Y13.416 E1.33141
G1 X-19.457 Y12.683 E1.35153
G1 X-19.543 Y12.597 E1.35484
G1 X-19.457 Y11.864 E1.37496
G1 X-19.543 Y11.778 E1.37828
G1 X-19.457 Y11.044 E1.39840
G1 X-19.543 Y10.958 E1.40171
G1 X-19.457 Y10.225 E1.42183
G1 X-19.543 Y10.139 E1.42515
G1 X-19.457 Y9.405 E1.44527
G1 X-19.543 Y9.319 E1.44859
G1 X-19.457 Y8.586 E1.46870
G1 X-19.543 Y8.500 E1.47202
G1 X-19.457 Y7.766 E1.49214
G1 X-19.543 Y7.680 E1.49546
G1 X-19.457 Y6.947 E1.51558
G1 X-19.543 Y6.861 E1.51889
G1 X-18.219 Y25.786 F7800.000
G1 X-18.236 Y25.769 F360.000 E1.51923
G1 X-17.815 Y25.769 E1.52513
G1 X-17.798 Y25.786 E1.52547
G1 X-17.394 Y25.769 E1.53112
G1 X-17.377 Y25.786 E1.53147
G1 X-16.973 Y25.769 E1.53712
G1 X-16.956 Y25.786 E1.53746
G1 X-16.552 Y25.769 E1.54312
G1 X-16.535 Y25.786 E1.54346
G1 X-16.131 Y25.769 E1.54911
G1 X-16.114 Y25.786 E1.54946
G1 X-15.710 Y25.769 E1.55511
G1 X-15.693 Y25.786 E1.55545
G1 X-15.289 Y25.769 E1.56111
G1 X-15.272 Y25.786 E1.56145
G1 X-14.868 Y25.769 E1.56711
G1 X-14.851 Y25.786 E1.56745
G1 X-14.447 Y25.769 E1.57310
G1 X-14.430 Y25.786 E1.57345
G1 X-14.026 Y25.769 E1.57910
G1 X-14.009 Y25.786 E1.57944
G1 X-13.606 Y25.769 E1.58510
G1 X-13.588 Y25.786 E1.58544
G1 X-13.185 Y25.769 E1.59110
G1 X-13.167 Y25.786 E1.59144
G1 X-12.764 Y25.769 E1.59709
G1 X-12.746 Y25.786 E1.59743
G1 X-12.343 Y25.769 E1.60309
G1 X-12.325 Y25.786 E1.60343
G1 X-11.922 Y25.769 E1.60909
G1 X-11.905 Y25.786 E1.60943
G1 X-11.501 Y25.769 E1.61508
G1 X-11.484 Y25.786 E1.61543
G1 X-11.080 Y25.769 E1.62108
G1 X-11.063 Y25.786 E1.62142
G1 X-10.659 Y25.769 E1.62708
G1 X-10.642 Y25.786 E1.62742
G1 X-10.238 Y25.769 E1.63308
G1 X-10.221 Y25.786 E1.63342
G1 X-9.817 Y25.769 E1.63907
G1 X-9.800 Y25.786 E1.63941
G1 X-9.396 Y25.769 E1.64507
G1 X-9.379 Y25.786 E1.64541
G1 X-8.975 Y25.769 E1.65107
G1 X-8.958 Y25.786 E1.65141
G1 X-8.554 Y25.769 E1.65706
G1 X-8.537 Y25.786 E1.65741
G1 X-8.133 Y25.769 E1.66306
G1 X-8.116 Y25.786 E1.66340
G1 X-7.713 Y25.769 E1.66906
G1 X-7.695 Y25.786 E1.66940
G1 X-7.292 Y25.769 E1.67506
G1 X-7.274 Y25.786 E1.67540
G1 X-6.871 Y25.769 E1.68105
G1 X-6.853 Y25.786 E1.68139
G1 X-5.608 Y25.769 E1.69883
G1 X-5.591 Y25.786 E1.69917
G1 X-4.457 Y24.405 F7800.000
G1 X-4.543 Y24.319 F360.000 E1.70248
G1 X-4.457 Y23.586 E1.72257
G1 X-4.543 Y23.500 E1.72588
G1 X-4.457 Y22.766 E1.74597
G1 X-4.543 Y22.680 E1.74928
G1 X-4.457 Y21.947 E1.76937
G1 X-4.543 Y21.861 E1.77268
G1 X-4.457 Y21.128 E1.79277
G1 X-4.543 Y21.042 E1.79608
G1 X-4.457 Y20.308 E1.81617
G1 X-4.543 Y20.222 E1.81948
G1 X-4.457 Y19.489 E1.83957
G1 X-4.543 Y19.403 E1.84288
G1 X-4.457 Y18.669 E1.86297
G1 X-4.543 Y18.583 E1.86628
G1 X-4.457 Y17.850 E1.88637
G1 X-4.543 Y17.764 E1.88968
G1 X-4.457 Y17.031 E1.90977
G1 X-4.543 Y16.945 E1.91308
G1 X-4.457 Y16.211 E1.93317
G1 X-4.543 Y16.125 E1.93648
G1 X-4.457 Y15.392 E1.95657
G1 X-4.543 Y15.306 E1.95988
G1 X-4.457 Y14.572 E1.97997
G1 X-4.543 Y14.486 E1.98328
G1 X-4.457 Y13.753 E2.00337
G1 X-4.543 Y13.667 E2.00668
G1 X-4.457 Y12.934 E2.02677
G1 X-4.543 Y12.848 E2.03008
G1 X-4.457 Y12.114 E2.05017
G1 X-4.543 Y12.028 E2.05348
G1 X-4.457 Y11.295 E2.07357
G1 X-4.543 Y11.209 E2.07688
G1 X-4.457 Y10.475 E2.09697
G1 X-4.543 Y10.389 E2.10028
G1 X-4.457 Y9.656 E2.12037
G1 X-4.543 Y9.570 E2.12368
G1 X-4.457 Y8.836 E2.14377
G1 X-4.543 Y8.750 E2.14708
G1 X-4.457 Y8.017 E2.16717
G1 X-4.543 Y7.931 E2.17048
G1 X-4.457 Y7.198 E2.19057
G1 X-4.543 Y7.112 E2.19388
G1 X-5.923 Y5.670 F7800.000
G1 X-5.906 Y5.687 F360.000 E2.19422
G1 X-6.344 Y5.670 F7800.000
G1 X-6.327 Y5.687 F360.000 E2.19456
G1 X-6.765 Y5.670 F7800.000
G1 X-6.748 Y5.687 F360.000 E2.19490
G1 X-7.186 Y5.670 F7800.000
G1 X-7.169 Y5.687 F360.000 E2.19524
G1 X-7.607 Y5.670 F7800.000
G1 X-7.590 Y5.687 F360.000 E2.19558
G1 X-8.028 Y5.670 F7800.000
G1 X-8.011 Y5.687 F360.000 E2.19592
G1 X-8.449 Y5.670 F7800.000
G1 X-8.431 Y5.687 F360.000 E2.19626
G1 X-8.870 Y5.670 F7800.000
G1 X-8.852 Y5.687 F360.000 E2.19660
G1 X-9.291 Y5.670 F7800.000
G1 X-9.273 Y5.687 F360.000 E2.19694
G1 X-9.712 Y5.670 F7800.000
G1 X-9.694 Y5.687 F360.000 E2.19728
G1 X-10.132 Y5.670 F7800.000
G1 X-10.115 Y5.687 F360.000 E2.19762
G1 X-10.553 Y5.670 F7800.000
G1 X-10.536 Y5.687 F360.000 E2.19796
G1 X-10.974 Y5.670 F7800.000
G1 X-10.957 Y5.687 F360.000 E2.19830
G1 X-11.395 Y5.670 F7800.000
G1 X-11.378 Y5.687 F360.000 E2.19864
G1 X-11.816 Y5.670 F7800.000
G1 X-11.799 Y5.687 F360.000 E2.19898
G1 X-12.237 Y5.670 F7800.000
G1 X-12.220 Y5.687 F360.000 E2.19932
G1 X-12.658 Y5.670 F7800.000
G1 X-12.641 Y5.687 F360.000 E2.19966
G1 X-13.079 Y5.670 F7800.000
G1 X-13.062 Y5.687 F360.000 E2.20000
G1 X-13.500 Y5.670 F7800.000
G1 X-13.483 Y5.687 F360.000 E2.20034
G1 X-13.921 Y5.670 F7800.000
G1 X-13.904 Y5.687 F360.000 E2.20068
G1 X-14.342 Y5.670 F7800.000
G1 X-14.325 Y5.687 F360.000 E2.20102
G1 X-14.763 Y5.670 F7800.000
G1 X-14.745 Y5.687 F360.000 E2.20136
G1 X-15.184 Y5.670 F7800.000
G1 X-15.166 Y5.687 F360.000 E2.20170
G1 X-15.605 Y5.670 F7800.000
G1 X-15.587 Y5.687 F360.000 E2.20204
G1 X-16.026 Y5.670 F7800.000
G1 X-16.008 Y5.687 F360.000 E2.20238
G1 X-16.446 Y5.670 F7800.000
G1 X-16.429 Y5.687 F360.000 E2.20272
G1 X-16.867 Y5.670 F7800.000
G1 X-16.850 Y5.687 F360.000 E2.20306
G1 X-17.288 Y5.670 F7800.000
G1 X-17.271 Y5.687 F360.000 E2.20340
G1 X-17.709 Y5.670 F7800.000
G1 X-17.692 Y5.687 F360.000 E2.20374
G1 X-18.113 Y5.687 F7800.000
G1 X-18.130 Y5.670 F360.000 E2.20408
G1 F1800.000 E1.20408
G92 E0
G1 X5.711 Y6.096 F7800.000
G1 F1800.000 E1.00000
G1 X18.289 Y6.096 F540.000 E1.34222
G1 X18.289 Y25.360 E1.86631
G1 X5.711 Y25.360 E2.20853
G1 X5.711 Y6.183 E2.73026
G1 X6.212 Y6.385 F7800.000
G1 F1800.000 E1.73026
G92 E0
G1 X5.132 Y25.617 F7800.000
G1 F1800.000 E1.00000
G1 X3.868 Y25.617 F540.000 E1.03440
G1 X3.868 Y5.839 E1.57248
G1 X5.132 Y5.839 E1.60688
G1 X5.132 Y25.530 E2.14260
G1 F1800.000 E1.14260
G92 E0
G1 X20.132 Y5.839 F7800.000
G1 F1800.000 E1.00000
G1 X20.132 Y25.617 F540.000 E1.53808
G1 X18.868 Y25.617 E1.57248
G1 X18.868 Y5.839 E2.11056
G1 X20.045 Y5.839 E2.14260
G1 X20.711 Y5.261 F7800.000
G1 X20.711 Y26.195 F540.000 E2.71216
G1 X3.289 Y26.195 E3.18614
G1 X3.289 Y5.261 E3.75570
G1 X20.624 Y5.261 E4.22732
G1 X20.421 Y5.762 F7800.000
G1 F1800.000 E3.22732
G92 E0
G1 X4.543 Y24.974 F7800.000
G1 F1800.000 E1.00000
G1 X4.457 Y24.888 F360.000 E1.00332
G1 X4.543 Y24.155 E1.02344
G1 X4.457 Y24.069 E1.02675
G1 X4.543 Y23.335 E1.04687
G1 X4.457 Y23.249 E1.05019
G1 X4.543 Y22.516 E1.07031
G1 X4.457 Y22.430 E1.07362
G1 X4.543 Y21.696 E1.09374
G1 X4.457 Y21.610 E1.09706
G1 X4.543 Y20.877 E1.11718
G1 X4.457 Y20.791 E1.12049
G1 X4.543 Y20.058 E1.14061
G1 X4.457 Y19.972 E1.14393
G1 X4.543 Y19.238 E1.16405
G1 X4.457 Y19.152 E1.16736
G1 X4.543 Y18.419 E1.18748
G1 X4.457 Y18.333 E1.19080
G1 X4.543 Y17.599 E1.21092
G1 X4.457 Y17.513 E1.21423
G1 X4.543 Y16.780 E1.23435
G1 X4.457 Y16.694 E1.23767
G1 X4.543 Y15.961 E1.25779
G1 X4.457 Y15.875 E1.26110
G1 X4.543 Y15.141 E1.28122
G1 X4.457 Y15.055 E1.28454
G1 X4.543 Y14.322 E1.30466
G1 X4.457 Y14.236 E1.30797
G1 X4.543 Y13.502 E1.32809
G1 X4.457 Y13.416 E1.33141
G1 X4.543 Y12.683 E1.35153
G1 X4.457 Y12.597 E1.35484
G1 X4.543 Y11.864 E1.37496
G1 X4.457 Y11.778 E1.37828
G1 X4.543 Y11.044 E1.39840
G1 X4.457 Y10.958 E1.40171
G1 X4.543 Y10.225 E1.42183
G1 X4.457 Y10.139 E1.42515
G1 X4.543 Y9.405 E1.44527
G1 X4.457 Y9.319 E1.44859
G1 X4.543 Y8.586 E1.46870
G1 X4.457 Y8.500 E1.47202
G1 X4.543 Y7.766 E1.49214
G1 X4.457 Y7.680 E1.49546
G1 X4.543 Y6.947 E1.51558
G1 X4.457 Y6.861 E1.51889
G1 X5.781 Y25.786 F7800.000
G1 X5.764 Y25.769 F360.000 E1.51923
G1 X6.185 Y25.769 E1.52513
G1 X6.202 Y25.786 E1.52547
G1 X6.606 Y25.769 E1.53112
G1 X6.623 Y25.786 E1.53147
G1 X7.027 Y25.769 E1.53712
G1 X7.044 Y25.786 E1.53746
G1 X7.448 Y25.769 E1.54312
G1 X7.465 Y25.786 E1.54346
G1 X7.869 Y25.769 E1.54911
G1 X7.886 Y25.786 E1.54946
G1 X8.290 Y25.769 E1.55511
G1 X8.307 Y25.786 E1.55545
G1 X8.711 Y25.769 E1.56111
G1 X8.728 Y25.786 E1.56145
G1 X9.132 Y25.769 E1.56711
G1 X9.149 Y25.786 E1.56745
G1 X9.553 Y25.769 E1.57310
G1 X9.570 Y25.786 E1.57345
G1 X9.974 Y25.769 E1.57910
G1 X9.991 Y25.786 E1.57944
G1 X10.394 Y25.769 E1.58510
G1 X10.412 Y25.786 E1.58544
G1 X10.815 Y25.769 E1.59110
G1 X10.833 Y25.786 E1.59144
G1 X11.236 Y25.769 E1.59709
G1 X11.254 Y25.786 E1.59743
G1 X11.657 Y25.769 E1.60309
G1 X11.675 Y25.786 E1.60343
G1 X12.078 Y25.769 E1.60909
G1 X12.095 Y25.786 E1.60943
G1 X12.499 Y25.769 E1.61508
G1 X12.516 Y25.786 E1.61543
G1 X12.920 Y25.769 E1.62108
G1 X12.937 Y25.786 E1.62142
G1 X13.341 Y25.769 E1.62708
G1 X13.358 Y25.786 E1.62742
G1 X13.762 Y25.769 E1.63308
G1 X13.779 Y25.786 E1.63342
G1 X14.183 Y25.769 E1.63907
G1 X14.200 Y25.786 E1.63941
G1 X14.604 Y25.769 E1.64507
G1 X14.621 Y25.786 E1.64541
G1 X15.025 Y25.769 E1.65107
G1 X15.042 Y25.786 E1.65141
G1 X15.446 Y25.769 E1.65706
G1 X15.463 Y25.786 E1.65741
G1 X15.867 Y25.769 E1.66306
G1 X15.884 Y25.786 E1.66340
G1 X16.287 Y25.769 E1.66906
G1 X16.305 Y25.786 E1.66940
G1 X16.708 Y25.769 E1.67506
G1 X16.726 Y25.786 E1.67540
G1 X17.129 Y25.769 E1.68105
G1 X17.147 Y25.786 E1.68139
G1 X18.392 Y25.769 E1.69883
G1 X18.409 Y25.786 E1.69917
G1 X19.543 Y24.405 F7800.000
G1 X19.457 Y24.319 F360.000 E1.70248
G1 X19.543 Y23.586 E1.72257
G1 X19.457 Y23.500 E1.72588
G1 X19.543 Y22.766 E1.74597
G1 X19.457 Y22.680 E1.74928
G1 X19.543 Y21.947 E1.76937
G1 X19.457 Y21.861 E1.77268
G1 X19.543 Y21.128 E1.79277
G1 X19.457 Y21.042 E1.79608
G1 X19.543 Y20.308 E1.81617
G1 X19.457 Y20.222 E1.81948
G1 X19.543 Y19.489 E1.83957
G1 X19.457 Y19.403 E1.84288
G1 X19.543 Y18.669 E1.86297
G1 X19.457 Y18.583 E1.86628
G1 X19.543 Y17.850 E1.88637
G1 X19.457 Y17.764 E1.88968
G1 X19.543 Y17.031 E1.90977
G1 X19.457 Y16.945 E1.91308
G1 X19.543 Y16.211 E1.93317
G1 X19.457 Y16.125 E1.93648
G1 X19.543 Y15.392 E1.95657
G1 X19.457 Y15.306 E1.95988
G1 X19.543 Y14.572 E1.97997
G1 X19.457 Y14.486 E1.98328
G1 X19.543 Y13.753 E2.00337
G1 X19.457 Y13.667 E2.00668
G1 X19.543 Y12.934 E2.02677
G1 X19.457 Y12.848 E2.03008
G1 X19.543 Y12.114 E2.05017
G1 X19.457 Y12.028 E2.05348
G1 X19.543 Y11.295 E2.07357
G1 X19.457 Y11.209 E2.07688
G1 X19.543 Y10.475 E2.09697
G1 X19.457 Y10.389 E2.10028
G1 X19.543 Y9.656 E2.12037
G1 X19.457 Y9.570 E2.12368
G1 X19.543 Y8.836 E2.14377
G1 X19.457 Y8.750 E2.14708
G1 X19.543 Y8.017 E2.16717
G1 X19.457 Y7.931 E2.17048
G1 X19.543 Y7.198 E2.19057
G1 X19.457 Y7.112 E2.19388
G1 X18.077 Y5.670 F7800.000
G1 X18.094 Y5.687 F360.000 E2.19422
G1 X17.656 Y5.670 F7800.000
G1 X17.673 Y5.687 F360.000 E2.19456
G1 X17.235 Y5.670 F7800.000
G1 X17.252 Y5.687 F360.000 E2.19490
G1 X16.814 Y5.670 F7800.000
G1 X16.831 Y5.687 F360.000 E2.19524
G1 X16.393 Y5.670 F7800.000
G1 X16.410 Y5.687 F360.000 E2.19558
G1 X15.972 Y5.670 F7800.000
G1 X15.989 Y5.687 F360.000 E2.19592
G1 X15.551 Y5.670 F7800.000
G1 X15.569 Y5.687 F360.000 E2.19626
G1 X15.130 Y5.670 F7800.000
G1 X15.148 Y5.687 F360.000 E2.19660
G1 X14.709 Y5.670 F7800.000
G1 X14.727 Y5.687 F360.000 E2.19694
G1 X14.288 Y5.670 F7800.000
G1 X14.306 Y5.687 F360.000 E2.19728
G1 X13.868 Y5.670 F7800.000
G1 X13.885 Y5.687 F360.000 E2.19762
G1 X13.447 Y5.670 F7800.000
G1 X13.464 Y5.687 F360.000 E2.19796
G1 X13.026 Y5.670 F7800.000
G1 X13.043 Y5.687 F360.000 E2.19830
G1 X12.605 Y5.670 F7800.000
G1 X12.622 Y5.687 F360.000 E2.19864
G1 X12.184 Y5.670 F7800.000
G1 X12.201 Y5.687 F360.000 E2.19898
G1 X11.763 Y5.670 F7800.000
G1 X11.780 Y5.687 F360.000 E2.19932
G1 X11.342 Y5.670 F7800.000
G1 X11.359 Y5.687 F360.000 E2.19966
G1 X10.921 Y5.670 F7800.000
G1 X10.938 Y5.687 F360.000 E2.20000
G1 X10.500 Y5.670 F7800.000
G1 X10.517 Y5.687 F360.000 E2.20034
G1 X10.079 Y5.670 F7800.000
G1 X10.096 Y5.687 F360.000 E2.20068
G1 X9.658 Y5.670 F7800.000
G1 X9.675 Y5.687 F360.000 E2.20102
G1 X9.237 Y5.670 F7800.000
G1 X9.255 Y5.687 F360.000 E2.20136
G1 X8.816 Y5.670 F7800.000
G1 X8.834 Y5.687 F360.000 E2.20170
G1 X8.395 Y5.670 F7800.000
G1 X8.413 Y5.687 F360.000 E2.20204
G1 X7.974 Y5.670 F7800.000
G1 X7.992 Y5.687 F360.000 E2.20238
G1 X7.554 Y5.670 F7800.000
G1 X7.571 Y5.687 F360.000 E2.20272
G1 X7.133 Y5.670 F7800.000
G1 X7.150 Y5.687 F360.000 E2.20306
G1 X6.712 Y5.670 F7800.000
G1 X6.729 Y5.687 F360.000 E2.20340
G1 X6.291 Y5.670 F7800.000
G1 X6.308 Y5.687 F360.000 E2.20374
G1 X5.887 Y5.687 F7800.000
G1 X5.870 Y5.670 F360.000 E2.20408
G1 F1800.000 E1.20408
G92 E0
G1 X5.711 Y-6.096 F7800.000
G1 F1800.000 E1.00000
G1 X5.711 Y-25.360 F540.000 E1.52409
G1 X18.289 Y-25.360 E1.86631
G1 X18.289 Y-6.096 E2.39040
G1 X5.798 Y-6.096 E2.73026
G1 X6.000 Y-6.597 F7800.000
G1 X5.132 Y-5.839
G1 X3.868 Y-5.839 F540.000 E2.76466
