; generated by Slic3r 0.9.10b on 2013-12-10 at 08:26:40

; layer_height = 0.3
; perimeters = 2
; top_solid_layers = 3
; bottom_solid_layers = 3
; fill_density = 0.4
; perimeter_speed = 30
; infill_speed = 60
; travel_speed = 130
; nozzle_diameter = 0.5
; filament_diameter = 2.85
; extrusion_multiplier = 1
; perimeters extrusion width = 0.70mm
; infill extrusion width = 0.70mm
; solid infill extrusion width = 0.70mm
; top infill extrusion width = 0.70mm
; first layer extrusion width = 0.60mm

G21 ; set units to millimeters
M107
M104 S0
M83
M140 S70
G28
G1Y98F9000
M190 S70
G1X5Y98Z150F9000
M104 S210
G1X5Y98Z1F9000
G1Z0.05
M109 S210
G1Z5
G1X15
;G1E5F50
G90 ; use absolute coordinates
G92 E0
M82 ; use absolute distances for extrusion
G1 F1800.000 E-1.00000
G92 E0
G1 Z0.300 F7800.000
G1 X-21.673 Y33.064
G1 F1800.000 E1.00000
G1 X-22.973 Y32.934 F540.000 E1.03555
G1 X-24.213 Y32.554 E1.07083
G1 X-25.363 Y31.934 E1.10637
G1 X-48.023 Y16.594 E1.85086
G1 X-49.003 Y15.774 E1.88562
G1 X-49.813 Y14.774 E1.92064
G1 X-50.413 Y13.644 E1.95544
G1 X-50.783 Y12.424 E1.99013
G1 X-50.913 Y11.144 E2.02513
G1 X-50.913 Y-10.366 E2.61035
G1 X-50.723 Y-11.916 E2.65283
G1 X-50.183 Y-13.386 E2.69544
G1 X-49.303 Y-14.676 E2.73793
G1 X-48.143 Y-15.726 E2.78049
G1 X-25.483 Y-31.846 E3.53708
G1 X-24.313 Y-32.516 E3.57376
G1 X-23.023 Y-32.926 E3.61059
G1 X-21.673 Y-33.066 E3.64751
G1 X44.327 Y-33.066 E5.44315
G1 X45.607 Y-32.936 E5.47815
G1 X46.847 Y-32.566 E5.51336
G1 X47.977 Y-31.956 E5.54830
G1 X48.977 Y-31.136 E5.58348
G1 X49.797 Y-30.136 E5.61867
G1 X50.407 Y-29.006 E5.65360
G1 X50.777 Y-27.766 E5.68881
G1 X50.907 Y-26.486 E5.72381
G1 X50.907 Y26.484 E7.16495
G1 X50.777 Y27.764 E7.19995
G1 X50.407 Y29.004 E7.23516
G1 X49.797 Y30.134 E7.27009
G1 X48.977 Y31.134 E7.30528
G1 X47.977 Y31.954 E7.34046
G1 X46.847 Y32.564 E7.37540
G1 X45.607 Y32.934 E7.41061
G1 X44.327 Y33.064 E7.44561
G1 X-21.587 Y33.064 E9.23889
G1 F1800.000 E8.23889
G92 E0
G1 X25.554 Y-4.524 F7800.000
G1 F1800.000 E1.00000
G1 X25.466 Y-4.736 F540.000 E1.00626
G1 X25.466 Y-26.719 E1.60435
G1 X25.554 Y-26.932 E1.61061
G1 X25.886 Y-27.264 E1.62339
G1 X26.098 Y-27.352 E1.62965
G1 X44.568 Y-27.352 E2.13215
G1 X44.781 Y-27.264 E2.13841
G1 X45.113 Y-26.932 E2.15119
G1 X45.201 Y-26.719 E2.15746
G1 X45.201 Y-4.736 E2.75554
G1 X45.113 Y-4.524 E2.76180
G1 X44.781 Y-4.192 E2.77458
G1 X44.568 Y-4.103 E2.78085
G1 X26.098 Y-4.103 E3.28335
G1 X25.886 Y-4.192 E3.28961
G1 X25.615 Y-4.462 E3.30003
G1 X26.044 Y-5.021 F7800.000
G1 X26.044 Y-26.435 F540.000 E3.88263
G1 X26.383 Y-26.774 E3.89567
G1 X44.284 Y-26.774 E4.38269
G1 X44.623 Y-26.435 E4.39573
G1 X44.623 Y-5.021 E4.97833
G1 X44.284 Y-4.682 E4.99137
G1 X26.383 Y-4.682 E5.47839
G1 X26.105 Y-4.960 E5.48907
G1 F1800.000 E4.48907
G92 E0
G1 X21.201 Y-4.736 F7800.000
G1 F1800.000 E1.00000
G1 X21.113 Y-4.524 F540.000 E1.00626
G1 X20.781 Y-4.192 E1.01904
G1 X20.568 Y-4.103 E1.02531
G1 X2.098 Y-4.103 E1.52781
G1 X1.886 Y-4.192 E1.53407
G1 X1.554 Y-4.524 E1.54685
G1 X1.466 Y-4.736 E1.55311
G1 X1.466 Y-26.719 E2.15119
G1 X1.554 Y-26.932 E2.15746
G1 X1.886 Y-27.264 E2.17024
G1 X2.098 Y-27.352 E2.17650
G1 X20.568 Y-27.352 E2.67900
G1 X20.781 Y-27.264 E2.68526
G1 X21.113 Y-26.932 E2.69804
G1 X21.201 Y-26.719 E2.70431
G1 X21.201 Y-4.823 E3.30003
G1 X20.623 Y-5.021 F7800.000
G1 X20.284 Y-4.682 F540.000 E3.31307
G1 X3.178 Y-4.682 E3.77847
G1 X2.383 Y-4.682 E3.80009
G1 X2.044 Y-5.021 E3.81313
G1 X2.044 Y-26.435 E4.39573
G1 X2.383 Y-26.774 E4.40877
G1 X20.284 Y-26.774 E4.89579
G1 X20.623 Y-26.435 E4.90883
G1 X20.623 Y-5.108 E5.48907
G1 F1800.000 E4.48907
G92 E0
G1 X-2.799 Y-4.736 F7800.000
G1 F1800.000 E1.00000
G1 X-2.887 Y-4.524 F540.000 E1.00626
G1 X-3.219 Y-4.192 E1.01904
G1 X-3.432 Y-4.103 E1.02531
G1 X-21.902 Y-4.103 E1.52781
G1 X-22.114 Y-4.192 E1.53407
G1 X-22.446 Y-4.524 E1.54685
G1 X-22.534 Y-4.736 E1.55311
G1 X-22.534 Y-26.719 E2.15119
G1 X-22.446 Y-26.932 E2.15746
G1 X-22.114 Y-27.264 E2.17024
G1 X-21.902 Y-27.352 E2.17650
G1 X-3.432 Y-27.352 E2.67900
G1 X-3.219 Y-27.264 E2.68526
G1 X-2.887 Y-26.932 E2.69804
G1 X-2.799 Y-26.719 E2.70431
G1 X-2.799 Y-4.823 E3.30003
G1 X-3.377 Y-5.021 F7800.000
G1 X-3.716 Y-4.682 F540.000 E3.31307
G1 X-20.822 Y-4.682 E3.77847
G1 X-21.617 Y-4.682 E3.80009
G1 X-21.956 Y-5.021 E3.81313
G1 X-21.956 Y-26.435 E4.39573
G1 X-21.617 Y-26.774 E4.40877
G1 X-3.716 Y-26.774 E4.89579
G1 X-3.377 Y-26.435 E4.90883
G1 X-3.377 Y-5.108 E5.48907
G1 F1800.000 E4.48907
G92 E0
G1 X-25.466 Y-10.597 F7800.000
G1 F1800.000 E1.00000
G1 X-25.466 Y11.386 F540.000 E1.59808
G1 X-25.554 Y11.599 E1.60435
G1 X-25.886 Y11.931 E1.61713
G1 X-26.098 Y12.019 E1.62339
G1 X-44.568 Y12.019 E2.12589
G1 X-44.781 Y11.931 E2.13215
G1 X-45.113 Y11.599 E2.14493
G1 X-45.201 Y11.386 E2.15119
G1 X-45.201 Y-10.597 E2.74928
G1 X-45.113 Y-10.810 E2.75554
G1 X-44.781 Y-11.142 E2.76832
G1 X-44.568 Y-11.230 E2.77458
G1 X-26.098 Y-11.230 E3.27708
G1 X-25.886 Y-11.142 E3.28335
G1 X-25.554 Y-10.810 E3.29613
G1 X-25.499 Y-10.677 E3.30003
G1 X-26.044 Y-10.312 F7800.000
G1 X-26.044 Y11.102 F540.000 E3.88263
G1 X-26.383 Y11.440 E3.89567
G1 X-44.284 Y11.440 E4.38269
G1 X-44.623 Y11.102 E4.39573
G1 X-44.623 Y-10.312 E4.97833
G1 X-44.284 Y-10.651 E4.99137
G1 X-26.383 Y-10.651 E5.47839
G1 X-26.105 Y-10.374 E5.48907
G1 F1800.000 E4.48907
G92 E0
G1 X-21.902 Y4.103 F7800.000
G1 F1800.000 E1.00000
G1 X-3.432 Y4.103 F540.000 E1.50250
G1 X-3.219 Y4.192 E1.50876
G1 X-2.887 Y4.524 E1.52154
G1 X-2.799 Y4.736 E1.52781
G1 X-2.799 Y26.719 E2.12589
G1 X-2.887 Y26.932 E2.13215
G1 X-3.219 Y27.264 E2.14493
G1 X-3.432 Y27.352 E2.15119
G1 X-21.902 Y27.352 E2.65370
G1 X-22.114 Y27.264 E2.65996
G1 X-22.446 Y26.932 E2.67274
G1 X-22.534 Y26.719 E2.67900
G1 X-22.534 Y4.736 E3.27708
G1 X-22.446 Y4.524 E3.28335
G1 X-22.114 Y4.192 E3.29613
G1 X-21.982 Y4.137 E3.30003
G1 X-21.617 Y4.682 F7800.000
G1 X-3.716 Y4.682 F540.000 E3.78705
G1 X-3.377 Y5.021 E3.80009
G1 X-3.377 Y26.435 E4.38269
G1 X-3.716 Y26.774 E4.39573
G1 X-21.617 Y26.774 E4.88275
G1 X-21.956 Y26.435 E4.89579
G1 X-21.956 Y5.021 E5.47839
G1 X-21.678 Y4.743 E5.48907
G1 F1800.000 E4.48907
G92 E0
G1 X1.466 Y4.736 F7800.000
G1 F1800.000 E1.00000
G1 X1.554 Y4.524 F540.000 E1.00626
G1 X1.886 Y4.192 E1.01904
G1 X2.098 Y4.103 E1.02531
G1 X20.568 Y4.103 E1.52781
G1 X20.781 Y4.192 E1.53407
G1 X21.113 Y4.524 E1.54685
G1 X21.201 Y4.736 E1.55311
G1 X21.201 Y26.719 E2.15119
G1 X21.113 Y26.932 E2.15746
G1 X20.781 Y27.264 E2.17024
G1 X20.568 Y27.352 E2.17650
G1 X2.098 Y27.352 E2.67900
G1 X1.886 Y27.264 E2.68526
G1 X1.554 Y26.932 E2.69804
G1 X1.466 Y26.719 E2.70431
G1 X1.466 Y4.823 E3.30003
G1 X2.044 Y5.021 F7800.000
G1 X2.383 Y4.682 F540.000 E3.31307
G1 X20.284 Y4.682 E3.80009
G1 X20.623 Y5.021 E3.81313
G1 X20.623 Y26.435 E4.39573
G1 X20.284 Y26.774 E4.40877
G1 X2.383 Y26.774 E4.89579
G1 X2.044 Y26.435 E4.90883
G1 X2.044 Y5.108 E5.48907
G1 F1800.000 E4.48907
G92 E0
G1 X25.466 Y4.736 F7800.000
G1 F1800.000 E1.00000
G1 X25.554 Y4.524 F540.000 E1.00626
G1 X25.886 Y4.192 E1.01904
G1 X26.098 Y4.103 E1.02531
G1 X44.568 Y4.103 E1.52781
G1 X44.781 Y4.192 E1.53407
G1 X45.113 Y4.524 E1.54685
G1 X45.201 Y4.736 E1.55311
G1 X45.201 Y26.719 E2.15119
G1 X45.113 Y26.932 E2.15746
G1 X44.781 Y27.264 E2.17024
G1 X44.568 Y27.352 E2.17650
G1 X26.098 Y27.352 E2.67900
G1 X25.886 Y27.264 E2.68526
G1 X25.554 Y26.932 E2.69804
G1 X25.466 Y26.719 E2.70431
G1 X25.466 Y4.823 E3.30003
G1 X26.044 Y5.021 F7800.000
G1 X26.383 Y4.682 F540.000 E3.31307
G1 X44.284 Y4.682 E3.80009
G1 X44.623 Y5.021 E3.81313
G1 X44.623 Y26.435 E4.39573
G1 X44.284 Y26.774 E4.40877
G1 X26.383 Y26.774 E4.89579
G1 X26.044 Y26.435 E4.90883
G1 X26.044 Y5.108 E5.48907
G1 F1800.000 E4.48907
G92 E0
G1 X-3.956 Y5.261 F7800.000
G1 F1800.000 E1.00000
G1 X-3.956 Y26.195 F540.000 E1.56956
G1 X-21.377 Y26.195 E2.04354
G1 X-21.377 Y5.261 E2.61310
G1 X-4.043 Y5.261 E3.08472
G1 X-4.245 Y5.762 F7800.000
G1 X-5.799 Y25.617
G1 X-5.799 Y5.839 F540.000 E3.62280
G1 X-4.534 Y5.839 E3.65720
G1 X-4.534 Y25.617 E4.19528
G1 X-5.712 Y25.617 E4.22732
G1 X-20.799 Y25.617 F7800.000
G1 X-20.799 Y5.839 F540.000 E4.76540
G1 X-19.534 Y5.839 E4.79980
G1 X-19.534 Y25.617 E5.33789
G1 X-20.712 Y25.617 E5.36992
G1 X-18.956 Y25.360 F7800.000
G1 X-18.956 Y6.096 F540.000 E5.89402
G1 X-6.377 Y6.096 E6.23624
G1 X-6.377 Y25.360 E6.76033
G1 X-18.869 Y25.360 E7.10019
G1 X-18.667 Y24.859 F7800.000
G1 X-20.124 Y24.974
G1 X-20.210 Y24.888 F360.000 E7.10350
G1 X-20.124 Y24.155 E7.12362
G1 X-20.210 Y24.069 E7.12694
G1 X-20.124 Y23.335 E7.14706
G1 X-20.210 Y23.249 E7.15037
G1 X-20.124 Y22.516 E7.17049
G1 X-20.210 Y22.430 E7.17381
G1 X-20.124 Y21.696 E7.19393
G1 X-20.210 Y21.610 E7.19724
G1 X-20.124 Y20.877 E7.21736
G1 X-20.210 Y20.791 E7.22068
G1 X-20.124 Y20.058 E7.24080
G1 X-20.210 Y19.972 E7.24411
G1 X-20.124 Y19.238 E7.26423
G1 X-20.210 Y19.152 E7.26755
G1 X-20.124 Y18.419 E7.28767
G1 X-20.210 Y18.333 E7.29099
G1 X-20.124 Y17.599 E7.31110
G1 X-20.210 Y17.513 E7.31442
G1 X-20.124 Y16.780 E7.33454
G1 X-20.210 Y16.694 E7.33786
G1 X-20.124 Y15.961 E7.35798
G1 X-20.210 Y15.875 E7.36129
G1 X-20.124 Y15.141 E7.38141
G1 X-20.210 Y15.055 E7.38473
G1 X-20.124 Y14.322 E7.40485
G1 X-20.210 Y14.236 E7.40816
G1 X-20.124 Y13.502 E7.42828
G1 X-20.210 Y13.416 E7.43160
G1 X-20.124 Y12.683 E7.45172
G1 X-20.210 Y12.597 E7.45503
G1 X-20.124 Y11.864 E7.47515
G1 X-20.210 Y11.778 E7.47847
G1 X-20.124 Y11.044 E7.49859
G1 X-20.210 Y10.958 E7.50190
G1 X-20.124 Y10.225 E7.52202
G1 X-20.210 Y10.139 E7.52534
G1 X-20.124 Y9.405 E7.54546
G1 X-20.210 Y9.319 E7.54877
G1 X-20.124 Y8.586 E7.56889
G1 X-20.210 Y8.500 E7.57221
G1 X-20.124 Y7.766 E7.59233
G1 X-20.210 Y7.680 E7.59564
G1 X-20.124 Y6.947 E7.61576
G1 X-20.210 Y6.861 E7.61908
G1 X-18.885 Y25.786 F7800.000
G1 X-18.902 Y25.769 F360.000 E7.61942
G1 X-18.482 Y25.769 E7.62531
G1 X-18.464 Y25.786 E7.62566
G1 X-18.061 Y25.769 E7.63131
G1 X-18.043 Y25.786 E7.63165
G1 X-17.640 Y25.769 E7.63731
G1 X-17.622 Y25.786 E7.63765
G1 X-17.219 Y25.769 E7.64331
G1 X-17.201 Y25.786 E7.64365
G1 X-16.798 Y25.769 E7.64930
G1 X-16.781 Y25.786 E7.64964
G1 X-16.377 Y25.769 E7.65530
G1 X-16.360 Y25.786 E7.65564
G1 X-15.956 Y25.769 E7.66130
G1 X-15.939 Y25.786 E7.66164
G1 X-15.535 Y25.769 E7.66729
G1 X-15.518 Y25.786 E7.66764
G1 X-15.114 Y25.769 E7.67329
G1 X-15.097 Y25.786 E7.67363
G1 X-14.693 Y25.769 E7.67929
G1 X-14.676 Y25.786 E7.67963
G1 X-14.272 Y25.769 E7.68529
G1 X-14.255 Y25.786 E7.68563
G1 X-13.851 Y25.769 E7.69128
G1 X-13.834 Y25.786 E7.69162
G1 X-13.430 Y25.769 E7.69728
G1 X-13.413 Y25.786 E7.69762
G1 X-13.009 Y25.769 E7.70328
G1 X-12.992 Y25.786 E7.70362
G1 X-12.588 Y25.769 E7.70927
G1 X-12.571 Y25.786 E7.70962
G1 X-12.168 Y25.769 E7.71527
G1 X-12.150 Y25.786 E7.71561
G1 X-11.747 Y25.769 E7.72127
G1 X-11.729 Y25.786 E7.72161
G1 X-11.326 Y25.769 E7.72727
G1 X-11.308 Y25.786 E7.72761
G1 X-10.905 Y25.769 E7.73326
G1 X-10.887 Y25.786 E7.73360
G1 X-10.484 Y25.769 E7.73926
G1 X-10.467 Y25.786 E7.73960
G1 X-10.063 Y25.769 E7.74526
G1 X-10.046 Y25.786 E7.74560
G1 X-9.642 Y25.769 E7.75125
G1 X-9.625 Y25.786 E7.75160
G1 X-9.221 Y25.769 E7.75725
G1 X-9.204 Y25.786 E7.75759
G1 X-8.800 Y25.769 E7.76325
G1 X-8.783 Y25.786 E7.76359
G1 X-8.379 Y25.769 E7.76925
G1 X-8.362 Y25.786 E7.76959
G1 X-7.958 Y25.769 E7.77524
G1 X-7.941 Y25.786 E7.77558
G1 X-7.537 Y25.769 E7.78124
G1 X-7.520 Y25.786 E7.78158
G1 X-6.275 Y25.769 E7.79902
G1 X-6.257 Y25.786 E7.79936
G1 X-5.124 Y24.405 F7800.000
G1 X-5.210 Y24.319 F360.000 E7.80267
G1 X-5.124 Y23.586 E7.82276
G1 X-5.210 Y23.500 E7.82607
G1 X-5.124 Y22.766 E7.84616
G1 X-5.210 Y22.680 E7.84947
G1 X-5.124 Y21.947 E7.86956
G1 X-5.210 Y21.861 E7.87287
G1 X-5.124 Y21.128 E7.89296
G1 X-5.210 Y21.042 E7.89627
G1 X-5.124 Y20.308 E7.91636
G1 X-5.210 Y20.222 E7.91967
G1 X-5.124 Y19.489 E7.93976
G1 X-5.210 Y19.403 E7.94307
G1 X-5.124 Y18.669 E7.96316
G1 X-5.210 Y18.583 E7.96647
G1 X-5.124 Y17.850 E7.98656
G1 X-5.210 Y17.764 E7.98987
G1 X-5.124 Y17.031 E8.00996
G1 X-5.210 Y16.945 E8.01327
G1 X-5.124 Y16.211 E8.03336
G1 X-5.210 Y16.125 E8.03667
G1 X-5.124 Y15.392 E8.05676
G1 X-5.210 Y15.306 E8.06007
G1 X-5.124 Y14.572 E8.08016
G1 X-5.210 Y14.486 E8.08347
G1 X-5.124 Y13.753 E8.10356
G1 X-5.210 Y13.667 E8.10687
G1 X-5.124 Y12.934 E8.12696
G1 X-5.210 Y12.848 E8.13027
G1 X-5.124 Y12.114 E8.15036
G1 X-5.210 Y12.028 E8.15367
G1 X-5.124 Y11.295 E8.17376
G1 X-5.210 Y11.209 E8.17707
G1 X-5.124 Y10.475 E8.19716
G1 X-5.210 Y10.389 E8.20047
G1 X-5.124 Y9.656 E8.22056
G1 X-5.210 Y9.570 E8.22387
G1 X-5.124 Y8.836 E8.24396
G1 X-5.210 Y8.750 E8.24727
G1 X-5.124 Y8.017 E8.26736
G1 X-5.210 Y7.931 E8.27067
G1 X-5.124 Y7.198 E8.29076
G1 X-5.210 Y7.112 E8.29407
G1 X-6.590 Y5.670 F7800.000
G1 X-6.573 Y5.687 F360.000 E8.29441
G1 X-7.011 Y5.670 F7800.000
G1 X-6.993 Y5.687 F360.000 E8.29475
G1 X-7.432 Y5.670 F7800.000
G1 X-7.414 Y5.687 F360.000 E8.29509
G1 X-7.853 Y5.670 F7800.000
G1 X-7.835 Y5.687 F360.000 E8.29543
G1 X-8.274 Y5.670 F7800.000
G1 X-8.256 Y5.687 F360.000 E8.29577
G1 X-8.694 Y5.670 F7800.000
G1 X-8.677 Y5.687 F360.000 E8.29611
G1 X-9.115 Y5.670 F7800.000
G1 X-9.098 Y5.687 F360.000 E8.29645
G1 X-9.536 Y5.670 F7800.000
G1 X-9.519 Y5.687 F360.000 E8.29679
G1 X-9.957 Y5.670 F7800.000
G1 X-9.940 Y5.687 F360.000 E8.29713
G1 X-10.378 Y5.670 F7800.000
G1 X-10.361 Y5.687 F360.000 E8.29747
G1 X-10.799 Y5.670 F7800.000
G1 X-10.782 Y5.687 F360.000 E8.29781
G1 X-11.220 Y5.670 F7800.000
G1 X-11.203 Y5.687 F360.000 E8.29815
G1 X-11.641 Y5.670 F7800.000
G1 X-11.624 Y5.687 F360.000 E8.29849
G1 X-12.062 Y5.670 F7800.000
G1 X-12.045 Y5.687 F360.000 E8.29883
G1 X-12.483 Y5.670 F7800.000
G1 X-12.466 Y5.687 F360.000 E8.29917
G1 X-12.904 Y5.670 F7800.000
G1 X-12.887 Y5.687 F360.000 E8.29951
G1 X-13.325 Y5.670 F7800.000
G1 X-13.307 Y5.687 F360.000 E8.29985
G1 X-13.746 Y5.670 F7800.000
G1 X-13.728 Y5.687 F360.000 E8.30019
G1 X-14.167 Y5.670 F7800.000
G1 X-14.149 Y5.687 F360.000 E8.30053
G1 X-14.588 Y5.670 F7800.000
G1 X-14.570 Y5.687 F360.000 E8.30087
G1 X-15.008 Y5.670 F7800.000
G1 X-14.991 Y5.687 F360.000 E8.30121
G1 X-15.429 Y5.670 F7800.000
G1 X-15.412 Y5.687 F360.000 E8.30155
G1 X-15.850 Y5.670 F7800.000
G1 X-15.833 Y5.687 F360.000 E8.30189
G1 X-16.271 Y5.670 F7800.000
G1 X-16.254 Y5.687 F360.000 E8.30223
G1 X-16.692 Y5.670 F7800.000
G1 X-16.675 Y5.687 F360.000 E8.30257
G1 X-17.113 Y5.670 F7800.000
G1 X-17.096 Y5.687 F360.000 E8.30291
G1 X-17.534 Y5.670 F7800.000
G1 X-17.517 Y5.687 F360.000 E8.30325
G1 X-17.955 Y5.670 F7800.000
G1 X-17.938 Y5.687 F360.000 E8.30359
G1 X-18.376 Y5.670 F7800.000
G1 X-18.359 Y5.687 F360.000 E8.30393
G1 X-18.780 Y5.687 F7800.000
G1 X-18.797 Y5.670 F360.000 E8.30427
G1 F1800.000 E7.30427
G92 E0
G1 X2.623 Y5.261 F7800.000
G1 F1800.000 E1.00000
G1 X20.044 Y5.261 F540.000 E1.47398
G1 X20.044 Y26.195 E2.04354
G1 X2.623 Y26.195 E2.51752
G1 X2.623 Y5.347 E3.08472
G1 X3.124 Y5.550 F7800.000
G1 X18.201 Y5.839
G1 X19.466 Y5.839 F540.000 E3.11912
G1 X19.466 Y25.617 E3.65720
G1 X18.201 Y25.617 E3.69160
G1 X18.201 Y5.926 E4.22732
G1 X4.466 Y5.839 F7800.000
G1 X4.466 Y25.617 F540.000 E4.76540
G1 X3.201 Y25.617 E4.79980
G1 X3.201 Y5.839 E5.33789
G1 X4.379 Y5.839 E5.36992
G1 X5.044 Y6.096 F7800.000
G1 X17.623 Y6.096 F540.000 E5.71214
G1 X17.623 Y25.360 E6.23624
G1 X5.044 Y25.360 E6.57846
G1 X5.044 Y6.183 E7.10019
G1 X5.545 Y6.385 F7800.000
G1 F1800.000 E6.10019
G92 E0
G1 X3.876 Y24.974 F7800.000
G1 F1800.000 E1.00000
G1 X3.790 Y24.888 F360.000 E1.00332
G1 X3.876 Y24.155 E1.02344
G1 X3.790 Y24.069 E1.02675
G1 X3.876 Y23.335 E1.04687
G1 X3.790 Y23.249 E1.05019
G1 X3.876 Y22.516 E1.07031
G1 X3.790 Y22.430 E1.07362
G1 X3.876 Y21.696 E1.09374
G1 X3.790 Y21.610 E1.09706
G1 X3.876 Y20.877 E1.11718
G1 X3.790 Y20.791 E1.12049
G1 X3.876 Y20.058 E1.14061
G1 X3.790 Y19.972 E1.14393
G1 X3.876 Y19.238 E1.16405
G1 X3.790 Y19.152 E1.16736
G1 X3.876 Y18.419 E1.18748
G1 X3.790 Y18.333 E1.19080
G1 X3.876 Y17.599 E1.21092
G1 X3.790 Y17.513 E1.21423
G1 X3.876 Y16.780 E1.23435
G1 X3.790 Y16.694 E1.23767
G1 X3.876 Y15.961 E1.25779
G1 X3.790 Y15.875 E1.26110
G1 X3.876 Y15.141 E1.28122
G1 X3.790 Y15.055 E1.28454
G1 X3.876 Y14.322 E1.30466
G1 X3.790 Y14.236 E1.30797
