; generated by Slic3r 0.9.10b on 2013-12-01 at 11:04:33

; layer_height = 0.3
; perimeters = 2
; top_solid_layers = 3
; bottom_solid_layers = 3
; fill_density = 0.4
; perimeter_speed = 30
; infill_speed = 60
; travel_speed = 130
; nozzle_diameter = 0.5
; filament_diameter = 2.85
; extrusion_multiplier = 1
; perimeters extrusion width = 0.70mm
; infill extrusion width = 0.70mm
; solid infill extrusion width = 0.70mm
; top infill extrusion width = 0.70mm
; first layer extrusion width = 0.60mm

G21 ; set units to millimeters
M107
M104 S0
M83
M140 S70
G28
G1Y98F9000
M190 S70
G1X5Y98Z150F9000
M104 S210
G1X5Y98Z1F9000
G1Z0.05
M109 S210
G1Z5
G1X15
;G1E5F50
G90 ; use absolute coordinates
G92 E0
M82 ; use absolute distances for extrusion
G1 F1800.000 E-1.00000
G92 E0
G1 Z0.300 F7800.000
G1 X-33.000 Y33.064
G1 F1800.000 E1.00000
G1 X-34.280 Y32.934 F540.000 E1.03500
G1 X-35.520 Y32.564 E1.07021
G1 X-36.650 Y31.954 E1.10515
G1 X-37.650 Y31.134 E1.14033
G1 X-38.470 Y30.134 E1.17551
G1 X-39.080 Y29.004 E1.21045
G1 X-39.450 Y27.764 E1.24566
G1 X-39.580 Y26.484 E1.28066
G1 X-39.580 Y-26.486 E2.72180
G1 X-39.450 Y-27.766 E2.75680
G1 X-39.080 Y-29.006 E2.79201
G1 X-38.470 Y-30.136 E2.82694
G1 X-37.650 Y-31.136 E2.86213
G1 X-36.650 Y-31.956 E2.89731
G1 X-35.520 Y-32.566 E2.93225
G1 X-34.280 Y-32.936 E2.96745
G1 X-33.000 Y-33.066 E3.00246
G1 X33.000 Y-33.066 E4.79810
G1 X34.280 Y-32.936 E4.83310
G1 X35.520 Y-32.566 E4.86831
G1 X36.650 Y-31.956 E4.90324
G1 X37.650 Y-31.136 E4.93843
G1 X38.470 Y-30.136 E4.97361
G1 X39.080 Y-29.006 E5.00855
G1 X39.450 Y-27.766 E5.04375
G1 X39.580 Y-26.486 E5.07876
G1 X39.580 Y26.484 E6.51989
G1 X39.450 Y27.764 E6.55490
G1 X39.080 Y29.004 E6.59010
G1 X38.470 Y30.134 E6.62504
G1 X37.650 Y31.134 E6.66022
G1 X36.650 Y31.954 E6.69541
G1 X35.520 Y32.564 E6.73034
G1 X34.280 Y32.934 E6.76555
G1 X33.000 Y33.064 E6.80055
G1 X-32.913 Y33.064 E8.59383
G1 F1800.000 E7.59383
G92 E0
G1 X-30.289 Y25.360 F7800.000
G1 F1800.000 E1.00000
G1 X-30.289 Y6.096 F540.000 E1.52409
G1 X-17.711 Y6.096 E1.86631
G1 X-17.711 Y25.360 E2.39040
G1 X-30.202 Y25.360 E2.73026
G1 X-30.000 Y24.859 F7800.000
G1 X-32.132 Y25.617
G1 X-32.132 Y5.839 F540.000 E3.26835
G1 X-30.868 Y5.839 E3.30274
G1 X-30.868 Y25.617 E3.84083
G1 X-32.045 Y25.617 E3.87287
G1 X-15.868 Y25.617 F7800.000
G1 X-17.132 Y25.617 F540.000 E3.90726
G1 X-17.132 Y5.839 E4.44535
G1 X-15.868 Y5.839 E4.47975
G1 X-15.868 Y25.530 E5.01547
G1 X-15.289 Y26.195 F7800.000
G1 X-32.711 Y26.195 F540.000 E5.48945
G1 X-32.711 Y5.261 E6.05901
G1 X-15.289 Y5.261 E6.53299
G1 X-15.289 Y26.108 E7.10019
G1 X-15.790 Y25.906 F7800.000
G1 F1800.000 E6.10019
G92 E0
G1 X-31.457 Y24.974 F7800.000
G1 F1800.000 E1.00000
G1 X-31.543 Y24.888 F360.000 E1.00332
G1 X-31.457 Y24.155 E1.02344
G1 X-31.543 Y24.069 E1.02675
G1 X-31.457 Y23.335 E1.04687
G1 X-31.543 Y23.249 E1.05019
G1 X-31.457 Y22.516 E1.07031
G1 X-31.543 Y22.430 E1.07362
G1 X-31.457 Y21.696 E1.09374
G1 X-31.543 Y21.610 E1.09706
G1 X-31.457 Y20.877 E1.11718
G1 X-31.543 Y20.791 E1.12049
G1 X-31.457 Y20.058 E1.14061
G1 X-31.543 Y19.972 E1.14393
G1 X-31.457 Y19.238 E1.16405
G1 X-31.543 Y19.152 E1.16736
G1 X-31.457 Y18.419 E1.18748
G1 X-31.543 Y18.333 E1.19080
G1 X-31.457 Y17.599 E1.21092
G1 X-31.543 Y17.513 E1.21423
G1 X-31.457 Y16.780 E1.23435
G1 X-31.543 Y16.694 E1.23767
G1 X-31.457 Y15.961 E1.25779
G1 X-31.543 Y15.875 E1.26110
G1 X-31.457 Y15.141 E1.28122
G1 X-31.543 Y15.055 E1.28454
G1 X-31.457 Y14.322 E1.30466
G1 X-31.543 Y14.236 E1.30797
G1 X-31.457 Y13.502 E1.32809
G1 X-31.543 Y13.416 E1.33141
G1 X-31.457 Y12.683 E1.35153
G1 X-31.543 Y12.597 E1.35484
G1 X-31.457 Y11.864 E1.37496
G1 X-31.543 Y11.778 E1.37828
G1 X-31.457 Y11.044 E1.39840
G1 X-31.543 Y10.958 E1.40171
G1 X-31.457 Y10.225 E1.42183
G1 X-31.543 Y10.139 E1.42515
G1 X-31.457 Y9.405 E1.44527
G1 X-31.543 Y9.319 E1.44859
G1 X-31.457 Y8.586 E1.46870
G1 X-31.543 Y8.500 E1.47202
G1 X-31.457 Y7.766 E1.49214
G1 X-31.543 Y7.680 E1.49546
G1 X-31.457 Y6.947 E1.51558
G1 X-31.543 Y6.861 E1.51889
G1 X-30.219 Y25.786 F7800.000
G1 X-30.236 Y25.769 F360.000 E1.51923
G1 X-29.815 Y25.769 E1.52513
G1 X-29.798 Y25.786 E1.52547
G1 X-29.394 Y25.769 E1.53112
G1 X-29.377 Y25.786 E1.53147
G1 X-28.973 Y25.769 E1.53712
G1 X-28.956 Y25.786 E1.53746
G1 X-28.552 Y25.769 E1.54312
G1 X-28.535 Y25.786 E1.54346
G1 X-28.131 Y25.769 E1.54911
G1 X-28.114 Y25.786 E1.54946
G1 X-27.710 Y25.769 E1.55511
G1 X-27.693 Y25.786 E1.55545
G1 X-27.289 Y25.769 E1.56111
G1 X-27.272 Y25.786 E1.56145
G1 X-26.868 Y25.769 E1.56711
G1 X-26.851 Y25.786 E1.56745
G1 X-26.447 Y25.769 E1.57310
G1 X-26.430 Y25.786 E1.57345
G1 X-26.026 Y25.769 E1.57910
G1 X-26.009 Y25.786 E1.57944
G1 X-25.606 Y25.769 E1.58510
G1 X-25.588 Y25.786 E1.58544
G1 X-25.185 Y25.769 E1.59110
G1 X-25.167 Y25.786 E1.59144
G1 X-24.764 Y25.769 E1.59709
G1 X-24.746 Y25.786 E1.59743
G1 X-24.343 Y25.769 E1.60309
G1 X-24.325 Y25.786 E1.60343
G1 X-23.922 Y25.769 E1.60909
G1 X-23.905 Y25.786 E1.60943
G1 X-23.501 Y25.769 E1.61508
G1 X-23.484 Y25.786 E1.61543
G1 X-23.080 Y25.769 E1.62108
G1 X-23.063 Y25.786 E1.62142
G1 X-22.659 Y25.769 E1.62708
G1 X-22.642 Y25.786 E1.62742
G1 X-22.238 Y25.769 E1.63308
G1 X-22.221 Y25.786 E1.63342
G1 X-21.817 Y25.769 E1.63907
G1 X-21.800 Y25.786 E1.63941
G1 X-21.396 Y25.769 E1.64507
G1 X-21.379 Y25.786 E1.64541
G1 X-20.975 Y25.769 E1.65107
G1 X-20.958 Y25.786 E1.65141
G1 X-20.554 Y25.769 E1.65706
G1 X-20.537 Y25.786 E1.65741
G1 X-20.133 Y25.769 E1.66306
G1 X-20.116 Y25.786 E1.66340
G1 X-19.713 Y25.769 E1.66906
G1 X-19.695 Y25.786 E1.66940
G1 X-19.292 Y25.769 E1.67506
G1 X-19.274 Y25.786 E1.67540
G1 X-18.871 Y25.769 E1.68105
G1 X-18.853 Y25.786 E1.68139
G1 X-17.608 Y25.769 E1.69883
G1 X-17.591 Y25.786 E1.69917
G1 X-16.457 Y24.405 F7800.000
G1 X-16.543 Y24.319 F360.000 E1.70248
G1 X-16.457 Y23.586 E1.72257
G1 X-16.543 Y23.500 E1.72588
G1 X-16.457 Y22.766 E1.74597
G1 X-16.543 Y22.680 E1.74928
G1 X-16.457 Y21.947 E1.76937
G1 X-16.543 Y21.861 E1.77268
G1 X-16.457 Y21.128 E1.79277
G1 X-16.543 Y21.042 E1.79608
G1 X-16.457 Y20.308 E1.81617
G1 X-16.543 Y20.222 E1.81948
G1 X-16.457 Y19.489 E1.83957
G1 X-16.543 Y19.403 E1.84288
G1 X-16.457 Y18.669 E1.86297
G1 X-16.543 Y18.583 E1.86628
G1 X-16.457 Y17.850 E1.88637
G1 X-16.543 Y17.764 E1.88968
G1 X-16.457 Y17.031 E1.90977
G1 X-16.543 Y16.945 E1.91308
G1 X-16.457 Y16.211 E1.93317
G1 X-16.543 Y16.125 E1.93648
G1 X-16.457 Y15.392 E1.95657
G1 X-16.543 Y15.306 E1.95988
G1 X-16.457 Y14.572 E1.97997
G1 X-16.543 Y14.486 E1.98328
G1 X-16.457 Y13.753 E2.00337
G1 X-16.543 Y13.667 E2.00668
G1 X-16.457 Y12.934 E2.02677
G1 X-16.543 Y12.848 E2.03008
G1 X-16.457 Y12.114 E2.05017
G1 X-16.543 Y12.028 E2.05348
G1 X-16.457 Y11.295 E2.07357
G1 X-16.543 Y11.209 E2.07688
G1 X-16.457 Y10.475 E2.09697
G1 X-16.543 Y10.389 E2.10028
G1 X-16.457 Y9.656 E2.12037
G1 X-16.543 Y9.570 E2.12368
G1 X-16.457 Y8.836 E2.14377
G1 X-16.543 Y8.750 E2.14708
G1 X-16.457 Y8.017 E2.16717
G1 X-16.543 Y7.931 E2.17048
G1 X-16.457 Y7.198 E2.19057
G1 X-16.543 Y7.112 E2.19388
G1 X-17.923 Y5.670 F7800.000
G1 X-17.906 Y5.687 F360.000 E2.19422
G1 X-18.344 Y5.670 F7800.000
G1 X-18.327 Y5.687 F360.000 E2.19456
G1 X-18.765 Y5.670 F7800.000
G1 X-18.748 Y5.687 F360.000 E2.19490
G1 X-19.186 Y5.670 F7800.000
G1 X-19.169 Y5.687 F360.000 E2.19524
G1 X-19.607 Y5.670 F7800.000
G1 X-19.590 Y5.687 F360.000 E2.19558
G1 X-20.028 Y5.670 F7800.000
G1 X-20.011 Y5.687 F360.000 E2.19592
G1 X-20.449 Y5.670 F7800.000
G1 X-20.431 Y5.687 F360.000 E2.19626
G1 X-20.870 Y5.670 F7800.000
G1 X-20.852 Y5.687 F360.000 E2.19660
G1 X-21.291 Y5.670 F7800.000
G1 X-21.273 Y5.687 F360.000 E2.19694
G1 X-21.712 Y5.670 F7800.000
G1 X-21.694 Y5.687 F360.000 E2.19728
G1 X-22.132 Y5.670 F7800.000
G1 X-22.115 Y5.687 F360.000 E2.19762
G1 X-22.553 Y5.670 F7800.000
G1 X-22.536 Y5.687 F360.000 E2.19796
G1 X-22.974 Y5.670 F7800.000
G1 X-22.957 Y5.687 F360.000 E2.19830
G1 X-23.395 Y5.670 F7800.000
G1 X-23.378 Y5.687 F360.000 E2.19864
G1 X-23.816 Y5.670 F7800.000
G1 X-23.799 Y5.687 F360.000 E2.19898
G1 X-24.237 Y5.670 F7800.000
G1 X-24.220 Y5.687 F360.000 E2.19932
G1 X-24.658 Y5.670 F7800.000
G1 X-24.641 Y5.687 F360.000 E2.19966
G1 X-25.079 Y5.670 F7800.000
G1 X-25.062 Y5.687 F360.000 E2.20000
G1 X-25.500 Y5.670 F7800.000
G1 X-25.483 Y5.687 F360.000 E2.20034
G1 X-25.921 Y5.670 F7800.000
G1 X-25.904 Y5.687 F360.000 E2.20068
G1 X-26.342 Y5.670 F7800.000
G1 X-26.325 Y5.687 F360.000 E2.20102
G1 X-26.763 Y5.670 F7800.000
G1 X-26.745 Y5.687 F360.000 E2.20136
G1 X-27.184 Y5.670 F7800.000
G1 X-27.166 Y5.687 F360.000 E2.20170
G1 X-27.605 Y5.670 F7800.000
G1 X-27.587 Y5.687 F360.000 E2.20204
G1 X-28.026 Y5.670 F7800.000
G1 X-28.008 Y5.687 F360.000 E2.20238
G1 X-28.446 Y5.670 F7800.000
G1 X-28.429 Y5.687 F360.000 E2.20272
G1 X-28.867 Y5.670 F7800.000
G1 X-28.850 Y5.687 F360.000 E2.20306
G1 X-29.288 Y5.670 F7800.000
G1 X-29.271 Y5.687 F360.000 E2.20340
G1 X-29.709 Y5.670 F7800.000
G1 X-29.692 Y5.687 F360.000 E2.20374
G1 X-30.113 Y5.687 F7800.000
G1 X-30.130 Y5.670 F360.000 E2.20408
G1 F1800.000 E1.20408
G92 E0
G1 X-6.289 Y6.096 F7800.000
G1 F1800.000 E1.00000
G1 X6.289 Y6.096 F540.000 E1.34222
G1 X6.289 Y25.360 E1.86631
G1 X-6.289 Y25.360 E2.20853
G1 X-6.289 Y6.183 E2.73026
G1 X-5.788 Y6.385 F7800.000
G1 F1800.000 E1.73026
G92 E0
G1 X-8.132 Y25.617 F7800.000
G1 F1800.000 E1.00000
G1 X-8.132 Y5.839 F540.000 E1.53808
G1 X-6.868 Y5.839 E1.57248
G1 X-6.868 Y25.617 E2.11056
G1 X-8.045 Y25.617 E2.14260
G1 X8.132 Y25.617 F7800.000
G1 X6.868 Y25.617 F540.000 E2.17700
G1 X6.868 Y5.839 E2.71508
G1 X8.132 Y5.839 E2.74948
G1 X8.132 Y25.530 E3.28520
G1 X8.711 Y26.195 F7800.000
G1 X-8.711 Y26.195 F540.000 E3.75918
G1 X-8.711 Y5.261 E4.32874
G1 X8.711 Y5.261 E4.80272
G1 X8.711 Y26.108 E5.36992
G1 X8.210 Y25.906 F7800.000
G1 F1800.000 E4.36992
G92 E0
G1 X-7.457 Y24.974 F7800.000
G1 F1800.000 E1.00000
G1 X-7.543 Y24.888 F360.000 E1.00332
G1 X-7.457 Y24.155 E1.02344
G1 X-7.543 Y24.069 E1.02675
G1 X-7.457 Y23.335 E1.04687
G1 X-7.543 Y23.249 E1.05019
G1 X-7.457 Y22.516 E1.07031
G1 X-7.543 Y22.430 E1.07362
G1 X-7.457 Y21.696 E1.09374
G1 X-7.543 Y21.610 E1.09706
G1 X-7.457 Y20.877 E1.11718
G1 X-7.543 Y20.791 E1.12049
G1 X-7.457 Y20.058 E1.14061
G1 X-7.543 Y19.972 E1.14393
G1 X-7.457 Y19.238 E1.16405
G1 X-7.543 Y19.152 E1.16736
G1 X-7.457 Y18.419 E1.18748
G1 X-7.543 Y18.333 E1.19080
G1 X-7.457 Y17.599 E1.21092
G1 X-7.543 Y17.513 E1.21423
G1 X-7.457 Y16.780 E1.23435
G1 X-7.543 Y16.694 E1.23767
G1 X-7.457 Y15.961 E1.25779
G1 X-7.543 Y15.875 E1.26110
G1 X-7.457 Y15.141 E1.28122
G1 X-7.543 Y15.055 E1.28454
G1 X-7.457 Y14.322 E1.30466
G1 X-7.543 Y14.236 E1.30797
G1 X-7.457 Y13.502 E1.32809
G1 X-7.543 Y13.416 E1.33141
G1 X-7.457 Y12.683 E1.35153
G1 X-7.543 Y12.597 E1.35484
G1 X-7.457 Y11.864 E1.37496
G1 X-7.543 Y11.778 E1.37828
G1 X-7.457 Y11.044 E1.39840
G1 X-7.543 Y10.958 E1.40171
G1 X-7.457 Y10.225 E1.42183
G1 X-7.543 Y10.139 E1.42515
G1 X-7.457 Y9.405 E1.44527
G1 X-7.543 Y9.319 E1.44859
G1 X-7.457 Y8.586 E1.46870
G1 X-7.543 Y8.500 E1.47202
G1 X-7.457 Y7.766 E1.49214
G1 X-7.543 Y7.680 E1.49546
G1 X-7.457 Y6.947 E1.51558
G1 X-7.543 Y6.861 E1.51889
G1 X-6.219 Y25.786 F7800.000
G1 X-6.236 Y25.769 F360.000 E1.51923
G1 X-5.815 Y25.769 E1.52513
G1 X-5.798 Y25.786 E1.52547
G1 X-5.394 Y25.769 E1.53112
G1 X-5.377 Y25.786 E1.53147
G1 X-4.973 Y25.769 E1.53712
G1 X-4.956 Y25.786 E1.53746
G1 X-4.552 Y25.769 E1.54312
G1 X-4.535 Y25.786 E1.54346
G1 X-4.131 Y25.769 E1.54911
G1 X-4.114 Y25.786 E1.54946
G1 X-3.710 Y25.769 E1.55511
G1 X-3.693 Y25.786 E1.55545
G1 X-3.289 Y25.769 E1.56111
G1 X-3.272 Y25.786 E1.56145
G1 X-2.868 Y25.769 E1.56711
G1 X-2.851 Y25.786 E1.56745
G1 X-2.447 Y25.769 E1.57310
G1 X-2.430 Y25.786 E1.57345
G1 X-2.026 Y25.769 E1.57910
G1 X-2.009 Y25.786 E1.57944
G1 X-1.606 Y25.769 E1.58510
G1 X-1.588 Y25.786 E1.58544
G1 X-1.185 Y25.769 E1.59110
G1 X-1.167 Y25.786 E1.59144
G1 X-0.764 Y25.769 E1.59709
G1 X-0.746 Y25.786 E1.59743
G1 X-0.343 Y25.769 E1.60309
G1 X-0.325 Y25.786 E1.60343
G1 X0.078 Y25.769 E1.60909
G1 X0.095 Y25.786 E1.60943
G1 X0.499 Y25.769 E1.61508
G1 X0.516 Y25.786 E1.61543
G1 X0.920 Y25.769 E1.62108
G1 X0.937 Y25.786 E1.62142
G1 X1.341 Y25.769 E1.62708
G1 X1.358 Y25.786 E1.62742
G1 X1.762 Y25.769 E1.63308
G1 X1.779 Y25.786 E1.63342
G1 X2.183 Y25.769 E1.63907
G1 X2.200 Y25.786 E1.63941
G1 X2.604 Y25.769 E1.64507
G1 X2.621 Y25.786 E1.64541
G1 X3.025 Y25.769 E1.65107
G1 X3.042 Y25.786 E1.65141
G1 X3.446 Y25.769 E1.65706
G1 X3.463 Y25.786 E1.65741
G1 X3.867 Y25.769 E1.66306
G1 X3.884 Y25.786 E1.66340
G1 X4.287 Y25.769 E1.66906
G1 X4.305 Y25.786 E1.66940
G1 X4.708 Y25.769 E1.67506
G1 X4.726 Y25.786 E1.67540
G1 X5.129 Y25.769 E1.68105
G1 X5.147 Y25.786 E1.68139
G1 X6.392 Y25.769 E1.69883
G1 X6.409 Y25.786 E1.69917
G1 X7.543 Y24.405 F7800.000
G1 X7.457 Y24.319 F360.000 E1.70248
G1 X7.543 Y23.586 E1.72257
G1 X7.457 Y23.500 E1.72588
G1 X7.543 Y22.766 E1.74597
G1 X7.457 Y22.680 E1.74928
G1 X7.543 Y21.947 E1.76937
G1 X7.457 Y21.861 E1.77268
G1 X7.543 Y21.128 E1.79277
G1 X7.457 Y21.042 E1.79608
G1 X7.543 Y20.308 E1.81617
G1 X7.457 Y20.222 E1.81948
G1 X7.543 Y19.489 E1.83957
G1 X7.457 Y19.403 E1.84288
G1 X7.543 Y18.669 E1.86297
G1 X7.457 Y18.583 E1.86628
G1 X7.543 Y17.850 E1.88637
G1 X7.457 Y17.764 E1.88968
G1 X7.543 Y17.031 E1.90977
G1 X7.457 Y16.945 E1.91308
G1 X7.543 Y16.211 E1.93317
G1 X7.457 Y16.125 E1.93648
G1 X7.543 Y15.392 E1.95657
G1 X7.457 Y15.306 E1.95988
G1 X7.543 Y14.572 E1.97997
G1 X7.457 Y14.486 E1.98328
G1 X7.543 Y13.753 E2.00337
G1 X7.457 Y13.667 E2.00668
G1 X7.543 Y12.934 E2.02677
G1 X7.457 Y12.848 E2.03008
G1 X7.543 Y12.114 E2.05017
G1 X7.457 Y12.028 E2.05348
G1 X7.543 Y11.295 E2.07357
G1 X7.457 Y11.209 E2.07688
G1 X7.543 Y10.475 E2.09697
G1 X7.457 Y10.389 E2.10028
G1 X7.543 Y9.656 E2.12037
G1 X7.457 Y9.570 E2.12368
G1 X7.543 Y8.836 E2.14377
G1 X7.457 Y8.750 E2.14708
G1 X7.543 Y8.017 E2.16717
G1 X7.457 Y7.931 E2.17048
G1 X7.543 Y7.198 E2.19057
G1 X7.457 Y7.112 E2.19388
G1 X6.077 Y5.670 F7800.000
G1 X6.094 Y5.687 F360.000 E2.19422
G1 X5.656 Y5.670 F7800.000
G1 X5.673 Y5.687 F360.000 E2.19456
G1 X5.235 Y5.670 F7800.000
G1 X5.252 Y5.687 F360.000 E2.19490
G1 X4.814 Y5.670 F7800.000
G1 X4.831 Y5.687 F360.000 E2.19524
G1 X4.393 Y5.670 F7800.000
G1 X4.410 Y5.687 F360.000 E2.19558
G1 X3.972 Y5.670 F7800.000
G1 X3.989 Y5.687 F360.000 E2.19592
G1 X3.551 Y5.670 F7800.000
G1 X3.569 Y5.687 F360.000 E2.19626
G1 X3.130 Y5.670 F7800.000
G1 X3.148 Y5.687 F360.000 E2.19660
G1 X2.709 Y5.670 F7800.000
G1 X2.727 Y5.687 F360.000 E2.19694
G1 X2.288 Y5.670 F7800.000
G1 X2.306 Y5.687 F360.000 E2.19728
G1 X1.868 Y5.670 F7800.000
G1 X1.885 Y5.687 F360.000 E2.19762
G1 X1.447 Y5.670 F7800.000
G1 X1.464 Y5.687 F360.000 E2.19796
G1 X1.026 Y5.670 F7800.000
G1 X1.043 Y5.687 F360.000 E2.19830
G1 X0.605 Y5.670 F7800.000
G1 X0.622 Y5.687 F360.000 E2.19864
G1 X0.184 Y5.670 F7800.000
G1 X0.201 Y5.687 F360.000 E2.19898
G1 X-0.237 Y5.670 F7800.000
G1 X-0.220 Y5.687 F360.000 E2.19932
G1 X-0.658 Y5.670 F7800.000
G1 X-0.641 Y5.687 F360.000 E2.19966
G1 X-1.079 Y5.670 F7800.000
G1 X-1.062 Y5.687 F360.000 E2.20000
G1 X-1.500 Y5.670 F7800.000
G1 X-1.483 Y5.687 F360.000 E2.20034
G1 X-1.921 Y5.670 F7800.000
G1 X-1.904 Y5.687 F360.000 E2.20068
G1 X-2.342 Y5.670 F7800.000
G1 X-2.325 Y5.687 F360.000 E2.20102
G1 X-2.763 Y5.670 F7800.000
G1 X-2.745 Y5.687 F360.000 E2.20136
G1 X-3.184 Y5.670 F7800.000
G1 X-3.166 Y5.687 F360.000 E2.20170
G1 X-3.605 Y5.670 F7800.000
G1 X-3.587 Y5.687 F360.000 E2.20204
G1 X-4.026 Y5.670 F7800.000
G1 X-4.008 Y5.687 F360.000 E2.20238
G1 X-4.446 Y5.670 F7800.000
G1 X-4.429 Y5.687 F360.000 E2.20272
G1 X-4.867 Y5.670 F7800.000
G1 X-4.850 Y5.687 F360.000 E2.20306
G1 X-5.288 Y5.670 F7800.000
G1 X-5.271 Y5.687 F360.000 E2.20340
G1 X-5.709 Y5.670 F7800.000
G1 X-5.692 Y5.687 F360.000 E2.20374
G1 X-6.113 Y5.687 F7800.000
G1 X-6.130 Y5.670 F360.000 E2.20408
G1 F1800.000 E1.20408
G92 E0
G1 X17.711 Y6.096 F7800.000
G1 F1800.000 E1.00000
G1 X30.289 Y6.096 F540.000 E1.34222
G1 X30.289 Y25.360 E1.86631
G1 X17.711 Y25.360 E2.20853
G1 X17.711 Y6.183 E2.73026
G1 X18.212 Y6.385 F7800.000
G1 F1800.000 E1.73026
G92 E0
G1 X15.868 Y25.617 F7800.000
