; generated by Slic3r 0.9.10b on 2013-12-01 at 00:34:21

; layer_height = 0.3
; perimeters = 2
; top_solid_layers = 3
; bottom_solid_layers = 3
; fill_density = 0.4
; perimeter_speed = 30
; infill_speed = 60
; travel_speed = 130
; nozzle_diameter = 0.5
; filament_diameter = 2.85
; extrusion_multiplier = 1
; perimeters extrusion width = 0.70mm
; infill extrusion width = 0.70mm
; solid infill extrusion width = 0.70mm
; top infill extrusion width = 0.70mm
; first layer extrusion width = 0.60mm

G21 ; set units to millimeters
M107
M104 S0
M83
M140 S70
G28
G1Y98F9000
M190 S70
G1X5Y98Z150F9000
M104 S210
G1X5Y98Z1F9000
G1Z0.05
M109 S210
G1Z5
G1X15
;G1E5F50
G90 ; use absolute coordinates
G92 E0
M82 ; use absolute distances for extrusion
G1 F1800.000 E-1.00000
G92 E0
G1 Z0.300 F7800.000
G1 X-47.080 Y52.752
G1 F1800.000 E1.00000
G1 X-47.080 Y-52.758 F540.000 E3.87057
G1 X-46.950 Y-54.038 E3.90558
G1 X-46.580 Y-55.278 E3.94078
G1 X-45.970 Y-56.408 E3.97572
G1 X-45.150 Y-57.408 E4.01090
G1 X-44.150 Y-58.228 E4.04609
G1 X-43.020 Y-58.838 E4.08102
G1 X-41.780 Y-59.208 E4.11623
G1 X-40.500 Y-59.338 E4.15123
G1 X40.500 Y-59.338 E6.35497
G1 X41.780 Y-59.208 E6.38998
G1 X43.020 Y-58.838 E6.42518
G1 X44.150 Y-58.228 E6.46012
G1 X45.150 Y-57.408 E6.49530
G1 X45.970 Y-56.408 E6.53049
G1 X46.580 Y-55.278 E6.56542
G1 X46.950 Y-54.038 E6.60063
G1 X47.080 Y-52.758 E6.63563
G1 X47.080 Y52.752 E9.50621
G1 X46.950 Y54.032 E9.54121
G1 X46.580 Y55.272 E9.57641
G1 X45.970 Y56.402 E9.61135
G1 X45.150 Y57.402 E9.64654
G1 X44.150 Y58.222 E9.68172
G1 X43.020 Y58.832 E9.71666
G1 X41.780 Y59.202 E9.75186
G1 X40.500 Y59.332 E9.78687
G1 X-40.500 Y59.332 E11.99060
G1 X-41.780 Y59.202 E12.02561
G1 X-43.020 Y58.832 E12.06081
G1 X-44.150 Y58.222 E12.09575
G1 X-45.150 Y57.402 E12.13093
G1 X-45.970 Y56.402 E12.16612
G1 X-46.580 Y55.272 E12.20106
G1 X-46.950 Y54.032 E12.23626
G1 X-47.071 Y52.838 E12.26890
G1 F1800.000 E11.26890
G92 E0
G1 X25.211 Y-32.368 F7800.000
G1 F1800.000 E1.00000
G1 X25.211 Y-51.632 F540.000 E1.52409
G1 X37.789 Y-51.632 E1.86631
G1 X37.789 Y-32.368 E2.39040
G1 X25.298 Y-32.368 E2.73026
G1 X25.500 Y-32.869 F7800.000
G1 F1800.000 E1.73026
G92 E0
G1 X16.789 Y-32.368 F7800.000
G1 F1800.000 E1.00000
G1 X4.211 Y-32.368 F540.000 E1.34222
G1 X4.211 Y-51.632 E1.86631
G1 X16.789 Y-51.632 E2.20853
G1 X16.789 Y-32.455 E2.73026
G1 X16.288 Y-32.658 F7800.000
G1 F1800.000 E1.73026
G92 E0
G1 X-4.211 Y-32.368 F7800.000
G1 F1800.000 E1.00000
G1 X-16.789 Y-32.368 F540.000 E1.34222
G1 X-16.789 Y-51.632 E1.86631
G1 X-4.211 Y-51.632 E2.20853
G1 X-4.211 Y-32.455 E2.73026
G1 X-4.712 Y-32.658 F7800.000
G1 F1800.000 E1.73026
G92 E0
G1 X-25.211 Y-32.368 F7800.000
G1 F1800.000 E1.00000
G1 X-37.789 Y-32.368 F540.000 E1.34222
G1 X-37.789 Y-51.632 E1.86631
G1 X-25.211 Y-51.632 E2.20853
G1 X-25.211 Y-32.455 E2.73026
G1 X-25.712 Y-32.658 F7800.000
G1 F1800.000 E1.73026
G92 E0
G1 X-25.211 Y-23.632 F7800.000
G1 F1800.000 E1.00000
G1 X-25.211 Y-4.368 F540.000 E1.52409
G1 X-37.789 Y-4.368 E1.86631
G1 X-37.789 Y-23.632 E2.39040
G1 X-25.298 Y-23.632 E2.73026
G1 X-25.500 Y-23.131 F7800.000
G1 F1800.000 E1.73026
G92 E0
G1 X-16.789 Y-23.632 F7800.000
G1 F1800.000 E1.00000
G1 X-4.211 Y-23.632 F540.000 E1.34222
G1 X-4.211 Y-4.368 E1.86631
G1 X-16.789 Y-4.368 E2.20853
G1 X-16.789 Y-23.545 E2.73026
G1 X-16.288 Y-23.342 F7800.000
G1 F1800.000 E1.73026
G92 E0
G1 X4.211 Y-23.632 F7800.000
G1 F1800.000 E1.00000
G1 X16.789 Y-23.632 F540.000 E1.34222
G1 X16.789 Y-4.368 E1.86631
G1 X4.211 Y-4.368 E2.20853
G1 X4.211 Y-23.545 E2.73026
G1 X4.712 Y-23.342 F7800.000
G1 F1800.000 E1.73026
G92 E0
G1 X25.211 Y-23.632 F7800.000
G1 F1800.000 E1.00000
G1 X37.789 Y-23.632 F540.000 E1.34222
G1 X37.789 Y-4.368 E1.86631
G1 X25.211 Y-4.368 E2.20853
G1 X25.211 Y-23.545 E2.73026
G1 X25.712 Y-23.342 F7800.000
G1 F1800.000 E1.73026
G92 E0
G1 X25.211 Y4.368 F7800.000
G1 F1800.000 E1.00000
G1 X37.789 Y4.368 F540.000 E1.34222
G1 X37.789 Y23.632 E1.86631
G1 X25.211 Y23.632 E2.20853
G1 X25.211 Y4.455 E2.73026
G1 X25.712 Y4.658 F7800.000
G1 F1800.000 E1.73026
G92 E0
G1 X16.789 Y4.368 F7800.000
G1 F1800.000 E1.00000
G1 X16.789 Y23.632 F540.000 E1.52409
G1 X4.211 Y23.632 E1.86631
G1 X4.211 Y4.368 E2.39040
G1 X16.702 Y4.368 E2.73026
G1 X16.500 Y4.869 F7800.000
G1 F1800.000 E1.73026
G92 E0
G1 X-4.211 Y4.368 F7800.000
G1 F1800.000 E1.00000
G1 X-4.211 Y23.632 F540.000 E1.52409
G1 X-16.789 Y23.632 E1.86631
G1 X-16.789 Y4.368 E2.39040
G1 X-4.298 Y4.368 E2.73026
G1 X-4.500 Y4.869 F7800.000
G1 F1800.000 E1.73026
G92 E0
G1 X-25.211 Y4.368 F7800.000
G1 F1800.000 E1.00000
G1 X-25.211 Y23.632 F540.000 E1.52409
G1 X-37.789 Y23.632 E1.86631
G1 X-37.789 Y4.368 E2.39040
G1 X-25.298 Y4.368 E2.73026
G1 X-25.500 Y4.869 F7800.000
G1 F1800.000 E1.73026
G92 E0
G1 X-25.211 Y32.368 F7800.000
G1 F1800.000 E1.00000
G1 X-25.211 Y51.632 F540.000 E1.52409
G1 X-37.789 Y51.632 E1.86631
G1 X-37.789 Y32.368 E2.39040
G1 X-25.298 Y32.368 E2.73026
G1 X-25.500 Y32.869 F7800.000
G1 F1800.000 E1.73026
G92 E0
G1 X-16.789 Y32.368 F7800.000
G1 F1800.000 E1.00000
G1 X-4.211 Y32.368 F540.000 E1.34222
G1 X-4.211 Y51.632 E1.86631
G1 X-16.789 Y51.632 E2.20853
G1 X-16.789 Y32.455 E2.73026
G1 X-16.288 Y32.658 F7800.000
G1 F1800.000 E1.73026
G92 E0
G1 X4.211 Y32.368 F7800.000
G1 F1800.000 E1.00000
G1 X16.789 Y32.368 F540.000 E1.34222
G1 X16.789 Y51.632 E1.86631
G1 X4.211 Y51.632 E2.20853
G1 X4.211 Y32.455 E2.73026
G1 X4.712 Y32.658 F7800.000
G1 F1800.000 E1.73026
G92 E0
G1 X25.211 Y32.368 F7800.000
G1 F1800.000 E1.00000
G1 X37.789 Y32.368 F540.000 E1.34222
G1 X37.789 Y51.632 E1.86631
G1 X25.211 Y51.632 E2.20853
G1 X25.211 Y32.455 E2.73026
G1 X25.712 Y32.658 F7800.000
G1 F1800.000 E1.73026
G92 E0
G1 X38.368 Y51.889 F7800.000
G1 F1800.000 E1.00000
G1 X38.368 Y32.111 F540.000 E1.53808
G1 X39.632 Y32.111 E1.57248
G1 X39.632 Y51.889 E2.11056
G1 X38.455 Y51.889 E2.14260
G1 F1800.000 E1.14260
G92 E0
G1 X23.368 Y32.111 F7800.000
G1 F1800.000 E1.00000
G1 X24.632 Y32.111 F540.000 E1.03440
G1 X24.632 Y51.889 E1.57248
G1 X23.368 Y51.889 E1.60688
G1 X23.368 Y32.198 E2.14260
G1 X22.789 Y31.533 F7800.000
G1 X40.211 Y31.533 F540.000 E2.61658
G1 X40.211 Y52.467 E3.18614
G1 X22.789 Y52.467 E3.66012
G1 X22.789 Y31.619 E4.22732
G1 X23.290 Y31.822 F7800.000
G1 F1800.000 E3.22732
G92 E0
G1 X17.368 Y51.889 F7800.000
G1 F1800.000 E1.00000
G1 X17.368 Y32.111 F540.000 E1.53808
G1 X18.632 Y32.111 E1.57248
G1 X18.632 Y51.889 E2.11056
G1 X17.455 Y51.889 E2.14260
G1 F1800.000 E1.14260
G92 E0
G1 X3.632 Y32.111 F7800.000
G1 F1800.000 E1.00000
G1 X3.632 Y51.889 F540.000 E1.53808
G1 X2.368 Y51.889 E1.57248
G1 X2.368 Y32.111 E2.11056
G1 X3.545 Y32.111 E2.14260
G1 X1.789 Y31.533 F7800.000
G1 X19.211 Y31.533 F540.000 E2.61658
G1 X19.211 Y52.467 E3.18614
G1 X1.789 Y52.467 E3.66012
G1 X1.789 Y31.619 E4.22732
G1 X2.290 Y31.822 F7800.000
G1 F1800.000 E3.22732
G92 E0
G1 X-3.632 Y32.111 F7800.000
G1 F1800.000 E1.00000
G1 X-2.368 Y32.111 F540.000 E1.03440
G1 X-2.368 Y51.889 E1.57248
G1 X-3.632 Y51.889 E1.60688
G1 X-3.632 Y32.198 E2.14260
G1 F1800.000 E1.14260
G92 E0
G1 X-18.632 Y51.889 F7800.000
G1 F1800.000 E1.00000
G1 X-18.632 Y32.111 F540.000 E1.53808
G1 X-17.368 Y32.111 E1.57248
G1 X-17.368 Y51.889 E2.11056
G1 X-18.545 Y51.889 E2.14260
G1 X-19.211 Y52.467 F7800.000
G1 X-19.211 Y31.533 F540.000 E2.71216
G1 X-1.789 Y31.533 E3.18614
G1 X-1.789 Y52.467 E3.75570
G1 X-19.124 Y52.467 E4.22732
G1 X-18.921 Y51.966 F7800.000
G1 F1800.000 E3.22732
G92 E0
G1 X-23.368 Y51.889 F7800.000
G1 F1800.000 E1.00000
G1 X-24.632 Y51.889 F540.000 E1.03440
G1 X-24.632 Y32.111 E1.57248
G1 X-23.368 Y32.111 E1.60688
G1 X-23.368 Y51.802 E2.14260
G1 F1800.000 E1.14260
G92 E0
G1 X-39.632 Y32.111 F7800.000
G1 F1800.000 E1.00000
G1 X-38.368 Y32.111 F540.000 E1.03440
G1 X-38.368 Y51.889 E1.57248
G1 X-39.632 Y51.889 E1.60688
G1 X-39.632 Y32.198 E2.14260
G1 X-40.211 Y31.533 F7800.000
G1 X-22.789 Y31.533 F540.000 E2.61658
G1 X-22.789 Y52.467 E3.18614
G1 X-40.211 Y52.467 E3.66012
G1 X-40.211 Y31.619 E4.22732
G1 X-39.710 Y31.822 F7800.000
G1 F1800.000 E3.22732
G92 E0
G1 X-23.368 Y4.111 F7800.000
G1 F1800.000 E1.00000
G1 X-23.368 Y23.889 F540.000 E1.53808
G1 X-24.632 Y23.889 E1.57248
G1 X-24.632 Y4.111 E2.11056
G1 X-23.455 Y4.111 E2.14260
G1 X-38.368 Y4.111 F7800.000
G1 X-38.368 Y23.889 F540.000 E2.68068
G1 X-39.632 Y23.889 E2.71508
G1 X-39.632 Y4.111 E3.25316
G1 X-38.455 Y4.111 E3.28520
G1 X-40.211 Y3.533 F7800.000
G1 X-22.789 Y3.533 F540.000 E3.75918
G1 X-22.789 Y24.467 E4.32874
G1 X-40.211 Y24.467 E4.80272
G1 X-40.211 Y3.619 E5.36992
G1 X-39.710 Y3.822 F7800.000
G1 F1800.000 E4.36992
G92 E0
G1 X-2.368 Y23.889 F7800.000
G1 F1800.000 E1.00000
G1 X-3.632 Y23.889 F540.000 E1.03440
G1 X-3.632 Y4.111 E1.57248
G1 X-2.368 Y4.111 E1.60688
G1 X-2.368 Y23.802 E2.14260
G1 F1800.000 E1.14260
G92 E0
G1 X-18.632 Y4.111 F7800.000
G1 F1800.000 E1.00000
G1 X-17.368 Y4.111 F540.000 E1.03440
G1 X-17.368 Y23.889 E1.57248
G1 X-18.632 Y23.889 E1.60688
G1 X-18.632 Y4.198 E2.14260
G1 X-19.211 Y3.533 F7800.000
G1 X-1.789 Y3.533 F540.000 E2.61658
G1 X-1.789 Y24.467 E3.18614
G1 X-19.211 Y24.467 E3.66012
G1 X-19.211 Y3.619 E4.22732
G1 X-18.710 Y3.822 F7800.000
G1 F1800.000 E3.22732
G92 E0
G1 X17.368 Y23.889 F7800.000
G1 F1800.000 E1.00000
G1 X17.368 Y4.111 F540.000 E1.53808
G1 X18.632 Y4.111 E1.57248
G1 X18.632 Y23.889 E2.11056
G1 X17.455 Y23.889 E2.14260
G1 X3.632 Y23.889 F7800.000
G1 X2.368 Y23.889 F540.000 E2.17700
G1 X2.368 Y4.111 E2.71508
G1 X3.632 Y4.111 E2.74948
G1 X3.632 Y23.802 E3.28520
G1 X1.789 Y24.467 F7800.000
G1 X1.789 Y3.533 F540.000 E3.85476
G1 X19.211 Y3.533 E4.32874
G1 X19.211 Y24.467 E4.89831
G1 X1.876 Y24.467 E5.36992
G1 X2.079 Y23.966 F7800.000
G1 F1800.000 E4.36992
G92 E0
G1 X38.368 Y4.111 F7800.000
G1 F1800.000 E1.00000
G1 X39.632 Y4.111 F540.000 E1.03440
G1 X39.632 Y23.889 E1.57248
G1 X38.368 Y23.889 E1.60688
G1 X38.368 Y4.198 E2.14260
G1 F1800.000 E1.14260
G92 E0
G1 X24.632 Y23.889 F7800.000
G1 F1800.000 E1.00000
G1 X23.368 Y23.889 F540.000 E1.03440
G1 X23.368 Y4.111 E1.57248
G1 X24.632 Y4.111 E1.60688
G1 X24.632 Y23.802 E2.14260
G1 X22.789 Y24.467 F7800.000
G1 X22.789 Y3.533 F540.000 E2.71216
G1 X40.211 Y3.533 E3.18614
G1 X40.211 Y24.467 E3.75570
G1 X22.876 Y24.467 E4.22732
G1 X23.079 Y23.966 F7800.000
G1 F1800.000 E3.22732
G92 E0
G1 X39.632 Y-23.889 F7800.000
G1 F1800.000 E1.00000
G1 X39.632 Y-4.111 F540.000 E1.53808
G1 X38.368 Y-4.111 E1.57248
G1 X38.368 Y-23.889 E2.11056
G1 X39.545 Y-23.889 E2.14260
G1 F1800.000 E1.14260
G92 E0
G1 X24.632 Y-4.111 F7800.000
G1 F1800.000 E1.00000
G1 X23.368 Y-4.111 F540.000 E1.03440
G1 X23.368 Y-23.889 E1.57248
G1 X24.632 Y-23.889 E1.60688
G1 X24.632 Y-4.198 E2.14260
G1 X22.789 Y-3.533 F7800.000
G1 X22.789 Y-24.467 F540.000 E2.71216
G1 X40.211 Y-24.467 E3.18614
G1 X40.211 Y-3.533 E3.75570
G1 X22.876 Y-3.533 E4.22732
G1 X23.079 Y-4.034 F7800.000
G1 F1800.000 E3.22732
G92 E0
G1 X18.632 Y-4.111 F7800.000
G1 F1800.000 E1.00000
G1 X17.368 Y-4.111 F540.000 E1.03440
G1 X17.368 Y-23.889 E1.57248
G1 X18.632 Y-23.889 E1.60688
G1 X18.632 Y-4.198 E2.14260
G1 X3.632 Y-4.111 F7800.000
G1 X2.368 Y-4.111 F540.000 E2.17700
G1 X2.368 Y-23.889 E2.71508
G1 X3.632 Y-23.889 E2.74948
G1 X3.632 Y-4.198 E3.28520
G1 X1.789 Y-3.533 F7800.000
G1 X1.789 Y-24.467 F540.000 E3.85476
G1 X19.211 Y-24.467 E4.32874
G1 X19.211 Y-3.533 E4.89831
G1 X1.876 Y-3.533 E5.36992
G1 X2.079 Y-4.034 F7800.000
G1 F1800.000 E4.36992
G92 E0
G1 X-2.368 Y-23.889 F7800.000
G1 F1800.000 E1.00000
G1 X-2.368 Y-4.111 F540.000 E1.53808
G1 X-3.632 Y-4.111 E1.57248
G1 X-3.632 Y-23.889 E2.11056
G1 X-2.455 Y-23.889 E2.14260
G1 F1800.000 E1.14260
G92 E0
G1 X-17.368 Y-4.111 F7800.000
G1 F1800.000 E1.00000
G1 X-18.632 Y-4.111 F540.000 E1.03440
G1 X-18.632 Y-23.889 E1.57248
G1 X-17.368 Y-23.889 E1.60688
G1 X-17.368 Y-4.198 E2.14260
G1 X-19.211 Y-3.533 F7800.000
G1 X-19.211 Y-24.467 F540.000 E2.71216
G1 X-1.789 Y-24.467 E3.18614
G1 X-1.789 Y-3.533 E3.75570
G1 X-19.124 Y-3.533 E4.22732
G1 X-18.921 Y-4.034 F7800.000
G1 F1800.000 E3.22732
G92 E0
G1 X-24.632 Y-23.889 F7800.000
G1 F1800.000 E1.00000
G1 X-23.368 Y-23.889 F540.000 E1.03440
G1 X-23.368 Y-4.111 E1.57248
G1 X-24.632 Y-4.111 E1.60688
G1 X-24.632 Y-23.802 E2.14260
G1 F1800.000 E1.14260
G92 E0
G1 X-38.368 Y-4.111 F7800.000
G1 F1800.000 E1.00000
G1 X-39.632 Y-4.111 F540.000 E1.03440
G1 X-39.632 Y-23.889 E1.57248
G1 X-38.368 Y-23.889 E1.60688
G1 X-38.368 Y-4.198 E2.14260
G1 X-40.211 Y-3.533 F7800.000
G1 X-40.211 Y-24.467 F540.000 E2.71216
G1 X-22.789 Y-24.467 E3.18614
G1 X-22.789 Y-3.533 E3.75570
G1 X-40.124 Y-3.533 E4.22732
G1 X-39.921 Y-4.034 F7800.000
G1 F1800.000 E3.22732
G92 E0
G1 X-23.368 Y-32.111 F7800.000
G1 F1800.000 E1.00000
G1 X-24.632 Y-32.111 F540.000 E1.03440
G1 X-24.632 Y-51.889 E1.57248
G1 X-23.368 Y-51.889 E1.60688
G1 X-23.368 Y-32.198 E2.14260
G1 F1800.000 E1.14260
G92 E0
G1 X-38.368 Y-51.889 F7800.000
G1 F1800.000 E1.00000
G1 X-38.368 Y-32.111 F540.000 E1.53808
G1 X-39.632 Y-32.111 E1.57248
G1 X-39.632 Y-51.889 E2.11056
G1 X-38.455 Y-51.889 E2.14260
G1 X-40.211 Y-52.467 F7800.000
G1 X-22.789 Y-52.467 F540.000 E2.61658
G1 X-22.789 Y-31.533 E3.18614
G1 X-40.211 Y-31.533 E3.66012
G1 X-40.211 Y-52.381 E4.22732
G1 X-39.710 Y-52.178 F7800.000
G1 F1800.000 E3.22732
G92 E0
G1 X-3.632 Y-32.111 F7800.000
G1 F1800.000 E1.00000
G1 X-3.632 Y-51.889 F540.000 E1.53808
G1 X-2.368 Y-51.889 E1.57248
G1 X-2.368 Y-32.111 E2.11056
G1 X-3.545 Y-32.111 E2.14260
G1 X-18.632 Y-32.111 F7800.000
G1 X-18.632 Y-51.889 F540.000 E2.68068
G1 X-17.368 Y-51.889 E2.71508
G1 X-17.368 Y-32.111 E3.25316
G1 X-18.545 Y-32.111 E3.28520
G1 X-19.211 Y-31.533 F7800.000
G1 X-19.211 Y-52.467 F540.000 E3.85476
G1 X-1.789 Y-52.467 E4.32874
G1 X-1.789 Y-31.533 E4.89831
G1 X-19.124 Y-31.533 E5.36992
G1 X-18.921 Y-32.034 F7800.000
G1 F1800.000 E4.36992
G92 E0
G1 X18.632 Y-51.889 F7800.000
G1 F1800.000 E1.00000
G1 X18.632 Y-32.111 F540.000 E1.53808
G1 X17.368 Y-32.111 E1.57248
G1 X17.368 Y-51.889 E2.11056
G1 X18.545 Y-51.889 E2.14260
G1 X2.368 Y-51.889 F7800.000
G1 X3.632 Y-51.889 F540.000 E2.17700
G1 X3.632 Y-32.111 E2.71508
G1 X2.368 Y-32.111 E2.74948
G1 X2.368 Y-51.802 E3.28520
G1 X1.789 Y-52.467 F7800.000
G1 X19.211 Y-52.467 F540.000 E3.75918
G1 X19.211 Y-31.533 E4.32874
G1 X1.789 Y-31.533 E4.80272
G1 X1.789 Y-52.381 E5.36992
G1 X2.290 Y-52.178 F7800.000
G1 F1800.000 E4.36992
G92 E0
G1 X38.368 Y-32.111 F7800.000
G1 F1800.000 E1.00000
G1 X38.368 Y-51.889 F540.000 E1.53808
G1 X39.632 Y-51.889 E1.57248
G1 X39.632 Y-32.111 E2.11056
G1 X38.455 Y-32.111 E2.14260
G1 X23.368 Y-32.111 F7800.000
G1 X23.368 Y-51.889 F540.000 E2.68068
G1 X24.632 Y-51.889 E2.71508
G1 X24.632 Y-32.111 E3.25316
G1 X23.455 Y-32.111 E3.28520
G1 X22.789 Y-31.533 F7800.000
G1 X22.789 Y-52.467 F540.000 E3.85476
G1 X40.211 Y-52.467 E4.32874
G1 X40.211 Y-31.533 E4.89831
G1 X22.876 Y-31.533 E5.36992
G1 X23.079 Y-32.034 F7800.000
G1 F1800.000 E4.36992
G92 E0
G1 X17.981 Y51.300 F7800.000
G1 F1800.000 E1.00000
G1 X17.957 Y51.276 F360.000 E1.00091
G1 X18.043 Y50.543 E1.02099
G1 X17.957 Y50.457 E1.02431
G1 X18.043 Y49.725 E1.04439
G1 X17.957 Y49.639 E1.04770
G1 X18.043 Y48.906 E1.06778
G1 X17.957 Y48.820 E1.07110
G1 X18.043 Y48.087 E1.09118
G1 X17.957 Y48.001 E1.09449
G1 X18.043 Y47.269 E1.11457
G1 X17.957 Y47.183 E1.11788
G1 X18.043 Y46.450 E1.13797
G1 X17.957 Y46.364 E1.14128
G1 X18.043 Y45.631 E1.16136
G1 X17.957 Y45.545 E1.16467
G1 X18.043 Y44.813 E1.18476
G1 X17.957 Y44.727 E1.18807
G1 X18.043 Y43.994 E1.20815
G1 X17.957 Y43.908 E1.21146
G1 X18.043 Y43.175 E1.23154
G1 X17.957 Y43.089 E1.23486
G1 X18.043 Y42.357 E1.25494
G1 X17.957 Y42.270 E1.25825
G1 X18.043 Y41.538 E1.27833
G1 X17.957 Y41.452 E1.28165
G1 X18.043 Y40.719 E1.30173
G1 X17.957 Y40.633 E1.30504
G1 X18.043 Y39.900 E1.32512
G1 X17.957 Y39.814 E1.32843
G1 X18.043 Y39.082 E1.34852
G1 X17.957 Y38.996 E1.35183
G1 X18.043 Y38.263 E1.37191
G1 X17.957 Y38.177 E1.37522
G1 X18.043 Y37.444 E1.39531
G1 X17.957 Y37.358 E1.39862
G1 X18.043 Y36.626 E1.41870
G1 X17.957 Y36.540 E1.42201
G1 X18.043 Y35.807 E1.44209
G1 X17.957 Y35.721 E1.44541
G1 X18.043 Y34.988 E1.46549
G1 X17.957 Y34.902 E1.46880
G1 X18.043 Y34.170 E1.48888
