; generated by Slic3r 0.9.10b on 2013-12-09 at 20:45:32

; layer_height = 0.3
; perimeters = 2
; top_solid_layers = 3
; bottom_solid_layers = 3
; fill_density = 0.4
; perimeter_speed = 30
; infill_speed = 60
; travel_speed = 130
; nozzle_diameter = 0.5
; filament_diameter = 2.85
; extrusion_multiplier = 1
; perimeters extrusion width = 0.70mm
; infill extrusion width = 0.70mm
; solid infill extrusion width = 0.70mm
; top infill extrusion width = 0.70mm
; first layer extrusion width = 0.60mm

G21 ; set units to millimeters
M107
M104 S0
M83
M140 S70
G28
G1Y98F9000
M190 S70
G1X5Y98Z150F9000
M104 S210
G1X5Y98Z1F9000
G1Z0.05
M109 S210
G1Z5
G1X15
;G1E5F50
G90 ; use absolute coordinates
G92 E0
M82 ; use absolute distances for extrusion
G1 F1800.000 E-1.00000
G92 E0
G1 Z0.300 F7800.000
G1 X-15.580 Y10.752
G1 F1800.000 E1.00000
G1 X-15.580 Y-10.758 F540.000 E1.58521
G1 X-15.450 Y-12.038 E1.62022
G1 X-15.080 Y-13.278 E1.65542
G1 X-14.470 Y-14.408 E1.69036
G1 X-13.650 Y-15.408 E1.72555
G1 X-12.650 Y-16.228 E1.76073
G1 X-11.520 Y-16.838 E1.79567
G1 X-10.280 Y-17.208 E1.83087
G1 X-9.000 Y-17.338 E1.86588
G1 X9.000 Y-17.338 E2.35560
G1 X10.280 Y-17.208 E2.39060
G1 X11.520 Y-16.838 E2.42581
G1 X12.650 Y-16.228 E2.46074
G1 X13.650 Y-15.408 E2.49593
G1 X14.470 Y-14.408 E2.53111
G1 X15.080 Y-13.278 E2.56605
G1 X15.450 Y-12.038 E2.60125
G1 X15.580 Y-10.758 E2.63626
G1 X15.580 Y10.752 E3.22147
G1 X15.450 Y12.032 E3.25648
G1 X15.080 Y13.272 E3.29168
G1 X14.470 Y14.402 E3.32662
G1 X13.650 Y15.402 E3.36180
G1 X12.650 Y16.222 E3.39699
G1 X11.520 Y16.832 E3.43192
G1 X10.280 Y17.202 E3.46713
G1 X9.000 Y17.332 E3.50213
G1 X-9.000 Y17.332 E3.99185
G1 X-10.280 Y17.202 E4.02686
G1 X-11.520 Y16.832 E4.06206
G1 X-12.650 Y16.222 E4.09700
G1 X-13.650 Y15.402 E4.13218
G1 X-14.470 Y14.402 E4.16737
G1 X-15.080 Y13.272 E4.20230
G1 X-15.450 Y12.032 E4.23751
G1 X-15.571 Y10.838 E4.27015
G1 F1800.000 E3.27015
G92 E0
G1 X-9.868 Y10.991 F7800.000
G1 F1800.000 E1.00000
G1 X-9.868 Y-10.991 F540.000 E1.59808
G1 X-9.780 Y-11.204 E1.60435
G1 X-9.448 Y-11.536 E1.61713
G1 X-9.235 Y-11.624 E1.62339
G1 X9.235 Y-11.624 E2.12589
G1 X9.448 Y-11.536 E2.13215
G1 X9.780 Y-11.204 E2.14493
G1 X9.868 Y-10.991 E2.15119
G1 X9.868 Y10.991 E2.74928
G1 X9.780 Y11.204 E2.75554
G1 X9.448 Y11.536 E2.76832
G1 X9.235 Y11.624 E2.77458
G1 X-9.235 Y11.624 E3.27708
G1 X-9.448 Y11.536 E3.28335
G1 X-9.780 Y11.204 E3.29613
G1 X-9.835 Y11.072 E3.30003
G1 X-9.289 Y10.707 F7800.000
G1 X-9.289 Y-10.707 F540.000 E3.88263
G1 X-8.950 Y-11.046 E3.89567
G1 X8.950 Y-11.046 E4.38269
G1 X9.289 Y-10.707 E4.39573
G1 X9.289 Y10.707 E4.97833
G1 X8.950 Y11.046 E4.99137
G1 X-8.950 Y11.046 E5.47839
G1 X-9.228 Y10.768 E5.48907
G1 X-8.711 Y10.467 F7800.000
G1 X-8.711 Y-10.467 F540.000 E6.05863
G1 X8.711 Y-10.467 E6.53261
G1 X8.711 Y10.467 E7.10217
G1 X-8.624 Y10.467 E7.57379
G1 X-8.421 Y9.966 F7800.000
G1 X8.132 Y9.889
G1 X6.868 Y9.889 F540.000 E7.60819
G1 X6.868 Y-9.889 E8.14627
G1 X8.132 Y-9.889 E8.18067
G1 X8.132 Y9.802 E8.71639
G1 X-8.132 Y9.889 F7800.000
G1 X-8.132 Y-9.889 F540.000 E9.25447
G1 X-6.868 Y-9.889 E9.28887
G1 X-6.868 Y9.889 E9.82695
G1 X-8.045 Y9.889 E9.85899
G1 X-6.289 Y9.632 F7800.000
G1 X-6.289 Y-9.632 F540.000 E10.38308
G1 X6.289 Y-9.632 E10.72530
G1 X6.289 Y9.632 E11.24940
G1 X-6.202 Y9.632 E11.58925
G1 X-6.000 Y9.131 F7800.000
G1 X-7.457 Y9.246
G1 X-7.543 Y9.160 F360.000 E11.59257
G1 X-7.457 Y8.427 E11.61269
G1 X-7.543 Y8.341 E11.61600
G1 X-7.457 Y7.607 E11.63612
G1 X-7.543 Y7.521 E11.63944
G1 X-7.457 Y6.788 E11.65956
G1 X-7.543 Y6.702 E11.66288
G1 X-7.457 Y5.969 E11.68299
G1 X-7.543 Y5.883 E11.68631
G1 X-7.457 Y5.149 E11.70643
G1 X-7.543 Y5.063 E11.70975
G1 X-7.457 Y4.330 E11.72987
G1 X-7.543 Y4.244 E11.73318
G1 X-7.457 Y3.510 E11.75330
G1 X-7.543 Y3.424 E11.75662
G1 X-7.457 Y2.691 E11.77674
G1 X-7.543 Y2.605 E11.78005
G1 X-7.457 Y1.872 E11.80017
G1 X-7.543 Y1.785 E11.80349
G1 X-7.457 Y1.052 E11.82361
G1 X-7.543 Y0.966 E11.82692
G1 X-7.457 Y0.233 E11.84704
G1 X-7.543 Y0.147 E11.85036
G1 X-7.457 Y-0.587 E11.87048
G1 X-7.543 Y-0.673 E11.87379
G1 X-7.457 Y-1.406 E11.89391
G1 X-7.543 Y-1.492 E11.89723
G1 X-7.457 Y-2.226 E11.91735
G1 X-7.543 Y-2.312 E11.92066
G1 X-7.457 Y-3.045 E11.94078
G1 X-7.543 Y-3.131 E11.94410
G1 X-7.457 Y-3.864 E11.96422
G1 X-7.543 Y-3.950 E11.96753
G1 X-7.457 Y-4.684 E11.98765
G1 X-7.543 Y-4.770 E11.99097
G1 X-7.457 Y-5.503 E12.01109
G1 X-7.543 Y-5.589 E12.01440
G1 X-7.457 Y-6.323 E12.03452
G1 X-7.543 Y-6.409 E12.03784
G1 X-7.457 Y-7.142 E12.05796
G1 X-7.543 Y-7.228 E12.06127
G1 X-7.457 Y-7.961 E12.08139
G1 X-7.543 Y-8.047 E12.08471
G1 X-7.457 Y-8.781 E12.10483
G1 X-7.543 Y-8.867 E12.10815
G1 X-6.219 Y10.058 F7800.000
G1 X-6.236 Y10.041 F360.000 E12.10849
G1 X-5.815 Y10.041 E12.11438
G1 X-5.798 Y10.058 E12.11472
G1 X-5.394 Y10.041 E12.12038
G1 X-5.377 Y10.058 E12.12072
G1 X-4.973 Y10.041 E12.12637
G1 X-4.956 Y10.058 E12.12672
G1 X-4.552 Y10.041 E12.13237
G1 X-4.535 Y10.058 E12.13271
G1 X-4.131 Y10.041 E12.13837
G1 X-4.114 Y10.058 E12.13871
G1 X-3.710 Y10.041 E12.14437
G1 X-3.693 Y10.058 E12.14471
G1 X-3.289 Y10.041 E12.15036
G1 X-3.272 Y10.058 E12.15071
G1 X-2.868 Y10.041 E12.15636
G1 X-2.851 Y10.058 E12.15670
G1 X-2.447 Y10.041 E12.16236
G1 X-2.430 Y10.058 E12.16270
G1 X-2.026 Y10.041 E12.16835
G1 X-2.009 Y10.058 E12.16870
G1 X-1.606 Y10.041 E12.17435
G1 X-1.588 Y10.058 E12.17469
G1 X-1.185 Y10.041 E12.18035
G1 X-1.167 Y10.058 E12.18069
G1 X-0.764 Y10.041 E12.18635
G1 X-0.746 Y10.058 E12.18669
G1 X-0.343 Y10.041 E12.19234
G1 X-0.325 Y10.058 E12.19269
G1 X0.078 Y10.041 E12.19834
G1 X0.095 Y10.058 E12.19868
G1 X0.499 Y10.041 E12.20434
G1 X0.516 Y10.058 E12.20468
G1 X0.920 Y10.041 E12.21033
G1 X0.937 Y10.058 E12.21068
G1 X1.341 Y10.041 E12.21633
G1 X1.358 Y10.058 E12.21667
G1 X1.762 Y10.041 E12.22233
G1 X1.779 Y10.058 E12.22267
G1 X2.183 Y10.041 E12.22833
G1 X2.200 Y10.058 E12.22867
G1 X2.604 Y10.041 E12.23432
G1 X2.621 Y10.058 E12.23467
G1 X3.025 Y10.041 E12.24032
G1 X3.042 Y10.058 E12.24066
G1 X3.446 Y10.041 E12.24632
G1 X3.463 Y10.058 E12.24666
G1 X3.867 Y10.041 E12.25231
G1 X3.884 Y10.058 E12.25266
G1 X4.287 Y10.041 E12.25831
G1 X4.305 Y10.058 E12.25865
G1 X4.708 Y10.041 E12.26431
G1 X4.726 Y10.058 E12.26465
G1 X5.129 Y10.041 E12.27031
G1 X5.147 Y10.058 E12.27065
G1 X6.392 Y10.041 E12.28808
G1 X6.409 Y10.058 E12.28843
G1 X7.543 Y8.677 F7800.000
G1 X7.457 Y8.591 F360.000 E12.29174
G1 X7.543 Y7.858 E12.31183
G1 X7.457 Y7.772 E12.31514
G1 X7.543 Y7.039 E12.33523
G1 X7.457 Y6.953 E12.33854
G1 X7.543 Y6.219 E12.35863
G1 X7.457 Y6.133 E12.36194
G1 X7.543 Y5.400 E12.38203
G1 X7.457 Y5.314 E12.38534
G1 X7.543 Y4.580 E12.40543
G1 X7.457 Y4.494 E12.40874
G1 X7.543 Y3.761 E12.42883
G1 X7.457 Y3.675 E12.43214
G1 X7.543 Y2.942 E12.45223
G1 X7.457 Y2.855 E12.45554
G1 X7.543 Y2.122 E12.47563
G1 X7.457 Y2.036 E12.47894
G1 X7.543 Y1.303 E12.49903
G1 X7.457 Y1.217 E12.50234
G1 X7.543 Y0.483 E12.52243
G1 X7.457 Y0.397 E12.52574
G1 X7.543 Y-0.336 E12.54583
G1 X7.457 Y-0.422 E12.54914
G1 X7.543 Y-1.156 E12.56923
G1 X7.457 Y-1.242 E12.57254
G1 X7.543 Y-1.975 E12.59263
G1 X7.457 Y-2.061 E12.59594
G1 X7.543 Y-2.794 E12.61603
G1 X7.457 Y-2.880 E12.61934
G1 X7.543 Y-3.614 E12.63943
G1 X7.457 Y-3.700 E12.64274
G1 X7.543 Y-4.433 E12.66283
G1 X7.457 Y-4.519 E12.66614
G1 X7.543 Y-5.253 E12.68623
G1 X7.457 Y-5.339 E12.68954
G1 X7.543 Y-6.072 E12.70963
G1 X7.457 Y-6.158 E12.71294
G1 X7.543 Y-6.891 E12.73303
G1 X7.457 Y-6.977 E12.73634
G1 X7.543 Y-7.711 E12.75643
G1 X7.457 Y-7.797 E12.75974
G1 X7.543 Y-8.530 E12.77983
G1 X7.457 Y-8.616 E12.78314
G1 X6.077 Y-10.058 F7800.000
G1 X6.094 Y-10.041 F360.000 E12.78348
G1 X5.656 Y-10.058 F7800.000
G1 X5.673 Y-10.041 F360.000 E12.78382
G1 X5.235 Y-10.058 F7800.000
G1 X5.252 Y-10.041 F360.000 E12.78416
G1 X4.814 Y-10.058 F7800.000
G1 X4.831 Y-10.041 F360.000 E12.78450
G1 X4.393 Y-10.058 F7800.000
G1 X4.410 Y-10.041 F360.000 E12.78484
G1 X3.972 Y-10.058 F7800.000
G1 X3.989 Y-10.041 F360.000 E12.78518
G1 X3.551 Y-10.058 F7800.000
G1 X3.569 Y-10.041 F360.000 E12.78552
G1 X3.130 Y-10.058 F7800.000
G1 X3.148 Y-10.041 F360.000 E12.78585
G1 X2.709 Y-10.058 F7800.000
G1 X2.727 Y-10.041 F360.000 E12.78619
G1 X2.288 Y-10.058 F7800.000
G1 X2.306 Y-10.041 F360.000 E12.78653
G1 X1.868 Y-10.058 F7800.000
G1 X1.885 Y-10.041 F360.000 E12.78687
G1 X1.447 Y-10.058 F7800.000
G1 X1.464 Y-10.041 F360.000 E12.78721
G1 X1.026 Y-10.058 F7800.000
G1 X1.043 Y-10.041 F360.000 E12.78755
G1 X0.605 Y-10.058 F7800.000
G1 X0.622 Y-10.041 F360.000 E12.78789
G1 X0.184 Y-10.058 F7800.000
G1 X0.201 Y-10.041 F360.000 E12.78823
G1 X-0.237 Y-10.058 F7800.000
G1 X-0.220 Y-10.041 F360.000 E12.78857
G1 X-0.658 Y-10.058 F7800.000
G1 X-0.641 Y-10.041 F360.000 E12.78891
G1 X-1.079 Y-10.058 F7800.000
G1 X-1.062 Y-10.041 F360.000 E12.78925
G1 X-1.500 Y-10.058 F7800.000
G1 X-1.483 Y-10.041 F360.000 E12.78959
G1 X-1.921 Y-10.058 F7800.000
G1 X-1.904 Y-10.041 F360.000 E12.78993
G1 X-2.342 Y-10.058 F7800.000
G1 X-2.325 Y-10.041 F360.000 E12.79027
G1 X-2.763 Y-10.058 F7800.000
G1 X-2.745 Y-10.041 F360.000 E12.79061
G1 X-3.184 Y-10.058 F7800.000
G1 X-3.166 Y-10.041 F360.000 E12.79095
G1 X-3.605 Y-10.058 F7800.000
G1 X-3.587 Y-10.041 F360.000 E12.79129
G1 X-4.026 Y-10.058 F7800.000
G1 X-4.008 Y-10.041 F360.000 E12.79163
G1 X-4.446 Y-10.058 F7800.000
G1 X-4.429 Y-10.041 F360.000 E12.79197
G1 X-4.867 Y-10.058 F7800.000
G1 X-4.850 Y-10.041 F360.000 E12.79231
G1 X-5.288 Y-10.058 F7800.000
G1 X-5.271 Y-10.041 F360.000 E12.79265
G1 X-5.709 Y-10.058 F7800.000
G1 X-5.692 Y-10.041 F360.000 E12.79299
G1 X-6.113 Y-10.041 F7800.000
G1 X-6.130 Y-10.058 F360.000 E12.79334
M140 S50 ; set bed temperature
G1 F1800.000 E11.79334
G92 E0
G1 Z0.600 F7800.000
G1 X-6.327 Y-9.970
G1 F1800.000 E1.00000
G1 X6.327 Y-9.970 F1166.206 E1.38949
G1 X6.327 Y9.970 E2.00320
G1 X-6.327 Y9.970 E2.39268
G1 X-6.327 Y-9.871 E3.00337
G1 X-5.760 Y-9.642 F7800.000
G1 F1800.000 E2.00337
G92 E0
G1 X-8.018 Y10.075 F7800.000
G1 F1800.000 E1.00000
G1 X-8.018 Y-10.075 F1166.206 E1.62018
G1 X-6.982 Y-10.075 E1.65208
G1 X-6.982 Y10.075 E2.27227
G1 X-7.920 Y10.075 E2.30115
G1 F1800.000 E1.30115
G92 E0
G1 X8.018 Y-10.075 F7800.000
G1 F1800.000 E1.00000
G1 X8.018 Y10.075 F1166.206 E1.62018
G1 X6.982 Y10.075 E1.65208
G1 X6.982 Y-10.075 E2.27227
G1 X7.920 Y-10.075 E2.30115
G1 X8.673 Y-10.729 F7800.000
G1 X8.673 Y10.729 F1166.206 E2.96162
G1 X-8.673 Y10.729 E3.49549
G1 X-8.673 Y-10.729 E4.15596
G1 X8.575 Y-10.729 E4.68681
G1 X8.346 Y-10.163 F7800.000
G1 F1800.000 E3.68681
G92 E0
G1 X-7.448 Y9.286 F7800.000
G1 F1800.000 E1.00000
G1 X-7.552 Y9.390 F777.471 E1.00225
G1 X-7.552 Y8.927 E1.00935
G1 X-7.448 Y8.824 E1.01160
G1 X-7.552 Y8.465 E1.01733
G1 X-7.448 Y8.362 E1.01958
G1 X-7.552 Y8.003 E1.02532
G1 X-7.448 Y7.900 E1.02757
G1 X-7.552 Y7.541 E1.03330
G1 X-7.448 Y7.438 E1.03555
G1 X-7.552 Y7.079 E1.04128
G1 X-7.448 Y6.976 E1.04353
G1 X-7.552 Y6.617 E1.04927
G1 X-7.448 Y6.514 E1.05152
G1 X-7.552 Y6.155 E1.05725
G1 X-7.448 Y6.051 E1.05950
G1 X-7.552 Y5.693 E1.06524
G1 X-7.448 Y5.589 E1.06749
G1 X-7.552 Y5.231 E1.07322
G1 X-7.448 Y5.127 E1.07547
G1 X-7.552 Y4.769 E1.08120
G1 X-7.448 Y4.665 E1.08345
G1 X-7.552 Y4.307 E1.08919
G1 X-7.448 Y4.203 E1.09144
G1 X-7.552 Y3.845 E1.09717
G1 X-7.448 Y3.741 E1.09942
G1 X-7.552 Y3.383 E1.10515
G1 X-7.448 Y3.279 E1.10740
G1 X-7.552 Y2.920 E1.11314
G1 X-7.448 Y2.817 E1.11539
G1 X-7.552 Y2.458 E1.12112
G1 X-7.448 Y2.355 E1.12337
G1 X-7.552 Y1.996 E1.12911
G1 X-7.448 Y1.893 E1.13136
G1 X-7.552 Y1.534 E1.13709
G1 X-7.448 Y1.431 E1.13934
G1 X-7.552 Y1.072 E1.14507
G1 X-7.448 Y0.969 E1.14732
G1 X-7.552 Y0.610 E1.15306
G1 X-7.448 Y0.507 E1.15531
G1 X-7.552 Y0.148 E1.16104
G1 X-7.448 Y0.044 E1.16329
G1 X-7.552 Y-0.314 E1.16902
G1 X-7.448 Y-0.418 E1.17127
G1 X-7.552 Y-0.776 E1.17701
G1 X-7.448 Y-0.880 E1.17926
G1 X-7.552 Y-1.238 E1.18499
G1 X-7.448 Y-1.342 E1.18724
G1 X-7.552 Y-1.700 E1.19298
G1 X-7.448 Y-1.804 E1.19523
G1 X-7.552 Y-2.162 E1.20096
G1 X-7.448 Y-2.266 E1.20321
G1 X-7.552 Y-2.624 E1.20894
G1 X-7.448 Y-2.728 E1.21119
G1 X-7.552 Y-3.087 E1.21693
G1 X-7.448 Y-3.190 E1.21918
G1 X-7.552 Y-3.549 E1.22491
G1 X-7.448 Y-3.652 E1.22716
G1 X-7.552 Y-4.011 E1.23289
G1 X-7.448 Y-4.114 E1.23514
G1 X-7.552 Y-4.473 E1.24088
G1 X-7.448 Y-4.576 E1.24313
G1 X-7.552 Y-4.935 E1.24886
G1 X-7.448 Y-5.038 E1.25111
G1 X-7.552 Y-5.397 E1.25685
G1 X-7.448 Y-5.500 E1.25910
G1 X-7.552 Y-5.859 E1.26483
G1 X-7.448 Y-5.962 E1.26708
G1 X-7.552 Y-6.321 E1.27281
G1 X-7.448 Y-6.425 E1.27506
G1 X-7.552 Y-6.783 E1.28080
G1 X-7.448 Y-6.887 E1.28305
G1 X-7.552 Y-7.245 E1.28878
G1 X-7.448 Y-7.349 E1.29103
G1 X-7.552 Y-7.707 E1.29676
G1 X-7.448 Y-7.811 E1.29901
G1 X-7.552 Y-8.169 E1.30475
G1 X-7.448 Y-8.273 E1.30700
G1 X-7.552 Y-8.631 E1.31273
G1 X-7.448 Y-8.735 E1.31498
G1 X-7.552 Y-9.093 E1.32072
G1 X-7.448 Y-9.197 E1.32297
G1 X-7.552 Y-9.556 E1.32870
G1 X-7.499 Y-9.608 E1.32985
G1 F1800.000 E0.32985
G92 E0
G1 X7.552 Y9.534 F7800.000
G1 F1800.000 E1.00000
G1 X7.478 Y9.608 F777.471 E1.00160
G1 X7.448 Y9.176 E1.00825
G1 X7.552 Y9.072 E1.01050
G1 X7.448 Y8.714 E1.01622
G1 X7.552 Y8.610 E1.01847
G1 X7.448 Y8.252 E1.02419
G1 X7.552 Y8.148 E1.02644
G1 X7.448 Y7.790 E1.03216
G1 X7.552 Y7.686 E1.03441
G1 X7.448 Y7.328 E1.04013
G1 X7.552 Y7.224 E1.04238
G1 X7.448 Y6.866 E1.04810
G1 X7.552 Y6.762 E1.05035
G1 X7.448 Y6.403 E1.05607
G1 X7.552 Y6.300 E1.05832
G1 X7.448 Y5.941 E1.06404
G1 X7.552 Y5.838 E1.06629
G1 X7.448 Y5.479 E1.07201
G1 X7.552 Y5.376 E1.07426
G1 X7.448 Y5.017 E1.07998
G1 X7.552 Y4.914 E1.08223
G1 X7.448 Y4.555 E1.08795
G1 X7.552 Y4.452 E1.09020
G1 X7.448 Y4.093 E1.09592
G1 X7.552 Y3.990 E1.09817
G1 X7.448 Y3.631 E1.10389
G1 X7.552 Y3.527 E1.10614
G1 X7.448 Y3.169 E1.11186
G1 X7.552 Y3.065 E1.11411
G1 X7.448 Y2.707 E1.11983
G1 X7.552 Y2.603 E1.12208
G1 X7.448 Y2.245 E1.12781
G1 X7.552 Y2.141 E1.13005
G1 X7.448 Y1.783 E1.13578
G1 X7.552 Y1.679 E1.13802
G1 X7.448 Y1.321 E1.14375
G1 X7.552 Y1.217 E1.14599
G1 X7.448 Y0.859 E1.15172
G1 X7.552 Y0.755 E1.15396
G1 X7.448 Y0.396 E1.15969
G1 X7.552 Y0.293 E1.16193
G1 X7.448 Y-0.066 E1.16766
G1 X7.552 Y-0.169 E1.16990
G1 X7.448 Y-0.528 E1.17563
G1 X7.552 Y-0.631 E1.17787
G1 X7.448 Y-0.990 E1.18360
G1 X7.552 Y-1.093 E1.18584
G1 X7.448 Y-1.452 E1.19157
G1 X7.552 Y-1.555 E1.19381
G1 X7.448 Y-1.914 E1.19954
G1 X7.552 Y-2.017 E1.20178
G1 X7.448 Y-2.376 E1.20751
G1 X7.552 Y-2.479 E1.20975
G1 X7.448 Y-2.838 E1.21548
G1 X7.552 Y-2.942 E1.21772
G1 X7.448 Y-3.300 E1.22345
G1 X7.552 Y-3.404 E1.22569
G1 X7.448 Y-3.762 E1.23142
G1 X7.552 Y-3.866 E1.23366
G1 X7.448 Y-4.224 E1.23939
G1 X7.552 Y-4.328 E1.24163
G1 X7.448 Y-4.686 E1.24736
G1 X7.552 Y-4.790 E1.24960
G1 X7.448 Y-5.148 E1.25533
G1 X7.552 Y-5.252 E1.25757
G1 X7.448 Y-5.610 E1.26330
G1 X7.552 Y-5.714 E1.26554
G1 X7.448 Y-6.073 E1.27127
G1 X7.552 Y-6.176 E1.27351
G1 X7.448 Y-6.535 E1.27924
G1 X7.552 Y-6.638 E1.28148
G1 X7.448 Y-6.997 E1.28721
G1 X7.552 Y-7.100 E1.28945
G1 X7.448 Y-7.459 E1.29518
G1 X7.552 Y-7.562 E1.29742
G1 X7.448 Y-7.921 E1.30315
G1 X7.552 Y-8.024 E1.30539
G1 X7.448 Y-8.383 E1.31112
G1 X7.552 Y-8.486 E1.31336
G1 X7.448 Y-8.845 E1.31909
G1 X7.552 Y-8.949 E1.32134
G1 X7.448 Y-9.307 E1.32706
G1 X7.552 Y-9.411 E1.32931
G1 F1800.000 E0.32931
G92 E0
G1 Z0.900 F7800.000
G1 X6.327 Y-10.184
G1 F1800.000 E1.00000
G1 X6.327 Y10.184 F1189.827 E1.62689
G1 X-6.327 Y10.184 E2.01638
G1 X-6.327 Y-10.184 E2.64327
G1 X6.229 Y-10.184 E3.02974
G1 X6.000 Y-9.617 F7800.000
G1 X-8.018 Y-10.375
G1 X-6.982 Y-10.375 F1189.827 E3.06164
G1 X-6.982 Y10.375 E3.70029
G1 X-8.018 Y10.375 E3.73219
G1 X-8.018 Y-10.277 E4.36782
G1 X6.982 Y-10.375 F7800.000
G1 X8.018 Y-10.375 F1189.827 E4.39972
G1 X8.018 Y10.375 E5.03837
G1 X6.982 Y10.375 E5.07027
G1 X6.982 Y-10.277 E5.70590
G1 X8.673 Y-11.029 F7800.000
G1 X8.673 Y11.029 F1189.827 E6.38484
G1 X-8.673 Y11.029 E6.91871
G1 X-8.673 Y-11.029 E7.59765
G1 X8.575 Y-11.029 E8.12850
G1 X8.346 Y-10.463 F7800.000
G1 F1800.000 E7.12850
G92 E0
G1 X-7.448 Y9.575 F7800.000
G1 F1800.000 E1.00000
G1 X-7.552 Y9.472 F793.218 E1.00225
G1 X-7.448 Y9.113 E1.00798
G1 X-7.552 Y9.010 E1.01023
G1 X-7.448 Y8.651 E1.01597
G1 X-7.552 Y8.548 E1.01822
