; generated by Slic3r 1.0.0RC1 on 2013-12-31 at 10:30:50

; layer_height = 0.3
; perimeters = 2
; top_solid_layers = 3
; bottom_solid_layers = 3
; fill_density = 0.4
; perimeter_speed = 30
; infill_speed = 60
; travel_speed = 130
; nozzle_diameter = 0.5
; filament_diameter = 2.85
; extrusion_multiplier = 1
; perimeters extrusion width = 0.50mm
; infill extrusion width = 0.70mm
; solid infill extrusion width = 0.70mm
; top infill extrusion width = 0.70mm
; first layer extrusion width = 0.60mm

G21 ; set units to millimeters
M107
M104 S0
M83
M140 S70
G28
G1 Y98 F9000
M190 S70
G1 X5 Y98 Z150 F9000
M104 S210
G1 X5 Y98 Z1 F9000
G1 Z0.05
M109 S210
G1Z5
G1X15
;G1E5F50
G90 ; use absolute coordinates
G92 E0
M82 ; use absolute distances for extrusion
G1 F1800.000 E-1.00000
G92 E0
G1 Z0.300 F7800.000
G1 X1.000 Y15.580 F7800.000
G1 E1.00000 F1800.000
G1 X-13.000 Y15.580 E1.38089 F540.000
G1 X-14.280 Y15.450 E1.41590
G1 X-15.520 Y15.080 E1.45110
G1 X-16.650 Y14.470 E1.48604
G1 X-17.650 Y13.650 E1.52122
G1 X-18.470 Y12.650 E1.55641
G1 X-19.080 Y11.520 E1.59134
G1 X-19.450 Y10.280 E1.62655
G1 X-19.580 Y9.000 E1.66155
G1 X-19.580 Y-9.000 E2.15127
G1 X-19.450 Y-10.280 E2.18628
G1 X-19.080 Y-11.520 E2.22148
G1 X-18.470 Y-12.650 E2.25642
G1 X-17.650 Y-13.650 E2.29160
G1 X-16.650 Y-14.470 E2.32679
G1 X-15.520 Y-15.080 E2.36173
G1 X-14.280 Y-15.450 E2.39693
G1 X-13.000 Y-15.580 E2.43194
G1 X1.000 Y-15.580 E2.81283
G1 X2.060 Y-15.490 E2.84177
G1 X9.360 Y-14.300 E3.04300
G1 X10.640 Y-13.960 E3.07903
G1 X11.820 Y-13.370 E3.11493
G1 X12.860 Y-12.550 E3.15096
G1 X13.710 Y-11.550 E3.18667
G1 X14.350 Y-10.390 E3.22271
G1 X14.750 Y-9.130 E3.25868
G1 X14.880 Y-7.810 E3.29476
G1 X14.880 Y7.800 E3.71946
G1 X14.750 Y9.110 E3.75527
G1 X14.350 Y10.380 E3.79150
G1 X13.720 Y11.530 E3.82717
G1 X12.860 Y12.540 E3.86327
G1 X11.820 Y13.360 E3.89930
G1 X10.640 Y13.950 E3.93519
G1 X9.370 Y14.290 E3.97096
G1 X2.070 Y15.490 E4.17223
G1 X1.086 Y15.573 E4.19909
G1 F1800.000 E3.19909
G92 E0
G1 X1.359 Y9.868 F7800.000
G1 E1.00000 F1800.000
G1 X-13.359 Y9.868 E1.40045 F540.000
G1 X-13.868 Y9.359 E1.42001
G1 X-13.868 Y7.641 E1.46678
G1 X-13.359 Y7.132 E1.48634
G1 X-2.207 Y7.132 E1.78977
G1 X-1.868 Y6.793 E1.80281
G1 X-1.868 Y-6.793 E2.17245
G1 X-2.207 Y-7.132 E2.18549
G1 X-13.359 Y-7.132 E2.48892
G1 X-13.868 Y-7.641 E2.50848
G1 X-13.868 Y-9.359 E2.55524
G1 X-13.359 Y-9.868 E2.57480
G1 X1.359 Y-9.868 E2.97526
G1 X1.868 Y-9.359 E2.99481
G1 X1.868 Y-9.007 E3.00441
G1 X2.207 Y-8.668 E3.01745
G1 X8.668 Y-8.668 E3.19325
G1 X9.177 Y-8.159 E3.21281
G1 X9.177 Y-6.441 E3.25957
G1 X8.668 Y-5.932 E3.27913
G1 X2.207 Y-5.932 E3.45493
G1 X1.868 Y-5.593 E3.46797
G1 X1.868 Y5.593 E3.77232
G1 X2.207 Y5.932 E3.78536
G1 X8.668 Y5.932 E3.96116
G1 X9.177 Y6.441 E3.98072
G1 X9.177 Y8.159 E4.02748
G1 X8.668 Y8.668 E4.04704
G1 X2.207 Y8.668 E4.22284
G1 X1.868 Y9.007 E4.23588
G1 X1.868 Y9.359 E4.24547
G1 X1.421 Y9.806 E4.26267
G1 X1.120 Y9.289 F7800.000
G1 X-13.120 Y9.289 E4.65009 F540.000
G1 X-13.289 Y9.120 E4.65660
G1 X-13.289 Y7.880 E4.69033
G1 X-13.120 Y7.711 E4.69685
G1 X-1.628 Y7.711 E5.00950
G1 X-1.289 Y7.372 E5.02254
G1 X-1.289 Y-7.372 E5.42367
G1 X-1.628 Y-7.711 E5.43670
G1 X-13.120 Y-7.711 E5.74935
G1 X-13.289 Y-7.880 E5.75587
G1 X-13.289 Y-9.120 E5.78960
G1 X-13.120 Y-9.289 E5.79612
G1 X1.120 Y-9.289 E6.18353
G1 X1.289 Y-9.120 E6.19005
G1 X1.289 Y-8.428 E6.20887
G1 X1.628 Y-8.089 E6.22191
G1 X8.429 Y-8.089 E6.40693
G1 X8.598 Y-7.920 E6.41345
G1 X8.598 Y-6.680 E6.44717
G1 X8.429 Y-6.511 E6.45369
G1 X1.628 Y-6.511 E6.63871
G1 X1.289 Y-6.172 E6.65175
G1 X1.289 Y6.172 E6.98758
G1 X1.628 Y6.511 E7.00062
G1 X8.429 Y6.511 E7.18564
G1 X8.598 Y6.680 E7.19216
G1 X8.598 Y7.920 E7.22588
G1 X8.429 Y8.089 E7.23240
G1 X1.628 Y8.089 E7.41742
G1 X1.289 Y8.428 E7.43046
G1 X1.289 Y9.120 E7.44928
G1 X1.181 Y9.228 E7.45344
G1 X0.700 Y8.700 F7800.000
G1 X-0.700 Y8.700 E7.49152 F540.000
G1 X-0.700 Y-8.700 E7.96492
G1 X0.700 Y-8.700 E8.00301
G1 X0.700 Y8.613 E8.47404
G1 X0.199 Y8.411 F7800.000
G1 F1800.000 E7.47404
G92 E0
G1 X-12.930 Y-8.145 F7800.000
G1 E1.00000 F1800.000
G1 X-12.715 Y-8.248 E1.00649 F540.000
G1 X-12.590 Y-8.434 E1.01257
G1 X-12.500 Y-8.501 E1.01562
G1 X-12.426 Y-8.490 E1.01766
G1 X-12.277 Y-8.510 E1.02176
G1 X-12.137 Y-8.490 E1.02561
G1 X-11.988 Y-8.510 E1.02972
G1 X-11.848 Y-8.490 E1.03357
G1 X-11.698 Y-8.510 E1.03767
G1 X-11.558 Y-8.490 E1.04152
G1 X-11.409 Y-8.510 E1.04562
G1 X-11.269 Y-8.490 E1.04947
G1 X-11.120 Y-8.510 E1.05357
G1 X-10.980 Y-8.490 E1.05742
G1 X-10.830 Y-8.510 E1.06152
G1 X-10.691 Y-8.490 E1.06537
G1 X-10.541 Y-8.510 E1.06948
G1 X-10.401 Y-8.490 E1.07333
G1 X-10.252 Y-8.510 E1.07743
G1 X-10.112 Y-8.490 E1.08128
G1 X-9.963 Y-8.510 E1.08538
G1 X-9.823 Y-8.490 E1.08923
G1 X-9.673 Y-8.510 E1.09333
G1 X-9.533 Y-8.490 E1.09718
G1 X-9.384 Y-8.510 E1.10128
G1 X-9.244 Y-8.490 E1.10513
G1 X-9.095 Y-8.510 E1.10924
G1 X-8.955 Y-8.490 E1.11308
G1 X-8.806 Y-8.510 E1.11719
G1 X-8.666 Y-8.490 E1.12104
G1 X-8.516 Y-8.510 E1.12514
G1 X-8.376 Y-8.490 E1.12899
G1 X-8.227 Y-8.510 E1.13309
G1 X-8.087 Y-8.490 E1.13694
G1 X-7.938 Y-8.510 E1.14104
G1 X-7.798 Y-8.490 E1.14489
G1 X-7.649 Y-8.510 E1.14899
G1 X-7.509 Y-8.490 E1.15284
G1 X-7.359 Y-8.510 E1.15695
G1 X-7.219 Y-8.490 E1.16080
G1 X-7.070 Y-8.510 E1.16490
G1 X-6.930 Y-8.490 E1.16875
G1 X-6.781 Y-8.510 E1.17285
G1 X-6.641 Y-8.490 E1.17670
G1 X-6.491 Y-8.510 E1.18080
G1 X-6.351 Y-8.490 E1.18465
G1 X-6.202 Y-8.510 E1.18875
G1 X-6.062 Y-8.490 E1.19260
G1 X-5.913 Y-8.510 E1.19671
G1 X-5.773 Y-8.490 E1.20056
G1 X-5.624 Y-8.510 E1.20466
G1 X-5.484 Y-8.490 E1.20851
G1 X-5.334 Y-8.510 E1.21261
G1 X-5.194 Y-8.490 E1.21646
G1 X-5.045 Y-8.510 E1.22056
G1 X-4.905 Y-8.490 E1.22441
G1 X-4.756 Y-8.510 E1.22851
G1 X-4.616 Y-8.490 E1.23236
G1 X-4.467 Y-8.510 E1.23646
G1 X-4.327 Y-8.490 E1.24031
G1 X-4.177 Y-8.510 E1.24442
G1 X-4.037 Y-8.490 E1.24827
G1 X-3.888 Y-8.510 E1.25237
G1 X-3.748 Y-8.490 E1.25622
G1 X-3.599 Y-8.510 E1.26032
G1 X-3.459 Y-8.490 E1.26417
G1 X-3.309 Y-8.510 E1.26827
G1 X-3.170 Y-8.490 E1.27212
G1 X-3.020 Y-8.510 E1.27622
G1 X-2.880 Y-8.490 E1.28007
G1 X-2.731 Y-8.510 E1.28418
G1 X-2.591 Y-8.490 E1.28803
G1 X-2.442 Y-8.510 E1.29213
G1 X-2.302 Y-8.490 E1.29598
G1 X-2.152 Y-8.510 E1.30008
G1 X-2.012 Y-8.490 E1.30393
G1 X-1.863 Y-8.510 E1.30803
G1 X-1.723 Y-8.490 E1.31188
G1 X-1.574 Y-8.510 E1.31598
G1 X-1.500 Y-8.499 E1.31803
G1 X-1.410 Y-8.566 E1.32108
G1 X-1.285 Y-8.752 E1.32716
G1 X-1.070 Y-8.855 E1.33365
G1 X-1.500 Y-8.499 F7800.000
G1 X-1.434 Y-8.409 E1.33668 F540.000
G1 X-1.241 Y-8.277 E1.34305
G1 X-1.145 Y-8.066 E1.34935
G1 F1800.000 E0.34935
G92 E0
G1 X1.145 Y-7.789 F7800.000
G1 E1.00000 F1800.000
G1 X1.157 Y-7.633 E1.00425 F540.000
G1 X1.511 Y-7.292 E1.01763
G1 X1.723 Y-7.308 E1.02342
G1 X1.800 Y-7.292 E1.02557
G1 X2.012 Y-7.308 E1.03136
G1 X2.089 Y-7.292 E1.03350
G1 X2.302 Y-7.308 E1.03929
G1 X2.379 Y-7.292 E1.04144
G1 X2.591 Y-7.308 E1.04723
G1 X2.668 Y-7.292 E1.04937
G1 X2.880 Y-7.308 E1.05516
G1 X2.957 Y-7.292 E1.05730
G1 X3.170 Y-7.308 E1.06309
G1 X3.247 Y-7.292 E1.06524
G1 X3.459 Y-7.308 E1.07103
G1 X3.536 Y-7.292 E1.07317
G1 X3.748 Y-7.308 E1.07896
G1 X3.825 Y-7.292 E1.08110
G1 X4.037 Y-7.308 E1.08690
G1 X4.114 Y-7.292 E1.08904
G1 X4.327 Y-7.308 E1.09483
G1 X4.404 Y-7.292 E1.09697
G1 X4.616 Y-7.308 E1.10276
G1 X4.693 Y-7.292 E1.10491
G1 X4.905 Y-7.308 E1.11070
G1 X4.982 Y-7.292 E1.11284
G1 X5.194 Y-7.308 E1.11863
G1 X5.271 Y-7.292 E1.12077
G1 X5.484 Y-7.308 E1.12656
G1 X5.561 Y-7.292 E1.12871
G1 X5.773 Y-7.308 E1.13450
G1 X5.850 Y-7.292 E1.13664
G1 X6.062 Y-7.308 E1.14243
G1 X6.139 Y-7.292 E1.14458
G1 X6.351 Y-7.308 E1.15037
G1 X6.429 Y-7.292 E1.15251
G1 X6.641 Y-7.308 E1.15830
G1 X6.718 Y-7.292 E1.16044
G1 X6.930 Y-7.308 E1.16623
G1 X7.007 Y-7.292 E1.16838
G1 X7.219 Y-7.308 E1.17417
G1 X7.296 Y-7.292 E1.17631
G1 X7.509 Y-7.308 E1.18210
G1 X7.586 Y-7.292 E1.18425
G1 X7.804 Y-7.307 E1.19019
G1 X7.897 Y-7.366 E1.19320
G1 X8.087 Y-7.607 E1.20154
G1 X8.270 Y-7.655 E1.20670
G1 X7.804 Y-7.307 F7800.000
G1 X7.875 Y-7.209 E1.20998 F540.000
G1 X8.068 Y-7.077 E1.21635
G1 X8.164 Y-6.866 E1.22265
G1 X1.503 Y-7.293 F7800.000
G1 X1.243 Y-7.054 E1.23227 F540.000
G1 X1.222 Y-6.983 E1.23429
G1 X1.039 Y-6.855 E1.24037
G1 F1800.000 E0.24037
G92 E0
G1 X-12.500 Y-8.501 F7800.000
G1 E1.00000 F1800.000
G1 X-12.566 Y-8.591 E1.00303 F540.000
G1 X-12.759 Y-8.723 E1.00940
G1 X-12.855 Y-8.934 E1.01570
G1 F1800.000 E0.01570
G92 E0
G1 X-12.855 Y8.066 F7800.000
G1 E1.00000 F1800.000
G1 X-12.759 Y8.277 E1.00630 F540.000
G1 X-12.566 Y8.409 E1.01267
G1 X-12.499 Y8.502 E1.01578
G1 X-12.942 Y8.855 F7800.000
G1 X-12.740 Y8.775 E1.02170 F540.000
G1 X-12.591 Y8.566 E1.02869
G1 X-12.499 Y8.502 E1.03175
G1 X-12.277 Y8.490 E1.03779
G1 X-12.162 Y8.510 E1.04097
G1 X-11.988 Y8.490 E1.04574
G1 X-11.873 Y8.510 E1.04892
G1 X-11.698 Y8.490 E1.05369
G1 X-11.583 Y8.510 E1.05687
G1 X-11.409 Y8.490 E1.06164
G1 X-11.294 Y8.510 E1.06482
G1 X-11.120 Y8.490 E1.06959
G1 X-11.005 Y8.510 E1.07276
G1 X-10.830 Y8.490 E1.07754
G1 X-10.715 Y8.510 E1.08071
G1 X-10.541 Y8.490 E1.08548
G1 X-10.426 Y8.510 E1.08866
G1 X-10.252 Y8.490 E1.09343
G1 X-10.137 Y8.510 E1.09661
G1 X-9.963 Y8.490 E1.10138
G1 X-9.848 Y8.510 E1.10456
G1 X-9.673 Y8.490 E1.10933
G1 X-9.558 Y8.510 E1.11251
G1 X-9.384 Y8.490 E1.11728
G1 X-9.269 Y8.510 E1.12046
G1 X-9.095 Y8.490 E1.12523
G1 X-8.980 Y8.510 E1.12840
G1 X-8.806 Y8.490 E1.13317
G1 X-8.691 Y8.510 E1.13635
G1 X-8.516 Y8.490 E1.14112
G1 X-8.401 Y8.510 E1.14430
G1 X-8.227 Y8.490 E1.14907
G1 X-8.112 Y8.510 E1.15225
G1 X-7.938 Y8.490 E1.15702
G1 X-7.823 Y8.510 E1.16020
G1 X-7.649 Y8.490 E1.16497
G1 X-7.533 Y8.510 E1.16815
G1 X-7.359 Y8.490 E1.17292
G1 X-7.244 Y8.510 E1.17609
G1 X-7.070 Y8.490 E1.18087
G1 X-6.955 Y8.510 E1.18404
G1 X-6.781 Y8.490 E1.18881
G1 X-6.666 Y8.510 E1.19199
G1 X-6.491 Y8.490 E1.19676
G1 X-6.376 Y8.510 E1.19994
G1 X-6.202 Y8.490 E1.20471
G1 X-6.087 Y8.510 E1.20789
G1 X-5.913 Y8.490 E1.21266
G1 X-5.798 Y8.510 E1.21584
G1 X-5.624 Y8.490 E1.22061
G1 X-5.509 Y8.510 E1.22379
G1 X-5.334 Y8.490 E1.22856
G1 X-5.219 Y8.510 E1.23173
G1 X-5.045 Y8.490 E1.23650
G1 X-4.930 Y8.510 E1.23968
G1 X-4.756 Y8.490 E1.24445
G1 X-4.641 Y8.510 E1.24763
G1 X-4.467 Y8.490 E1.25240
G1 X-4.351 Y8.510 E1.25558
G1 X-4.177 Y8.490 E1.26035
G1 X-4.062 Y8.510 E1.26353
G1 X-3.888 Y8.490 E1.26830
G1 X-3.773 Y8.510 E1.27148
G1 X-3.599 Y8.490 E1.27625
G1 X-3.484 Y8.510 E1.27943
G1 X-3.309 Y8.490 E1.28420
G1 X-3.194 Y8.510 E1.28737
G1 X-3.020 Y8.490 E1.29214
G1 X-2.905 Y8.510 E1.29532
G1 X-2.731 Y8.490 E1.30009
G1 X-2.616 Y8.510 E1.30327
G1 X-2.442 Y8.490 E1.30804
G1 X-2.327 Y8.510 E1.31122
G1 X-2.152 Y8.490 E1.31599
G1 X-2.037 Y8.510 E1.31917
G1 X-1.863 Y8.490 E1.32394
G1 X-1.748 Y8.510 E1.32712
G1 X-1.574 Y8.490 E1.33189
G1 X-1.502 Y8.502 E1.33387
G1 X-1.410 Y8.434 E1.33700
G1 X-1.285 Y8.248 E1.34309
G1 X-1.070 Y8.145 E1.34957
G1 X-1.502 Y8.502 F7800.000
G1 X-1.459 Y8.564 E1.35163 F540.000
G1 X-1.246 Y8.723 E1.35886
G1 X-1.170 Y8.904 E1.36420
G1 X-1.012 Y8.934 E1.36855
G1 X1.039 Y7.677 F7800.000
G1 X1.222 Y7.620 E1.37377 F540.000
G1 X1.363 Y7.409 E1.38067
G1 X1.511 Y7.308 E1.38554
G1 X2.302 Y7.292 E1.40706
G1 X2.379 Y7.308 E1.40920
G1 X2.591 Y7.292 E1.41499
G1 X2.668 Y7.308 E1.41714
G1 X2.880 Y7.292 E1.42293
G1 X2.957 Y7.308 E1.42507
G1 X3.170 Y7.292 E1.43086
G1 X3.247 Y7.308 E1.43301
G1 X3.459 Y7.292 E1.43880
G1 X3.536 Y7.308 E1.44094
G1 X3.748 Y7.292 E1.44673
G1 X3.825 Y7.308 E1.44887
G1 X4.037 Y7.292 E1.45466
G1 X4.114 Y7.308 E1.45681
G1 X4.327 Y7.292 E1.46260
G1 X4.404 Y7.308 E1.46474
G1 X4.616 Y7.292 E1.47053
G1 X4.693 Y7.308 E1.47267
G1 X4.905 Y7.292 E1.47846
G1 X4.982 Y7.308 E1.48061
G1 X5.194 Y7.292 E1.48640
G1 X5.271 Y7.308 E1.48854
G1 X5.484 Y7.292 E1.49433
G1 X5.561 Y7.308 E1.49648
G1 X5.773 Y7.292 E1.50227
G1 X5.850 Y7.308 E1.50441
G1 X6.062 Y7.292 E1.51020
G1 X6.139 Y7.308 E1.51234
G1 X6.351 Y7.292 E1.51813
G1 X6.429 Y7.308 E1.52028
G1 X6.641 Y7.292 E1.52607
G1 X6.718 Y7.308 E1.52821
G1 X6.930 Y7.292 E1.53400
G1 X7.007 Y7.308 E1.53615
G1 X7.219 Y7.292 E1.54194
G1 X7.296 Y7.308 E1.54408
G1 X7.509 Y7.292 E1.54987
G1 X7.586 Y7.308 E1.55201
G1 X7.804 Y7.293 E1.55796
G1 X7.897 Y7.234 E1.56097
G1 X8.087 Y6.993 E1.56931
G1 X8.270 Y6.945 E1.57446
G1 X7.804 Y7.293 F7800.000
G1 X7.875 Y7.391 E1.57775 F540.000
G1 X8.068 Y7.523 E1.58412
G1 X8.164 Y7.734 E1.59042
G1 X1.511 Y7.308 F7800.000
G1 X1.434 Y7.212 E1.59376 F540.000
G1 X1.285 Y7.120 E1.59853
G1 X1.145 Y6.888 E1.60591
G1 X0.021 Y6.550 F7800.000
G1 X-0.140 Y6.389 E1.61224 F360.000
G1 X0.140 Y5.835 E1.62945 F360.000
G1 X-0.140 Y5.555 E1.64045 F360.000
G1 X0.140 Y5.001 E1.65766 F360.000
G1 X-0.140 Y4.721 E1.66866 F360.000
G1 X0.140 Y4.167 E1.68587 F360.000
G1 X-0.140 Y3.887 E1.69687 F360.000
G1 X0.140 Y3.333 E1.71408 F360.000
G1 X-0.140 Y3.053 E1.72508 F360.000
G1 X0.140 Y2.499 E1.74229 F360.000
G1 X-0.140 Y2.219 E1.75329 F360.000
G1 X0.140 Y1.665 E1.77050 F360.000
G1 X-0.140 Y1.385 E1.78150 F360.000
G1 X0.140 Y0.831 E1.79871 F360.000
G1 X-0.140 Y0.551 E1.80971 F360.000
G1 X0.140 Y-0.003 E1.82692 F360.000
G1 X-0.140 Y-0.283 E1.83792 F360.000
G1 X0.140 Y-0.837 E1.85513 F360.000
G1 X-0.140 Y-1.117 E1.86613 F360.000
G1 X0.140 Y-1.671 E1.88334 F360.000
G1 X-0.140 Y-1.951 E1.89434 F360.000
G1 X0.140 Y-2.505 E1.91155 F360.000
G1 X-0.140 Y-2.785 E1.92255 F360.000
G1 X0.140 Y-3.339 E1.93976 F360.000
G1 X-0.140 Y-3.619 E1.95076 F360.000
G1 X0.140 Y-4.173 E1.96797 F360.000
G1 X-0.140 Y-4.453 E1.97897 F360.000
G1 X0.140 Y-5.007 E1.99618 F360.000
G1 X-0.140 Y-5.288 E2.00718 F360.000
G1 X0.140 Y-5.841 E2.02439 F360.000
G1 X-0.140 Y-6.122 E2.03539 F360.000
G1 X0.010 Y-6.805 E2.05481 F360.000
G1 X-0.111 Y-6.926 E2.05954 F360.000
G1 X-0.081 Y-7.118 F7800.000
G1 X-0.153 Y-7.190 E2.06354 F360.000
G1 X0.153 Y-8.069 E2.10018 F360.000
G1 X0.069 Y-8.153 E2.10484 F360.000
G1 X0.021 Y6.550 F7800.000
G1 X-0.140 Y7.223 E2.12403 F360.000
G1 X0.041 Y7.404 E2.13114 F360.000
G1 X-0.140 Y8.057 E2.14993 F360.000
G1 X-0.057 Y8.140 E2.15319 F360.000
M104 S200 ; set temperature
M140 S50 ; set bed temperature
G1 F1800.000 E1.15319
G92 E0
G1 Z0.600 F7800.000
G1 X-0.250 Y8.250 F7800.000
G1 E1.00000 F1800.000
G1 X-0.250 Y-8.250 E1.38797 F603.990
G1 X0.250 Y-8.250 E1.39972
G1 X0.250 Y8.250 E1.78769
G1 X-0.175 Y8.250 E1.79769
G1 X-0.750 Y8.250 F7800.000
G1 X-0.750 Y-8.250 E2.18565 F603.990
G1 X-12.750 Y-8.250 E2.46781
G1 X-12.750 Y-8.750 E2.47957
G1 X0.750 Y-8.750 E2.79700
G1 X0.750 Y-7.550 E2.82521
G1 X8.309 Y-7.550 E3.00294
G1 X9.015 Y-7.550 E3.02468 F3600
G1 X9.015 Y-7.050 E3.04007
G1 X8.309 Y-7.050 E3.06180
G1 X0.750 Y-7.050 E3.23953 F603.990
G1 X0.750 Y7.050 E3.57107
G1 X8.309 Y7.050 E3.74880
G1 X9.015 Y7.050 E3.77054 F3600
G1 X9.015 Y7.550 E3.78593
G1 X8.309 Y7.550 E3.80766
G1 X0.750 Y7.550 E3.98539 F603.990
G1 X0.750 Y8.750 E4.01361
G1 X-12.750 Y8.750 E4.33104
G1 X-12.750 Y8.250 E4.34279
G1 X-0.825 Y8.250 E4.62319
G1 X-0.250 Y8.250 F7800.000
G1 F1800.000 E3.62319
G92 E0
G1 Z0.900 F7800.000
G1 E1.00000 F1800.000
G1 X-0.250 Y-8.250 E1.38797 F616.691
G1 X0.250 Y-8.250 E1.39972
G1 X0.250 Y8.250 E1.78769
G1 X-0.175 Y8.250 E1.79769
G1 X-0.750 Y8.250 F7800.000
G1 X-0.750 Y-8.250 E2.18565 F616.691
G1 X-12.750 Y-8.250 E2.46781
G1 X-12.750 Y-8.750 E2.47957
G1 X0.750 Y-8.750 E2.79700
G1 X0.750 Y-7.550 E2.82521
G1 X9.265 Y-7.550 E3.02543
G1 X9.646 Y-7.550 E3.03717 F3600
G1 X9.646 Y-7.050 E3.05256
G1 X9.265 Y-7.050 E3.06430
G1 X0.750 Y-7.050 E3.26451 F616.691
G1 X0.750 Y7.050 E3.59605
G1 X9.265 Y7.050 E3.79626
G1 X9.646 Y7.050 E3.80801 F3600
G1 X9.646 Y7.550 E3.82339
G1 X9.265 Y7.550 E3.83514
G1 X0.750 Y7.550 E4.03535 F616.691
G1 X0.750 Y8.750 E4.06357
G1 X-12.750 Y8.750 E4.38099
G1 X-12.750 Y8.250 E4.39275
G1 X-0.825 Y8.250 E4.67315
G1 X-0.250 Y8.250 F7800.000
G1 F1800.000 E3.67315
G92 E0
G1 Z1.200 F7800.000
G1 E1.00000 F1800.000
G1 X-0.250 Y7.350 E1.02116 F600.000
G1 X0.250 Y7.350 E1.03292
G1 X0.250 Y8.250 E1.05408
G1 X-0.175 Y8.250 E1.06407
G1 X-0.750 Y8.250 F7800.000
G1 X-0.750 Y6.850 E1.09699 F600.000
G1 X0.750 Y6.850 E1.13226
G1 X0.750 Y7.050 E1.13696
G1 X9.896 Y7.050 E1.35203
G1 X10.136 Y7.050 E1.35940 F3600
