; generated by Slic3r 0.9.10b on 2013-12-21 at 16:39:37

; layer_height = 0.3
; perimeters = 2
; top_solid_layers = 3
; bottom_solid_layers = 3
; fill_density = 0.3
; perimeter_speed = 30
; infill_speed = 60
; travel_speed = 130
; nozzle_diameter = 0.5
; filament_diameter = 2.85
; extrusion_multiplier = 1
; perimeters extrusion width = 0.70mm
; infill extrusion width = 0.70mm
; solid infill extrusion width = 0.70mm
; top infill extrusion width = 0.70mm
; first layer extrusion width = 0.60mm

G21 ; set units to millimeters
M107
M104 S0
M83
M140 S70
G28
G1Y98F9000
M190 S70
G1X5Y98Z150F9000
M104 S210
G1X5Y98Z1F9000
G1Z0.05
M109 S210
G1Z5
G1X15
;G1E5F50
G90 ; use absolute coordinates
G92 E0
M82 ; use absolute distances for extrusion
G1 F1800.000 E-1.00000
G92 E0
G1 Z0.300 F7800.000
G1 X-18.858 Y-6.127
G1 F1800.000 E1.00000
G1 X3.821 Y-29.397 F540.000 E1.88406
G1 X4.321 Y-29.867 E1.90273
G1 X4.871 Y-30.277 E1.92139
G1 X6.171 Y-31.147 E1.96395
G1 X7.321 Y-31.757 E1.99937
G1 X8.561 Y-32.137 E2.03465
G1 X10.091 Y-32.437 E2.07707
G1 X11.361 Y-32.557 E2.11178
G1 X12.631 Y-32.437 E2.14648
G1 X14.161 Y-32.137 E2.18890
G1 X15.401 Y-31.757 E2.22419
G1 X16.551 Y-31.147 E2.25960
G1 X17.851 Y-30.277 E2.30216
G1 X18.831 Y-29.467 E2.33675
G1 X19.641 Y-28.487 E2.37134
G1 X20.511 Y-27.197 E2.41368
G1 X21.141 Y-26.037 E2.44959
G1 X21.521 Y-24.777 E2.48540
G1 X21.821 Y-23.237 E2.52808
G1 X21.912 Y-22.607 E2.54540
G1 X21.941 Y-21.977 E2.56256
G1 X21.941 Y21.973 E3.75829
G1 X21.912 Y22.613 E3.77572
G1 X21.821 Y23.243 E3.79303
G1 X21.521 Y24.773 E3.83545
G1 X21.141 Y26.013 E3.87074
G1 X20.531 Y27.163 E3.90615
G1 X19.662 Y28.463 E3.94871
G1 X18.831 Y29.463 E3.98407
G1 X17.821 Y30.293 E4.01964
G1 X16.521 Y31.153 E4.06204
G1 X15.401 Y31.743 E4.09648
G1 X14.201 Y32.113 E4.13065
G1 X12.671 Y32.423 E4.17312
G1 X11.361 Y32.553 E4.20894
G1 X10.051 Y32.423 E4.24475
G1 X8.521 Y32.113 E4.28722
G1 X7.321 Y31.743 E4.32139
G1 X6.201 Y31.153 E4.35583
G1 X4.901 Y30.293 E4.39824
G1 X4.131 Y29.693 E4.42479
G1 X-18.549 Y9.293 E5.25473
G1 X-19.129 Y8.703 E5.27724
G1 X-19.639 Y8.033 E5.30015
G1 X-20.538 Y6.673 E5.34451
G1 X-21.129 Y5.543 E5.37920
G1 X-21.498 Y4.323 E5.41388
G1 X-21.819 Y2.713 E5.45854
G1 X-21.949 Y1.433 E5.49354
G1 X-21.819 Y0.153 E5.52855
G1 X-21.498 Y-1.457 E5.57321
G1 X-21.129 Y-2.677 E5.60789
G1 X-20.538 Y-3.807 E5.64257
G1 X-19.639 Y-5.167 E5.68694
G1 X-19.268 Y-5.667 E5.70387
G1 X-18.916 Y-6.062 E5.71827
G1 F1800.000 E4.71827
G92 E0
G1 X-14.779 Y-2.118 F7800.000
G1 F1800.000 E1.00000
G1 X8.009 Y-25.491 F540.000 E1.88812
G1 X9.402 Y-26.426 E1.93377
G1 X9.558 Y-26.497 E1.93842
G1 X11.255 Y-26.839 E1.98553
G1 X11.425 Y-26.845 E1.99016
G1 X13.179 Y-26.497 E2.03880
G1 X13.335 Y-26.426 E2.04345
G1 X14.770 Y-25.459 E2.09054
G1 X14.886 Y-25.335 E2.09516
G1 X15.844 Y-23.893 E2.14226
G1 X15.905 Y-23.733 E2.14691
G1 X16.236 Y-22.005 E2.19478
G1 X16.236 Y22.005 E3.39216
G1 X15.888 Y23.788 E3.44156
G1 X15.817 Y23.943 E3.44621
G1 X14.850 Y25.379 E3.49330
G1 X14.726 Y25.495 E3.49792
G1 X13.284 Y26.453 E3.54502
G1 X13.124 Y26.513 E3.54967
G1 X11.425 Y26.845 E3.59678
G1 X11.255 Y26.839 E3.60141
G1 X9.558 Y26.497 E3.64852
G1 X9.402 Y26.426 E3.65317
G1 X8.041 Y25.515 E3.69774
G1 X-14.746 Y5.030 E4.53136
G1 X-14.840 Y4.921 E4.53529
G1 X-15.829 Y3.431 E4.58395
G1 X-15.889 Y3.271 E4.58858
G1 X-16.236 Y1.496 E4.63780
G1 X-16.231 Y1.325 E4.64244
G1 X-15.872 Y-0.448 E4.69165
G1 X-15.802 Y-0.603 E4.69628
G1 X-14.834 Y-2.051 E4.74367
G1 X-14.379 Y-1.692 F7800.000
G1 X8.380 Y-25.045 F540.000 E5.63086
G1 X9.676 Y-25.913 E5.67330
G1 X9.782 Y-25.957 E5.67641
G1 X11.312 Y-26.261 E5.71885
G1 X11.425 Y-26.261 E5.72194
G1 X12.955 Y-25.957 E5.76438
G1 X13.061 Y-25.913 E5.76749
G1 X14.357 Y-25.046 E5.80992
G1 X14.437 Y-24.965 E5.81301
G1 X15.305 Y-23.669 E5.85544
G1 X15.348 Y-23.564 E5.85855
G1 X15.658 Y-21.977 E5.90253
G1 X15.658 Y21.977 E7.09837
G1 X15.348 Y23.564 E7.14236
G1 X15.305 Y23.669 E7.14547
G1 X14.437 Y24.965 E7.18789
G1 X14.357 Y25.046 E7.19098
G1 X13.061 Y25.913 E7.23341
G1 X12.955 Y25.957 E7.23652
G1 X11.425 Y26.261 E7.27896
G1 X11.312 Y26.261 E7.28205
G1 X9.782 Y25.957 E7.32449
G1 X9.676 Y25.913 E7.32760
G1 X8.380 Y25.045 E7.37004
G1 X-14.332 Y4.624 E8.20100
G1 X-15.289 Y3.207 E8.24752
G1 X-15.332 Y3.102 E8.25062
G1 X-15.652 Y1.496 E8.29517
G1 X-15.652 Y1.382 E8.29827
G1 X-15.332 Y-0.224 E8.34282
G1 X-15.289 Y-0.329 E8.34591
G1 X-14.427 Y-1.619 E8.38812
G1 X-13.913 Y-1.348 F7800.000
G1 X8.727 Y-24.581 F540.000 E9.27069
G1 X9.950 Y-25.401 E9.31076
G1 X11.368 Y-25.682 E9.35009
G1 X12.787 Y-25.401 E9.38943
G1 X13.988 Y-24.596 E9.42876
G1 X14.792 Y-23.395 E9.46809
G1 X15.079 Y-21.949 E9.50821
G1 X15.079 Y21.949 E10.70251
G1 X14.792 Y23.395 E10.74263
G1 X13.988 Y24.596 E10.78196
G1 X12.787 Y25.401 E10.82129
G1 X11.368 Y25.682 E10.86062
G1 X9.950 Y25.401 E10.89996
G1 X8.719 Y24.576 E10.94029
G1 X-13.918 Y4.218 E11.76858
G1 X-14.776 Y2.933 E11.81061
G1 X-15.074 Y1.439 E11.85206
G1 X-14.776 Y-0.055 E11.89351
G1 X-13.961 Y-1.276 E11.93345
G1 X-13.344 Y-1.240 F7800.000
G1 X-14.484 Y1.439
G1 X-14.231 Y0.171 F540.000 E11.96864
G1 X-13.461 Y-0.983 E12.00636
G1 X9.099 Y-24.134 E12.88583
G1 X10.176 Y-24.856 E12.92111
G1 X11.368 Y-25.092 E12.95418
G1 X12.561 Y-24.856 E12.98725
G1 X13.571 Y-24.179 E13.02032
G1 X14.247 Y-23.169 E13.05340
G1 X14.501 Y-21.892 E13.08883
G1 X14.501 Y21.892 E14.28003
G1 X14.247 Y23.169 E14.31546
G1 X13.571 Y24.179 E14.34854
G1 X12.561 Y24.856 E14.38161
G1 X11.368 Y25.092 E14.41468
G1 X10.176 Y24.856 E14.44775
G1 X9.075 Y24.118 E14.48381
G1 X-13.477 Y3.837 E15.30900
G1 X-14.231 Y2.707 E15.34594
G1 X-14.467 Y1.524 E15.37876
G1 X-5.270 Y10.653 F7800.000
G1 X-13.950 Y1.974 F1080.000 E15.71490
G1 X-13.991 Y1.110 E15.73860
G1 X2.911 Y18.011 E16.39315
G1 X9.868 Y24.145 F7800.000
G1 X-13.854 Y0.423 F1080.000 E17.31186
G1 X-13.549 Y-0.096 E17.32833
G1 X11.173 Y24.626 E18.28576
G1 X11.925 Y24.554 E18.30645
G1 X-13.219 Y-0.590 E19.28023
G1 X-12.833 Y-1.027 E19.29621
G1 X12.551 Y24.357 E20.27929
G1 X13.045 Y24.027 E20.29554
G1 X-12.426 Y-1.444 E21.28199
G1 X-12.020 Y-1.861 E21.29793
G1 X13.449 Y23.608 E22.28429
G1 X13.779 Y23.114 E22.30055
G1 X-11.613 Y-2.278 E23.28396
G1 X-11.207 Y-2.695 E23.29990
G1 X13.958 Y22.470 E24.27451
G1 X14.081 Y21.770 E24.29399
G1 X-10.801 Y-3.112 E25.25762
G1 X-10.394 Y-3.529 E25.27356
G1 X14.081 Y20.946 E26.22145
G1 X14.081 Y20.123 E26.24401
G1 X-9.988 Y-3.946 E27.17616
G1 X-9.581 Y-4.364 E27.19210
G1 X14.081 Y19.299 E28.10851
G1 X14.081 Y18.475 E28.13107
G1 X-9.175 Y-4.781 E29.03173
G1 X-8.768 Y-5.198 E29.04768
G1 X14.081 Y17.652 E29.93261
G1 X14.081 Y16.828 E29.95516
G1 X-8.362 Y-5.615 E30.82435
G1 X-7.955 Y-6.032 E30.84030
G1 X14.081 Y16.005 E31.69374
G1 X14.081 Y15.181 E31.71629
G1 X-7.549 Y-6.449 E32.55400
G1 X-7.143 Y-6.866 E32.56995
G1 X14.081 Y14.358 E33.39191
G1 X14.081 Y13.534 E33.41447
G1 X-6.736 Y-7.283 E34.22069
G1 X-6.330 Y-7.700 E34.23664
G1 X14.081 Y12.711 E35.02712
G1 X14.081 Y11.887 E35.04967
G1 X-5.923 Y-8.117 E35.82442
G1 X-5.517 Y-8.535 E35.84036
G1 X14.081 Y11.064 E36.59937
G1 X14.081 Y10.240 E36.62192
G1 X-5.110 Y-8.952 E37.36518
G1 X-4.704 Y-9.369 E37.38113
G1 X14.081 Y9.417 E38.10865
G1 X14.081 Y8.593 E38.13120
G1 X-4.297 Y-9.786 E38.84298
G1 X-3.891 Y-10.203 E38.85893
G1 X14.081 Y7.769 E39.55497
G1 X14.081 Y6.946 E39.57752
G1 X-3.485 Y-10.620 E40.25782
G1 X-3.078 Y-11.037 E40.27377
G1 X14.081 Y6.122 E40.93833
G1 X14.081 Y5.299 E40.96088
G1 X-2.672 Y-11.454 E41.60970
G1 X-2.265 Y-11.871 E41.62565
G1 X14.081 Y4.475 E42.25872
G1 X14.081 Y3.652 E42.28128
G1 X-1.859 Y-12.289 E42.89861
G1 X-1.452 Y-12.706 E42.91456
G1 X14.081 Y2.828 E43.51616
G1 X14.081 Y2.005 E43.53871
G1 X-1.046 Y-13.123 E44.12456
G1 X-0.640 Y-13.540 E44.14051
G1 X14.081 Y1.181 E44.71063
G1 X14.081 Y0.358 E44.73318
G1 X-0.233 Y-13.957 E45.28755
G1 X0.173 Y-14.374 E45.30350
G1 X14.081 Y-0.466 E45.84213
G1 X14.081 Y-1.290 E45.86469
G1 X0.580 Y-14.791 E46.38758
G1 X0.986 Y-15.208 E46.40353
G1 X14.081 Y-2.113 E46.91068
G1 X14.081 Y-2.937 E46.93323
G1 X1.393 Y-15.625 E47.42464
G1 X1.799 Y-16.042 E47.44059
G1 X14.081 Y-3.760 E47.91626
G1 X14.081 Y-4.584 E47.93881
G1 X2.206 Y-16.460 E48.39874
G1 X2.612 Y-16.877 E48.41469
G1 X14.081 Y-5.407 E48.85888
G1 X14.081 Y-6.231 E48.88143
G1 X3.018 Y-17.294 E49.30988
G1 X3.425 Y-17.711 E49.32583
G1 X14.081 Y-7.054 E49.73854
G1 X14.081 Y-7.878 E49.76109
G1 X3.831 Y-18.128 E50.15806
G1 X4.238 Y-18.545 E50.17400
G1 X14.081 Y-8.701 E50.55523
G1 X14.081 Y-9.525 E50.57778
G1 X4.644 Y-18.962 E50.94327
G1 X5.051 Y-19.379 E50.95922
G1 X14.081 Y-10.348 E51.30896
G1 X14.081 Y-11.172 E51.33152
G1 X5.457 Y-19.796 E51.66552
G1 X5.863 Y-20.213 E51.68147
G1 X14.081 Y-11.996 E51.99973
G1 X14.081 Y-12.819 E52.02228
G1 X6.270 Y-20.631 E52.32481
G1 X6.676 Y-21.048 E52.34076
G1 X14.081 Y-13.643 E52.62754
G1 X14.081 Y-14.466 E52.65009
G1 X7.083 Y-21.465 E52.92113
G1 X7.489 Y-21.882 E52.93708
G1 X14.081 Y-15.290 E53.19238
G1 X14.081 Y-16.113 E53.21494
G1 X7.896 Y-22.299 E53.45450
G1 X8.302 Y-22.716 E53.47044
G1 X14.081 Y-16.937 E53.69426
G1 X14.081 Y-17.760 E53.71682
G1 X8.709 Y-23.133 E53.92490
G1 X9.115 Y-23.550 E53.94084
G1 X14.081 Y-18.584 E54.13318
G1 X14.081 Y-19.407 E54.15574
G1 X9.554 Y-23.935 E54.33107
G1 X10.048 Y-24.265 E54.34732
G1 X14.081 Y-20.231 E54.50354
G1 X14.081 Y-21.055 E54.52610
G1 X10.620 Y-24.516 E54.66016
G1 X11.307 Y-24.653 E54.67934
G1 X14.075 Y-21.885 E54.78653
G1 X13.870 Y-22.912 E54.81522
G1 X12.304 Y-24.479 E54.87588
M140 S50 ; set bed temperature
G1 F1800.000 E53.87588
G92 E0
G1 Z0.600 F7800.000
G1 X10.221 Y24.748
G1 F1800.000 E1.00000
G1 X9.145 Y24.028 F1800.000 E1.03985
G1 X-13.390 Y3.761 E1.97269
G1 X-14.124 Y2.663 E2.01334
G1 X-14.367 Y1.439 E2.05175
G1 X-14.124 Y0.215 E2.09017
G1 X-13.372 Y-0.911 E2.13182
G1 X9.172 Y-24.046 E3.12607
G1 X10.221 Y-24.748 E3.16492
G1 X11.368 Y-24.976 E3.20093
G1 X12.516 Y-24.748 E3.23695
G1 X13.489 Y-24.097 E3.27297
G1 X14.140 Y-23.125 E3.30899
G1 X14.387 Y-21.880 E3.34803
G1 X14.387 Y21.880 E4.69494
G1 X14.140 Y23.125 E4.73398
G1 X13.489 Y24.097 E4.77000
G1 X12.516 Y24.748 E4.80602
G1 X11.369 Y24.976 E4.84204
G1 X10.317 Y24.767 E4.87503
G1 X9.965 Y25.365 F7800.000
G1 X8.742 Y24.546 F1800.000 E4.92033
G1 X-13.889 Y4.193 E5.85714
G1 X-14.740 Y2.918 E5.90432
G1 X-15.035 Y1.439 E5.95075
G1 X-14.740 Y-0.040 E5.99717
G1 X-13.883 Y-1.324 E6.04469
G1 X8.751 Y-24.552 E7.04290
G1 X9.965 Y-25.365 E7.08787
G1 X11.368 Y-25.643 E7.13191
G1 X12.772 Y-25.365 E7.17594
G1 X13.961 Y-24.569 E7.21997
G1 X14.756 Y-23.380 E7.26400
G1 X15.041 Y-21.945 E7.30904
G1 X15.041 Y21.945 E8.65991
G1 X14.756 Y23.380 E8.70495
G1 X13.961 Y24.569 E8.74898
G1 X12.772 Y25.365 E8.79301
G1 X11.369 Y25.643 E8.83704
G1 X10.062 Y25.384 E8.87806
G1 X9.923 Y24.712 F7800.000
G1 X13.697 Y22.920
G1 X12.311 Y24.305 F3600.000 E8.93854
G1 X11.224 Y24.464 E8.97243
G1 X13.912 Y21.776 E9.08975
G1 X13.912 Y20.848 E9.11839
G1 X10.450 Y24.310 E9.26951
G1 X9.882 Y23.950 E9.29027
G1 X13.912 Y19.920 E9.46620
G1 X13.912 Y18.991 E9.49484
G1 X9.339 Y23.565 E9.69445
G1 X8.850 Y23.125 E9.71473
G1 X13.912 Y18.063 E9.93567
G1 X13.912 Y17.135 E9.96431
G1 X8.362 Y22.686 E10.20657
G1 X7.873 Y22.246 E10.22686
G1 X13.912 Y16.207 E10.49045
G1 X13.912 Y15.279 E10.51909
G1 X7.384 Y21.807 E10.80401
G1 X6.896 Y21.367 E10.82429
G1 X13.912 Y14.351 E11.13054
G1 X13.912 Y13.423 E11.15918
G1 X6.407 Y20.928 E11.48676
G1 X5.918 Y20.489 E11.50704
G1 X13.912 Y12.495 E11.85594
G1 X13.912 Y11.567 E11.88458
G1 X5.430 Y20.049 E12.25481
G1 X4.941 Y19.610 E12.27510
G1 X13.912 Y10.638 E12.66665
G1 X13.912 Y9.710 E12.69530
G1 X4.453 Y19.170 E13.10818
G1 X3.964 Y18.731 E13.12846
G1 X13.912 Y8.782 E13.56268
G1 X13.912 Y7.854 E13.59132
G1 X3.475 Y18.291 E14.04686
G1 X2.987 Y17.852 E14.06714
G1 X13.912 Y6.926 E14.54401
G1 X13.912 Y5.998 E14.57266
G1 X2.498 Y17.412 E15.07085
G1 X2.009 Y16.973 E15.09113
G1 X13.912 Y5.070 E15.61066
G1 X13.912 Y4.142 E15.63930
G1 X1.521 Y16.533 E16.18015
G1 X1.032 Y16.094 E16.20044
G1 X13.912 Y3.213 E16.76262
G1 X13.912 Y2.285 E16.79126
G1 X0.543 Y15.654 E17.37477
G1 X0.055 Y15.215 E17.39505
G1 X13.912 Y1.357 E17.99989
G1 X13.912 Y0.429 E18.02853
G1 X-0.434 Y14.776 E18.65469
G1 X-0.923 Y14.336 E18.67498
G1 X13.912 Y-0.499 E19.32247
G1 X13.912 Y-1.427 E19.35111
G1 X-1.411 Y13.897 E20.01993
G1 X-1.900 Y13.457 E20.04021
G1 X13.912 Y-2.355 E20.73036
G1 X13.912 Y-3.283 E20.75900
G1 X-2.389 Y13.018 E21.47048
G1 X-2.877 Y12.578 E21.49076
G1 X13.912 Y-4.211 E22.22356
G1 X13.912 Y-5.140 E22.25220
G1 X-3.366 Y12.139 E23.00633
G1 X-3.855 Y11.699 E23.02662
G1 X13.912 Y-6.068 E23.80207
G1 X13.912 Y-6.996 E23.83072
G1 X-4.343 Y11.260 E24.62750
G1 X-4.832 Y10.820 E24.64779
G1 X13.912 Y-7.924 E25.46590
G1 X13.912 Y-8.852 E25.49454
G1 X-5.321 Y10.381 E26.33399
G1 X-5.809 Y9.941 E26.35427
G1 X13.912 Y-9.780 E27.21504
G1 X13.912 Y-10.708 E27.24368
G1 X-6.298 Y9.502 E28.12578
G1 X-6.787 Y9.062 E28.14606
G1 X13.912 Y-11.636 E29.04948
G1 X13.912 Y-12.565 E29.07813
G1 X-7.275 Y8.623 E30.00288
G1 X-7.764 Y8.184 E30.02316
G1 X13.912 Y-13.493 E30.96924
G1 X13.912 Y-14.421 E30.99789
G1 X-8.253 Y7.744 E31.96530
G1 X-8.741 Y7.305 E31.98558
G1 X13.912 Y-15.349 E32.97431
G1 X13.912 Y-16.277 E33.00296
G1 X-9.230 Y6.865 E34.01302
G1 X-9.718 Y6.426 E34.03330
G1 X13.912 Y-17.205 E35.06470
G1 X13.912 Y-18.133 E35.09334
G1 X-10.207 Y5.986 E36.14606
G1 X-10.696 Y5.547 E36.16634
G1 X13.912 Y-19.061 E37.24039
G1 X13.912 Y-19.989 E37.26903
G1 X-11.184 Y5.107 E38.36441
G1 X-11.673 Y4.668 E38.38469
G1 X13.912 Y-20.918 E39.50139
G1 X13.910 Y-21.844 E39.52998
G1 X-12.162 Y4.228 E40.66792
G1 X-12.650 Y3.789 E40.68820
G1 X13.757 Y-22.618 E41.84076
G1 X13.475 Y-23.265 E41.86253
G1 X-13.113 Y3.323 E43.02298
G1 X-13.484 Y2.767 E43.04364
G1 X13.081 Y-23.799 E44.20312
G1 X12.525 Y-24.171 E44.22377
G1 X-13.751 Y2.105 E45.37063
G1 X-13.852 Y1.278 E45.39636
G1 X11.827 Y-24.401 E46.51715
G1 X10.897 Y-24.399 E46.54587
G1 X-13.225 Y-0.278 E47.59867
G1 F1800.000 E46.59867
G92 E0
G1 Z0.900 F7800.000
G1 X14.140 Y23.125
G1 F1800.000 E1.00000
G1 X13.489 Y24.097 F1800.000 E1.03602
G1 X12.516 Y24.748 E1.07204
G1 X11.369 Y24.976 E1.10805
G1 X10.221 Y24.748 E1.14407
G1 X9.145 Y24.028 E1.18392
G1 X-13.390 Y3.761 E2.11676
G1 X-14.124 Y2.663 E2.15741
G1 X-14.367 Y1.439 E2.19582
G1 X-14.124 Y0.215 E2.23424
G1 X-13.372 Y-0.911 E2.27589
G1 X9.172 Y-24.046 E3.27014
G1 X10.221 Y-24.748 E3.30899
G1 X11.368 Y-24.976 E3.34500
G1 X12.516 Y-24.748 E3.38102
G1 X13.489 Y-24.097 E3.41704
G1 X14.140 Y-23.125 E3.45306
G1 X14.387 Y-21.880 E3.49210
G1 X14.387 Y21.880 E4.83901
G1 X14.159 Y23.028 E4.87503
G1 X14.756 Y23.380 F7800.000
G1 X13.961 Y24.569 F1800.000 E4.91906
G1 X12.772 Y25.365 E4.96309
G1 X11.369 Y25.643 E5.00712
G1 X9.965 Y25.365 E5.05115
G1 X8.742 Y24.546 E5.09646
G1 X-13.889 Y4.193 E6.03327
G1 X-14.740 Y2.918 E6.08045
G1 X-15.035 Y1.439 E6.12687
G1 X-14.740 Y-0.040 E6.17330
G1 X-13.883 Y-1.324 E6.22081
G1 X8.751 Y-24.552 E7.21903
G1 X9.965 Y-25.365 E7.26400
G1 X11.368 Y-25.643 E7.30803
G1 X12.772 Y-25.365 E7.35207
G1 X13.961 Y-24.569 E7.39610
G1 X14.756 Y-23.380 E7.44013
G1 X15.041 Y-21.945 E7.48517
G1 X15.041 Y21.945 E8.83603
G1 X14.775 Y23.284 E8.87806
G1 X14.103 Y23.423 F7800.000
G1 X5.587 Y20.190
G1 X-13.764 Y0.839 F3600.000 E9.72266
G1 X-13.516 Y0.159 E9.74500
G1 X10.680 Y24.356 E10.80109
G1 X11.683 Y24.430 E10.83210
G1 X-13.145 Y-0.397 E11.91572
G1 X-12.720 Y-0.901 E11.93605
G1 X12.422 Y24.241 E13.03336
G1 X12.978 Y23.869 E13.05401
G1 X-12.262 Y-1.371 E14.15560
G1 X-11.804 Y-1.841 E14.17586
G1 X13.406 Y23.369 E15.27614
G1 X13.728 Y22.763 E15.29732
G1 X-11.346 Y-2.311 E16.39168
G1 X-10.887 Y-2.781 E16.41193
G1 X13.882 Y21.988 E17.49301
G1 X13.912 Y21.091 E17.52072
G1 X-10.429 Y-3.251 E18.58314
G1 X-9.971 Y-3.721 E18.60340
G1 X13.912 Y20.163 E19.64583
G1 X13.912 Y19.235 E19.67447
G1 X-9.513 Y-4.191 E20.69691
G1 X-9.055 Y-4.661 E20.71717
G1 X13.912 Y18.306 E21.71961
G1 X13.912 Y17.378 E21.74826
G1 X-8.597 Y-5.131 E22.73071
G1 X-8.139 Y-5.601 E22.75097
G1 X13.912 Y16.450 E23.71343
G1 X13.912 Y15.522 E23.74207
G1 X-7.681 Y-6.071 E24.68454
G1 X-7.223 Y-6.541 E24.70480
