; generated by Slic3r 0.9.10b on 2013-12-21 at 22:37:53

; layer_height = 0.3
; perimeters = 2
; top_solid_layers = 3
; bottom_solid_layers = 3
; fill_density = 0.4
; perimeter_speed = 30
; infill_speed = 60
; travel_speed = 130
; nozzle_diameter = 0.5
; filament_diameter = 2.85
; extrusion_multiplier = 1
; perimeters extrusion width = 0.70mm
; infill extrusion width = 0.70mm
; solid infill extrusion width = 0.70mm
; top infill extrusion width = 0.70mm
; first layer extrusion width = 0.60mm

G21 ; set units to millimeters
M107
M104 S0
M83
M140 S70
G28
G1Y98F9000
M190 S70
G1X5Y98Z150F9000
M104 S210
G1X5Y98Z1F9000
G1Z0.05
M109 S210
G1Z5
G1X15
;G1E5F50
G90 ; use absolute coordinates
G92 E0
M82 ; use absolute distances for extrusion
G1 F1800.000 E-1.00000
G92 E0
G1 Z0.300 F7800.000
G1 X-41.448 Y-10.851
G1 F1800.000 E1.00000
G1 X22.162 Y-51.821 F540.000 E3.05851
G1 X23.862 Y-52.601 E3.10940
G1 X25.722 Y-52.871 E3.16054
G1 X45.722 Y-52.871 E3.70467
G1 X47.001 Y-52.741 E3.73967
G1 X48.242 Y-52.371 E3.77488
G1 X49.371 Y-51.761 E3.80982
G1 X50.371 Y-50.941 E3.84500
G1 X51.192 Y-49.941 E3.88018
G1 X51.802 Y-48.811 E3.91512
G1 X52.171 Y-47.571 E3.95033
G1 X52.302 Y-46.291 E3.98533
G1 X52.302 Y38.709 E6.29790
G1 X52.141 Y40.129 E6.33677
G1 X51.692 Y41.479 E6.37549
G1 X50.951 Y42.699 E6.41431
G1 X49.962 Y43.739 E6.45337
G1 X48.781 Y44.539 E6.49216
G1 X47.451 Y45.059 E6.53101
G1 X19.981 Y52.529 E7.30552
G1 X19.311 Y52.669 E7.32414
G1 X18.822 Y52.749 E7.33765
G1 X18.162 Y52.829 E7.35574
G1 X17.672 Y52.859 E7.36909
G1 X16.882 Y52.859 E7.39059
G1 X15.822 Y52.769 E7.41953
G1 X15.342 Y52.699 E7.43273
G1 X14.572 Y52.539 E7.45412
G1 X14.092 Y52.409 E7.46765
G1 X13.072 Y52.059 E7.49699
G1 X12.462 Y51.799 E7.51503
G1 X12.011 Y51.579 E7.52866
G1 X11.371 Y51.219 E7.54864
G1 X7.322 Y48.649 E7.67914
G1 X-47.258 Y13.869 E9.43994
G1 X-47.819 Y13.469 E9.45866
G1 X-48.208 Y13.159 E9.47222
G1 X-48.768 Y12.659 E9.49264
G1 X-49.569 Y11.819 E9.52420
G1 X-49.878 Y11.439 E9.53755
G1 X-50.488 Y10.579 E9.56623
G1 X-50.888 Y9.919 E9.58723
G1 X-51.118 Y9.479 E9.60074
G1 X-51.398 Y8.869 E9.61900
G1 X-51.788 Y7.819 E9.64947
G1 X-51.928 Y7.339 E9.66307
G1 X-52.078 Y6.689 E9.68122
G1 X-52.168 Y6.199 E9.69478
G1 X-52.268 Y5.409 E9.71644
G1 X-52.298 Y4.919 E9.72980
G1 X-52.298 Y3.899 E9.75755
G1 X-52.248 Y3.229 E9.77583
G1 X-52.188 Y2.739 E9.78926
G1 X-52.038 Y1.939 E9.81140
G1 X-51.768 Y0.939 E9.83958
G1 X-51.608 Y0.469 E9.85309
G1 X-51.338 Y-0.191 E9.87249
G1 X-51.128 Y-0.641 E9.88600
G1 X-50.758 Y-1.321 E9.90707
G1 X-50.498 Y-1.741 E9.92050
G1 X-50.118 Y-2.291 E9.93869
G1 X-49.819 Y-2.681 E9.95208
G1 X-49.188 Y-3.421 E9.97852
G1 X-48.938 Y-3.691 E9.98853
G1 X-42.958 Y-9.681 E10.21881
G1 X-42.098 Y-10.401 E10.24932
G1 X-41.521 Y-10.803 E10.26847
G1 F1800.000 E9.26847
G92 E0
G1 X-38.361 Y-6.035 F7800.000
G1 F1800.000 E1.00000
G1 X25.328 Y-47.066 F540.000 E3.06122
G1 X25.645 Y-47.159 E3.07021
G1 X45.963 Y-47.159 E3.62300
G1 X46.176 Y-47.071 E3.62926
G1 X46.508 Y-46.739 E3.64204
G1 X46.596 Y-46.526 E3.64830
G1 X46.596 Y38.944 E5.97365
G1 X46.508 Y39.157 E5.97991
G1 X46.176 Y39.489 E5.99269
G1 X45.963 Y39.577 E5.99896
G1 X26.596 Y39.577 E6.52587
G1 X26.596 Y44.350 E6.65574
G1 X26.535 Y44.531 E6.66092
G1 X26.301 Y44.837 E6.67143
G1 X26.143 Y44.944 E6.67661
G1 X18.469 Y47.030 E6.89296
G1 X17.874 Y47.126 E6.90936
G1 X17.248 Y47.158 E6.92641
G1 X16.679 Y47.129 E6.94190
G1 X16.131 Y47.045 E6.95699
G1 X15.524 Y46.883 E6.97410
G1 X14.993 Y46.682 E6.98954
G1 X14.497 Y46.435 E7.00462
G1 X10.207 Y43.706 E7.14294
G1 X10.075 Y43.517 E7.14920
G1 X9.973 Y43.059 E7.16198
G1 X10.013 Y42.832 E7.16824
G1 X10.957 Y41.350 E7.21605
G1 X12.130 Y39.096 E7.28518
G1 X13.103 Y36.748 E7.35433
G1 X13.867 Y34.324 E7.42347
G1 X14.417 Y31.842 E7.49263
G1 X14.749 Y29.323 E7.56176
G1 X14.860 Y26.784 E7.63091
G1 X14.749 Y24.245 E7.70006
G1 X14.417 Y21.726 E7.76918
G1 X13.867 Y19.244 E7.83835
G1 X13.103 Y16.820 E7.90748
G1 X12.130 Y14.472 E7.97663
G1 X10.957 Y12.218 E8.04576
G1 X9.592 Y10.075 E8.11489
G1 X8.044 Y8.058 E8.18406
G1 X6.327 Y6.185 E8.25319
G1 X4.454 Y4.468 E8.32232
G1 X2.437 Y2.921 E8.39149
G1 X0.294 Y1.555 E8.46062
G1 X-1.960 Y0.382 E8.52975
G1 X-4.308 Y-0.591 E8.59890
G1 X-6.731 Y-1.355 E8.66804
G1 X-9.213 Y-1.905 E8.73720
G1 X-11.735 Y-2.237 E8.80640
G1 X-14.272 Y-2.347 E8.87548
G1 X-16.811 Y-2.237 E8.94463
G1 X-19.330 Y-1.905 E9.01375
G1 X-21.812 Y-1.355 E9.08292
G1 X-24.235 Y-0.591 E9.15205
G1 X-26.583 Y0.382 E9.22120
G1 X-28.837 Y1.555 E9.29033
G1 X-30.980 Y2.921 E9.35946
G1 X-32.997 Y4.468 E9.42863
G1 X-34.870 Y6.185 E9.49776
G1 X-36.587 Y8.058 E9.56689
G1 X-38.135 Y10.075 E9.63606
G1 X-39.079 Y11.557 E9.68386
G1 X-39.267 Y11.689 E9.69013
G1 X-39.726 Y11.791 E9.70291
G1 X-39.953 Y11.751 E9.70918
G1 X-44.215 Y9.034 E9.84668
G1 X-44.695 Y8.651 E9.86339
G1 X-45.119 Y8.231 E9.87964
G1 X-45.481 Y7.793 E9.89510
G1 X-45.806 Y7.306 E9.91103
G1 X-46.076 Y6.789 E9.92690
G1 X-46.293 Y6.248 E9.94275
G1 X-46.453 Y5.687 E9.95861
G1 X-46.555 Y5.112 E9.97452
G1 X-46.596 Y4.530 E9.99040
G1 X-46.578 Y3.947 E10.00627
G1 X-46.505 Y3.397 E10.02134
G1 X-46.375 Y2.844 E10.03681
G1 X-46.169 Y2.251 E10.05389
G1 X-45.932 Y1.750 E10.06896
G1 X-45.641 Y1.263 E10.08441
G1 X-45.280 Y0.783 E10.10073
G1 X-44.889 Y0.358 E10.11646
G1 X-38.886 Y-5.659 E10.34771
G1 X-38.432 Y-5.986 E10.36290
G1 X-38.048 Y-5.549 F7800.000
G1 X25.570 Y-46.533 F540.000 E12.42182
G1 X25.730 Y-46.580 E12.42635
G1 X45.679 Y-46.580 E12.96909
G1 X46.018 Y-46.241 E12.98213
G1 X46.018 Y38.659 E15.29199
G1 X45.679 Y38.998 E15.30503
G1 X26.018 Y38.998 E15.83994
G1 X26.018 Y44.132 E15.97960
G1 X25.780 Y44.443 E15.99026
G1 X18.332 Y46.467 E16.20023
G1 X17.814 Y46.551 E16.21453
G1 X17.261 Y46.580 E16.22957
G1 X16.767 Y46.556 E16.24303
G1 X16.250 Y46.478 E16.25728
G1 X15.713 Y46.336 E16.27238
G1 X15.224 Y46.151 E16.28661
G1 X14.782 Y45.931 E16.30004
G1 X10.758 Y43.371 E16.42980
G1 X10.654 Y42.903 E16.44284
G1 X11.459 Y41.639 E16.48359
G1 X12.655 Y39.341 E16.55409
G1 X13.647 Y36.946 E16.62461
G1 X14.427 Y34.474 E16.69513
G1 X14.987 Y31.943 E16.76567
G1 X15.326 Y29.374 E16.83617
G1 X15.439 Y26.784 E16.90669
G1 X15.326 Y24.194 E16.97722
G1 X14.987 Y21.625 E17.04771
G1 X14.427 Y19.094 E17.11825
G1 X13.647 Y16.622 E17.18877
G1 X12.655 Y14.227 E17.25929
G1 X11.459 Y11.929 E17.32979
G1 X10.066 Y9.743 E17.40030
G1 X8.488 Y7.686 E17.47084
G1 X6.737 Y5.776 E17.54135
G1 X4.826 Y4.025 E17.61185
G1 X2.769 Y2.446 E17.68239
G1 X0.584 Y1.054 E17.75290
G1 X-1.715 Y-0.143 E17.82340
G1 X-4.110 Y-1.135 E17.89392
G1 X-6.581 Y-1.914 E17.96444
G1 X-9.113 Y-2.475 E18.03498
G1 X-11.684 Y-2.814 E18.10554
G1 X-14.272 Y-2.926 E18.17600
G1 X-16.861 Y-2.814 E18.24652
G1 X-19.430 Y-2.475 E18.31702
G1 X-21.962 Y-1.914 E18.38756
G1 X-24.433 Y-1.135 E18.45808
G1 X-26.828 Y-0.143 E18.52860
G1 X-29.127 Y1.054 E18.59910
G1 X-31.312 Y2.446 E18.66961
G1 X-33.369 Y4.025 E18.74015
G1 X-35.280 Y5.776 E18.81065
G1 X-37.031 Y7.686 E18.88116
G1 X-38.609 Y9.743 E18.95170
G1 X-39.414 Y11.006 E18.99245
G1 X-39.882 Y11.110 E19.00550
G1 X-43.878 Y8.563 E19.13443
G1 X-44.289 Y8.237 E19.14869
G1 X-44.684 Y7.850 E19.16374
G1 X-45.018 Y7.446 E19.17800
G1 X-45.309 Y7.009 E19.19227
G1 X-45.551 Y6.545 E19.20651
G1 X-45.745 Y6.059 E19.22076
G1 X-45.889 Y5.556 E19.23501
G1 X-45.981 Y5.039 E19.24928
G1 X-46.018 Y4.517 E19.26353
G1 X-46.001 Y3.993 E19.27779
G1 X-45.931 Y3.474 E19.29204
G1 X-45.816 Y2.993 E19.30550
G1 X-45.633 Y2.471 E19.32055
G1 X-45.422 Y2.024 E19.33400
G1 X-45.153 Y1.575 E19.34823
G1 X-44.837 Y1.155 E19.36253
G1 X-44.475 Y0.763 E19.37705
G1 X-38.494 Y-5.232 E19.60744
G1 X-38.119 Y-5.499 E19.61997
G1 X-37.722 Y-5.071 F7800.000
G1 X25.814 Y-46.002 F540.000 E21.67620
G1 X45.439 Y-46.002 E22.21014
G1 X45.439 Y38.420 E24.50697
G1 X25.439 Y38.420 E25.05110
G1 X25.439 Y43.936 E25.20118
G1 X18.660 Y45.783 E25.39235
G1 X18.197 Y45.905 E25.40537
G1 X17.738 Y45.977 E25.41800
G1 X17.275 Y46.001 E25.43063
G1 X16.811 Y45.979 E25.44327
G1 X16.353 Y45.908 E25.45588
G1 X15.902 Y45.789 E25.46855
G1 X15.468 Y45.626 E25.48117
G1 X15.053 Y45.420 E25.49379
G1 X11.271 Y43.011 E25.61577
G1 X11.960 Y41.929 E25.65070
G1 X13.180 Y39.585 E25.72257
G1 X14.192 Y37.144 E25.79447
G1 X14.986 Y34.624 E25.86636
G1 X15.558 Y32.043 E25.93827
G1 X15.903 Y29.424 E26.01014
G1 X16.018 Y26.784 E26.08204
G1 X15.903 Y24.144 E26.15394
G1 X15.558 Y21.525 E26.22581
G1 X14.986 Y18.944 E26.29773
G1 X14.192 Y16.424 E26.36962
G1 X13.180 Y13.983 E26.44152
G1 X11.960 Y11.639 E26.51339
G1 X10.526 Y9.391 E26.58594
G1 X8.931 Y7.314 E26.65719
G1 X7.146 Y5.366 E26.72906
G1 X5.199 Y3.581 E26.80094
G1 X3.101 Y1.972 E26.87286
G1 X0.873 Y0.552 E26.94474
G1 X-1.470 Y-0.667 E27.01662
G1 X-3.911 Y-1.679 E27.08851
G1 X-6.432 Y-2.474 E27.16041
G1 X-9.012 Y-3.045 E27.23232
G1 X-11.631 Y-3.390 E27.30418
G1 X-14.272 Y-3.506 E27.37609
G1 X-16.912 Y-3.390 E27.44799
G1 X-19.531 Y-3.045 E27.51986
G1 X-22.111 Y-2.474 E27.59177
G1 X-24.632 Y-1.679 E27.66366
G1 X-27.073 Y-0.667 E27.73556
G1 X-29.416 Y0.552 E27.80743
G1 X-31.645 Y1.972 E27.87932
G1 X-33.742 Y3.581 E27.95124
G1 X-35.689 Y5.366 E28.02311
G1 X-37.474 Y7.314 E28.09499
G1 X-39.084 Y9.411 E28.16691
G1 X-39.773 Y10.494 E28.20183
G1 X-43.554 Y8.084 E28.32381
G1 X-43.917 Y7.794 E28.33644
G1 X-44.249 Y7.469 E28.34908
G1 X-44.546 Y7.111 E28.36172
G1 X-44.804 Y6.727 E28.37433
G1 X-45.020 Y6.315 E28.38697
G1 X-45.194 Y5.884 E28.39961
G1 X-45.322 Y5.438 E28.41226
G1 X-45.405 Y4.982 E28.42487
G1 X-45.439 Y4.519 E28.43751
G1 X-45.426 Y4.054 E28.45015
G1 X-45.365 Y3.594 E28.46278
G1 X-45.257 Y3.142 E28.47543
G1 X-45.103 Y2.704 E28.48805
G1 X-44.905 Y2.284 E28.50069
G1 X-44.666 Y1.887 E28.51330
G1 X-44.385 Y1.516 E28.52596
G1 X-44.062 Y1.167 E28.53888
G1 X-38.441 Y-4.476 E28.75559
G1 X-38.105 Y-4.804 E28.76837
G1 X-37.793 Y-5.021 E28.77871
G1 X-37.204 Y-4.812 F7800.000
G1 F1800.000 E27.77871
G92 E0
G1 X15.337 Y44.915 F7800.000
G1 F1800.000 E1.00000
G1 X12.070 Y42.834 F540.000 E1.10540
G1 X12.462 Y42.218 E1.12527
G1 X13.705 Y39.830 E1.19852
G1 X14.736 Y37.342 E1.27179
G1 X15.546 Y34.774 E1.34506
G1 X16.128 Y32.144 E1.41833
G1 X16.480 Y29.475 E1.49159
G1 X16.597 Y26.784 E1.56486
G1 X16.480 Y24.093 E1.63814
G1 X16.128 Y21.424 E1.71138
G1 X15.546 Y18.794 E1.78467
G1 X14.736 Y16.226 E1.85794
G1 X13.705 Y13.738 E1.93121
G1 X12.462 Y11.350 E2.00445
G1 X11.015 Y9.079 E2.07771
G1 X9.375 Y6.942 E2.15100
G1 X7.556 Y4.957 E2.22426
G1 X5.571 Y3.137 E2.29751
G1 X3.433 Y1.497 E2.37081
G1 X1.163 Y0.051 E2.44406
G1 X-1.225 Y-1.192 E2.51731
G1 X-3.713 Y-2.223 E2.59058
G1 X-6.282 Y-3.033 E2.66385
G1 X-8.912 Y-3.615 E2.73713
G1 X-11.621 Y-3.969 E2.81146
G1 X-14.272 Y-4.085 E2.88365
G1 X-16.962 Y-3.967 E2.95693
G1 X-19.631 Y-3.615 E3.03017
G1 X-22.261 Y-3.033 E3.10345
G1 X-24.830 Y-2.223 E3.17672
G1 X-27.317 Y-1.192 E3.24998
G1 X-29.706 Y0.051 E3.32323
G1 X-31.977 Y1.497 E3.39650
G1 X-34.113 Y3.137 E3.46978
G1 X-36.099 Y4.957 E3.54304
G1 X-37.918 Y6.942 E3.61629
G1 X-39.558 Y9.079 E3.68959
G1 X-39.950 Y9.695 E3.70945
G1 X-43.217 Y7.613 E3.81484
G1 X-43.533 Y7.360 E3.82584
G1 X-43.823 Y7.076 E3.83688
G1 X-44.082 Y6.764 E3.84791
G1 X-44.306 Y6.430 E3.85886
G1 X-44.494 Y6.072 E3.86988
G1 X-44.646 Y5.695 E3.88092
G1 X-44.758 Y5.306 E3.89195
G1 X-44.830 Y4.909 E3.90293
G1 X-44.860 Y4.506 E3.91393
G1 X-44.848 Y4.101 E3.92495
G1 X-44.795 Y3.699 E3.93596
G1 X-44.701 Y3.305 E3.94700
G1 X-44.567 Y2.923 E3.95800
G1 X-44.395 Y2.557 E3.96901
G1 X-44.186 Y2.212 E3.97999
G1 X-43.941 Y1.888 E3.99103
G1 X-43.644 Y1.568 E4.00290
G1 X-38.034 Y-4.065 E4.21920
G1 X-37.735 Y-4.356 E4.23056
G1 X-37.400 Y-4.590 E4.24168
G1 X25.984 Y-45.423 E6.29300
G1 X44.861 Y-45.423 E6.80658
G1 X44.861 Y37.841 E9.07192
G1 X24.861 Y37.841 E9.61606
G1 X24.861 Y43.494 E9.76985
G1 X18.510 Y45.224 E9.94893
G1 X18.078 Y45.338 E9.96109
G1 X17.678 Y45.401 E9.97210
G1 X17.274 Y45.422 E9.98311
G1 X16.869 Y45.402 E9.99414
G1 X16.471 Y45.341 E10.00509
G1 X16.078 Y45.237 E10.01614
G1 X15.699 Y45.095 E10.02717
G1 X15.415 Y44.954 E10.03579
G1 X16.520 Y43.274 F7800.000
G1 X16.076 Y43.025 F540.000 E10.04964
G1 X15.677 Y42.606 E10.06539
G1 X15.419 Y42.087 E10.08116
G1 X15.325 Y41.516 E10.09690
G1 X15.404 Y40.941 E10.11268
G1 X15.649 Y40.416 E10.12845
G1 X16.037 Y39.987 E10.14419
G1 X16.535 Y39.692 E10.15994
G1 X17.099 Y39.556 E10.17572
G1 X17.677 Y39.592 E10.19148
G1 X18.218 Y39.797 E10.20720
G1 X18.675 Y40.152 E10.22297
G1 X19.008 Y40.627 E10.23874
G1 X19.184 Y41.178 E10.25447
G1 X19.192 Y41.757 E10.27022
G1 X19.029 Y42.312 E10.28596
G1 X18.708 Y42.794 E10.30173
G1 X18.260 Y43.160 E10.31747
G1 X17.724 Y43.379 E10.33321
G1 X17.147 Y43.430 E10.34898
G1 X16.598 Y43.311 E10.36427
G1 X16.468 Y42.767 F7800.000
G1 X16.238 Y43.778
G1 X15.717 Y43.487 F540.000 E10.38049
G1 X15.198 Y42.941 E10.40100
G1 X14.862 Y42.266 E10.42151
G1 X14.740 Y41.524 E10.44198
G1 X14.843 Y40.776 E10.46252
G1 X15.161 Y40.092 E10.48304
G1 X15.667 Y39.534 E10.50354
G1 X16.315 Y39.150 E10.52401
G1 X17.048 Y38.973 E10.54454
G1 X17.801 Y39.020 E10.56507
G1 X18.504 Y39.287 E10.58552
G1 X19.099 Y39.749 E10.60603
G1 X19.532 Y40.367 E10.62656
G1 X19.761 Y41.083 E10.64702
G1 X19.772 Y41.836 E10.66751
G1 X19.559 Y42.559 E10.68800
G1 X19.142 Y43.187 E10.70852
G1 X18.559 Y43.663 E10.72900
G1 X17.862 Y43.948 E10.74947
G1 X17.111 Y44.014 E10.77000
G1 X16.374 Y43.855 E10.79050
G1 X16.314 Y43.821 E10.79239
G1 F1800.000 E9.79239
G92 E0
G1 X-39.272 Y5.429 F7800.000
G1 F1800.000 E1.00000
G1 X-39.644 Y5.871 F540.000 E1.01574
G1 X-40.130 Y6.186 E1.03149
G1 X-40.688 Y6.342 E1.04725
G1 X-41.267 Y6.328 E1.06302
G1 X-41.816 Y6.143 E1.07877
G1 X-42.286 Y5.806 E1.09450
G1 X-42.636 Y5.344 E1.11027
G1 X-42.834 Y4.800 E1.12603
G1 X-42.863 Y4.222 E1.14177
G1 X-42.720 Y3.660 E1.15753
G1 X-42.418 Y3.166 E1.17330
G1 X-41.984 Y2.783 E1.18904
G1 X-41.456 Y2.545 E1.20480
G1 X-40.881 Y2.472 E1.22056
G1 X-40.311 Y2.574 E1.23631
G1 X-39.796 Y2.838 E1.25207
G1 X-39.381 Y3.241 E1.26780
G1 X-39.105 Y3.751 E1.28358
G1 X-38.989 Y4.318 E1.29933
G1 X-39.047 Y4.894 E1.31507
G1 X-39.238 Y5.349 E1.32848
G1 X-39.849 Y5.385 F7800.000
G1 X-38.874 Y5.854
G1 X-39.257 Y6.310 F540.000 E1.34467
G1 X-39.890 Y6.719 E1.36517
G1 X-40.615 Y6.923 E1.38568
G1 X-41.369 Y6.904 E1.40619
G1 X-42.083 Y6.664 E1.42670
G1 X-42.694 Y6.225 E1.44715
G1 X-43.150 Y5.624 E1.46767
G1 X-43.408 Y4.915 E1.48819
G1 X-43.445 Y4.164 E1.50867
G1 X-43.259 Y3.433 E1.52917
G1 X-42.866 Y2.790 E1.54969
G1 X-42.301 Y2.292 E1.57017
G1 X-41.614 Y1.982 E1.59067
G1 X-40.867 Y1.887 E1.61117
G1 X-40.124 Y2.019 E1.63169
G1 X-39.455 Y2.363 E1.65217
G1 X-38.915 Y2.888 E1.67265
G1 X-38.555 Y3.551 E1.69318
G1 X-38.405 Y4.289 E1.71366
G1 X-38.480 Y5.038 E1.73415
G1 X-38.773 Y5.734 E1.75468
G1 X-38.818 Y5.788 E1.75661
G1 X-7.919 Y-14.032 F7800.000
G1 X-8.169 Y-14.498 F540.000 E1.77099
G1 X-8.360 Y-14.990 E1.78535
G1 X-8.488 Y-15.503 E1.79974
G1 X-8.553 Y-16.027 E1.81411
G1 X-8.553 Y-16.555 E1.82846
G1 X-8.488 Y-17.079 E1.84283
G1 X-8.360 Y-17.592 E1.85722
G1 X-8.169 Y-18.084 E1.87158
G1 X-7.919 Y-18.550 E1.88596
G1 X-7.613 Y-18.981 E1.90033
G1 X-7.258 Y-19.371 E1.91468
G1 X-6.857 Y-19.714 E1.92905
G1 X15.586 Y-34.007 E2.65296
G1 X16.057 Y-34.242 E2.66727
G1 X16.554 Y-34.417 E2.68162
G1 X17.070 Y-34.530 E2.69599
G1 X17.597 Y-34.579 E2.71038
G1 X18.124 Y-34.563 E2.72474
G1 X18.646 Y-34.481 E2.73912
G1 X19.154 Y-34.337 E2.75346
G1 X19.641 Y-34.131 E2.76785
G1 X20.098 Y-33.867 E2.78222
G1 X20.519 Y-33.549 E2.79656
G1 X20.899 Y-33.181 E2.81095
G1 X21.230 Y-32.769 E2.82534
G1 X21.508 Y-32.320 E2.83971
G1 X21.729 Y-31.841 E2.85407
G1 X21.889 Y-31.338 E2.86842
G1 X21.986 Y-30.819 E2.88279
G1 X22.018 Y-30.300 E2.89694
G1 X22.018 Y3.718 E3.82244
G1 X21.986 Y4.237 E3.83658
G1 X21.889 Y4.756 E3.85096
G1 X21.729 Y5.259 E3.86531
G1 X21.508 Y5.738 E3.87967
G1 X21.230 Y6.187 E3.89404
G1 X20.899 Y6.599 E3.90843
G1 X20.519 Y6.967 E3.92281
G1 X20.098 Y7.285 E3.93716
G1 X19.641 Y7.549 E3.95153
G1 X19.154 Y7.755 E3.96592
G1 X18.646 Y7.899 E3.98026
G1 X18.124 Y7.981 E3.99464
G1 X17.597 Y7.997 E4.00900
G1 X17.070 Y7.948 E4.02339
G1 X16.554 Y7.835 E4.03776
G1 X16.057 Y7.660 E4.05211
G1 X15.584 Y7.424 E4.06649
