; generated by Slic3r 0.9.10b on 2013-12-22 at 14:30:54

; layer_height = 0.3
; perimeters = 2
; top_solid_layers = 3
; bottom_solid_layers = 3
; fill_density = 0.4
; perimeter_speed = 30
; infill_speed = 60
; travel_speed = 130
; nozzle_diameter = 0.5
; filament_diameter = 2.85
; extrusion_multiplier = 1
; perimeters extrusion width = 0.70mm
; infill extrusion width = 0.70mm
; solid infill extrusion width = 0.70mm
; top infill extrusion width = 0.70mm
; first layer extrusion width = 0.60mm

G21 ; set units to millimeters
M107
M104 S0
M83
M140 S70
G28
G1Y98F9000
M190 S70
G1X5Y98Z150F9000
M104 S210
G1X5Y98Z1F9000
G1Z0.05
M109 S210
G1Z5
G1X15
;G1E5F50
G90 ; use absolute coordinates
G92 E0
M82 ; use absolute distances for extrusion
G1 F1800.000 E-1.00000
G92 E0
G1 Z0.300 F7800.000
G1 X-38.828 Y-13.431
G1 F1800.000 E1.00000
G1 X19.782 Y-49.401 F540.000 E2.87093
G1 X21.431 Y-50.121 E2.91991
G1 X23.222 Y-50.371 E2.96908
G1 X43.222 Y-50.371 E3.51322
G1 X44.501 Y-50.241 E3.54822
G1 X45.742 Y-49.871 E3.58343
G1 X46.871 Y-49.261 E3.61836
G1 X47.871 Y-48.441 E3.65355
G1 X48.692 Y-47.441 E3.68873
G1 X49.302 Y-46.311 E3.72367
G1 X49.671 Y-45.071 E3.75888
G1 X49.802 Y-43.791 E3.79388
G1 X49.802 Y36.209 E5.97041
G1 X49.662 Y37.569 E6.00761
G1 X49.242 Y38.869 E6.04478
G1 X48.561 Y40.049 E6.08183
G1 X47.651 Y41.069 E6.11902
G1 X46.552 Y41.879 E6.15618
G1 X45.311 Y42.449 E6.19331
G1 X23.322 Y49.799 E6.82412
G1 X22.352 Y50.059 E6.85144
G1 X21.322 Y50.249 E6.87994
G1 X20.662 Y50.329 E6.89803
G1 X20.172 Y50.359 E6.91138
G1 X19.382 Y50.359 E6.93288
G1 X18.882 Y50.329 E6.94650
G1 X17.842 Y50.199 E6.97502
G1 X17.072 Y50.039 E6.99642
G1 X16.592 Y49.909 E7.00995
G1 X15.572 Y49.559 E7.03928
G1 X14.962 Y49.299 E7.05733
G1 X14.511 Y49.079 E7.07095
G1 X13.871 Y48.719 E7.09093
G1 X-44.758 Y11.369 E8.98223
G1 X-45.319 Y10.969 E9.00096
G1 X-45.708 Y10.659 E9.01451
G1 X-46.268 Y10.159 E9.03494
G1 X-47.069 Y9.319 E9.06649
G1 X-47.378 Y8.939 E9.07984
G1 X-47.988 Y8.079 E9.10852
G1 X-48.388 Y7.419 E9.12952
G1 X-48.618 Y6.979 E9.14303
G1 X-48.898 Y6.369 E9.16129
G1 X-49.288 Y5.319 E9.19176
G1 X-49.428 Y4.839 E9.20537
G1 X-49.578 Y4.189 E9.22351
G1 X-49.668 Y3.699 E9.23707
G1 X-49.768 Y2.909 E9.25873
G1 X-49.798 Y2.419 E9.27209
G1 X-49.798 Y1.399 E9.29984
G1 X-49.748 Y0.729 E9.31812
G1 X-49.688 Y0.239 E9.33155
G1 X-49.538 Y-0.561 E9.35370
G1 X-49.268 Y-1.561 E9.38188
G1 X-49.108 Y-2.031 E9.39538
G1 X-48.838 Y-2.691 E9.41478
G1 X-48.628 Y-3.141 E9.42830
G1 X-48.258 Y-3.821 E9.44936
G1 X-47.998 Y-4.241 E9.46280
G1 X-47.618 Y-4.791 E9.48098
G1 X-47.319 Y-5.181 E9.49437
G1 X-46.688 Y-5.921 E9.52081
G1 X-40.378 Y-12.251 E9.76398
G1 X-39.598 Y-12.901 E9.79160
G1 X-38.901 Y-13.383 E9.81468
G1 F1800.000 E8.81468
G92 E0
G1 X-35.844 Y-8.546 F7800.000
G1 F1800.000 E1.00000
G1 X22.843 Y-44.572 F540.000 E2.87350
G1 X23.149 Y-44.659 E2.88215
G1 X43.463 Y-44.659 E3.43485
G1 X43.676 Y-44.571 E3.44111
G1 X44.008 Y-44.239 E3.45389
G1 X44.096 Y-44.026 E3.46015
G1 X44.096 Y36.444 E5.64946
G1 X44.008 Y36.657 E5.65573
G1 X43.676 Y36.989 E5.66851
G1 X43.463 Y37.077 E5.67477
G1 X24.096 Y37.077 E6.20168
G1 X24.096 Y43.079 E6.36499
G1 X24.040 Y43.252 E6.36994
G1 X23.825 Y43.552 E6.37997
G1 X23.679 Y43.660 E6.38492
G1 X21.492 Y44.391 E6.44765
G1 X20.921 Y44.540 E6.46372
G1 X20.329 Y44.631 E6.47999
G1 X19.763 Y44.659 E6.49543
G1 X19.224 Y44.633 E6.51009
G1 X18.601 Y44.538 E6.52724
G1 X18.064 Y44.396 E6.54234
G1 X17.534 Y44.199 E6.55773
G1 X16.997 Y43.935 E6.57403
G1 X12.707 Y41.206 E6.71235
G1 X12.575 Y41.017 E6.71861
G1 X12.473 Y40.559 E6.73139
G1 X12.513 Y40.332 E6.73765
G1 X13.457 Y38.850 E6.78546
G1 X14.630 Y36.596 E6.85459
G1 X15.603 Y34.248 E6.92374
G1 X16.367 Y31.824 E6.99288
G1 X16.917 Y29.342 E7.06204
G1 X17.249 Y26.823 E7.13117
G1 X17.360 Y24.284 E7.20032
G1 X17.249 Y21.745 E7.26947
G1 X16.917 Y19.226 E7.33859
G1 X16.367 Y16.744 E7.40776
G1 X15.603 Y14.320 E7.47690
G1 X14.630 Y11.972 E7.54605
G1 X13.457 Y9.718 E7.61517
G1 X12.085 Y7.566 E7.68463
G1 X10.544 Y5.558 E7.75347
G1 X8.827 Y3.685 E7.82260
G1 X6.954 Y1.968 E7.89173
G1 X4.937 Y0.421 E7.96090
G1 X2.794 Y-0.945 E8.03003
G1 X0.540 Y-2.118 E8.09916
G1 X-1.808 Y-3.091 E8.16831
G1 X-4.231 Y-3.855 E8.23745
G1 X-6.713 Y-4.405 E8.30661
G1 X-9.235 Y-4.737 E8.37581
G1 X-11.772 Y-4.847 E8.44489
G1 X-14.311 Y-4.737 E8.51404
G1 X-16.830 Y-4.405 E8.58316
G1 X-19.312 Y-3.855 E8.65233
G1 X-21.735 Y-3.091 E8.72146
G1 X-24.083 Y-2.118 E8.79061
G1 X-26.337 Y-0.945 E8.85974
G1 X-28.480 Y0.421 E8.92887
G1 X-30.497 Y1.968 E8.99804
G1 X-32.370 Y3.685 E9.06717
G1 X-34.087 Y5.558 E9.13630
G1 X-35.635 Y7.575 E9.20547
G1 X-36.579 Y9.057 E9.25327
G1 X-36.767 Y9.189 E9.25954
G1 X-37.226 Y9.291 E9.27232
G1 X-37.453 Y9.251 E9.27859
G1 X-41.715 Y6.534 E9.41610
G1 X-42.195 Y6.151 E9.43280
G1 X-42.619 Y5.731 E9.44905
G1 X-42.981 Y5.293 E9.46452
G1 X-43.306 Y4.806 E9.48044
G1 X-43.576 Y4.289 E9.49632
G1 X-43.793 Y3.748 E9.51216
G1 X-43.953 Y3.187 E9.52802
G1 X-44.055 Y2.612 E9.54393
G1 X-44.096 Y2.030 E9.55981
G1 X-44.078 Y1.447 E9.57568
G1 X-44.005 Y0.897 E9.59075
G1 X-43.875 Y0.344 E9.60622
G1 X-43.669 Y-0.249 E9.62330
G1 X-43.432 Y-0.750 E9.63837
G1 X-43.141 Y-1.237 E9.65382
G1 X-42.780 Y-1.717 E9.67014
G1 X-42.389 Y-2.142 E9.68586
G1 X-36.753 Y-7.800 E9.90314
G1 X-36.360 Y-8.182 E9.91805
G1 X-35.915 Y-8.498 E9.93289
G1 X-35.548 Y-8.049 F7800.000
G1 X23.076 Y-44.037 F540.000 E11.80439
G1 X23.230 Y-44.080 E11.80875
G1 X43.179 Y-44.080 E12.35149
G1 X43.518 Y-43.741 E12.36453
G1 X43.518 Y36.159 E14.53836
G1 X43.179 Y36.498 E14.55140
G1 X23.518 Y36.498 E15.08631
G1 X23.518 Y42.873 E15.25976
G1 X23.300 Y43.176 E15.26991
G1 X21.326 Y43.836 E15.32653
G1 X20.830 Y43.968 E15.34049
G1 X20.314 Y44.051 E15.35472
G1 X19.791 Y44.080 E15.36897
G1 X19.238 Y44.053 E15.38404
G1 X18.719 Y43.972 E15.39831
G1 X18.240 Y43.845 E15.41179
G1 X17.751 Y43.663 E15.42599
G1 X17.282 Y43.431 E15.44024
G1 X13.258 Y40.871 E15.56999
G1 X13.154 Y40.403 E15.58303
G1 X13.959 Y39.139 E15.62378
G1 X15.155 Y36.841 E15.69429
G1 X16.147 Y34.446 E15.76481
G1 X16.927 Y31.974 E15.83532
G1 X17.487 Y29.443 E15.90586
G1 X17.826 Y26.874 E15.97636
G1 X17.939 Y24.284 E16.04688
G1 X17.826 Y21.694 E16.11741
G1 X17.487 Y19.125 E16.18791
G1 X16.927 Y16.594 E16.25845
G1 X16.147 Y14.122 E16.32896
G1 X15.155 Y11.727 E16.39948
G1 X13.959 Y9.429 E16.46998
G1 X12.559 Y7.233 E16.54082
G1 X10.988 Y5.186 E16.61103
G1 X9.237 Y3.276 E16.68154
G1 X7.326 Y1.525 E16.75204
G1 X5.269 Y-0.054 E16.82259
G1 X3.084 Y-1.446 E16.89309
G1 X0.785 Y-2.643 E16.96359
G1 X-1.610 Y-3.635 E17.03412
G1 X-4.081 Y-4.414 E17.10463
G1 X-6.613 Y-4.975 E17.17517
G1 X-9.184 Y-5.314 E17.24574
G1 X-11.772 Y-5.426 E17.31619
G1 X-14.361 Y-5.314 E17.38672
G1 X-16.930 Y-4.975 E17.45722
G1 X-19.462 Y-4.414 E17.52775
G1 X-21.933 Y-3.635 E17.59827
G1 X-24.328 Y-2.643 E17.66879
G1 X-26.627 Y-1.446 E17.73929
G1 X-28.812 Y-0.054 E17.80980
G1 X-30.869 Y1.525 E17.88034
G1 X-32.780 Y3.276 E17.95085
G1 X-34.531 Y5.186 E18.02135
G1 X-36.109 Y7.243 E18.09189
G1 X-36.914 Y8.506 E18.13264
G1 X-37.382 Y8.610 E18.14569
G1 X-41.378 Y6.063 E18.27462
G1 X-41.789 Y5.737 E18.28889
G1 X-42.184 Y5.350 E18.30393
G1 X-42.518 Y4.946 E18.31819
G1 X-42.809 Y4.509 E18.33246
G1 X-43.051 Y4.045 E18.34671
G1 X-43.245 Y3.559 E18.36095
G1 X-43.389 Y3.056 E18.37520
G1 X-43.481 Y2.539 E18.38948
G1 X-43.518 Y2.017 E18.40372
G1 X-43.501 Y1.493 E18.41798
G1 X-43.431 Y0.974 E18.43223
G1 X-43.316 Y0.493 E18.44569
G1 X-43.133 Y-0.029 E18.46074
G1 X-42.922 Y-0.476 E18.47419
G1 X-42.653 Y-0.925 E18.48842
G1 X-42.337 Y-1.345 E18.50272
G1 X-41.975 Y-1.737 E18.51723
G1 X-36.349 Y-7.386 E18.73414
G1 X-35.991 Y-7.735 E18.74774
G1 X-35.619 Y-7.999 E18.76016
G1 X-35.224 Y-7.569 F7800.000
G1 X23.310 Y-43.502 F540.000 E20.62881
G1 X42.939 Y-43.502 E21.16285
G1 X42.939 Y35.920 E23.32365
G1 X22.939 Y35.920 E23.86778
G1 X22.939 Y42.687 E24.05189
G1 X21.152 Y43.285 E24.10317
G1 X20.697 Y43.405 E24.11596
G1 X20.238 Y43.477 E24.12860
G1 X19.775 Y43.501 E24.14122
G1 X19.311 Y43.479 E24.15387
G1 X18.853 Y43.408 E24.16647
G1 X18.402 Y43.289 E24.17914
G1 X17.968 Y43.126 E24.19177
G1 X17.553 Y42.920 E24.20438
G1 X13.771 Y40.511 E24.32637
G1 X14.460 Y39.429 E24.36129
G1 X15.680 Y37.085 E24.43316
G1 X16.692 Y34.644 E24.50506
G1 X17.486 Y32.124 E24.57694
G1 X18.058 Y29.543 E24.64886
G1 X18.403 Y26.924 E24.72074
G1 X18.518 Y24.284 E24.79264
G1 X18.403 Y21.644 E24.86454
G1 X18.058 Y19.025 E24.93641
G1 X17.486 Y16.444 E25.00832
G1 X16.692 Y13.924 E25.08021
G1 X15.680 Y11.483 E25.15211
G1 X14.460 Y9.139 E25.22398
G1 X13.026 Y6.891 E25.29654
G1 X11.431 Y4.814 E25.36778
G1 X9.646 Y2.866 E25.43966
G1 X7.699 Y1.081 E25.51154
G1 X5.601 Y-0.528 E25.58346
G1 X3.373 Y-1.948 E25.65534
G1 X1.030 Y-3.167 E25.72721
G1 X-1.411 Y-4.179 E25.79911
G1 X-3.932 Y-4.974 E25.87100
G1 X-6.512 Y-5.545 E25.94291
G1 X-9.131 Y-5.890 E26.01478
G1 X-11.772 Y-6.006 E26.08668
G1 X-14.412 Y-5.890 E26.15858
G1 X-17.031 Y-5.545 E26.23045
G1 X-19.611 Y-4.974 E26.30237
G1 X-22.132 Y-4.179 E26.37426
G1 X-24.573 Y-3.167 E26.44615
G1 X-26.916 Y-1.948 E26.51803
G1 X-29.145 Y-0.528 E26.58991
G1 X-31.242 Y1.081 E26.66183
G1 X-33.189 Y2.866 E26.73371
G1 X-34.974 Y4.814 E26.80558
G1 X-36.584 Y6.911 E26.87750
G1 X-37.273 Y7.994 E26.91242
G1 X-41.054 Y5.584 E27.03441
G1 X-41.417 Y5.294 E27.04703
G1 X-41.749 Y4.969 E27.05968
G1 X-42.046 Y4.611 E27.07232
G1 X-42.304 Y4.227 E27.08492
G1 X-42.520 Y3.815 E27.09757
G1 X-42.694 Y3.384 E27.11021
G1 X-42.822 Y2.938 E27.12285
G1 X-42.905 Y2.482 E27.13547
G1 X-42.939 Y2.019 E27.14810
G1 X-42.926 Y1.554 E27.16074
G1 X-42.865 Y1.094 E27.17337
G1 X-42.757 Y0.642 E27.18602
G1 X-42.603 Y0.204 E27.19864
G1 X-42.405 Y-0.216 E27.21128
G1 X-42.166 Y-0.613 E27.22390
G1 X-41.885 Y-0.984 E27.23655
G1 X-41.562 Y-1.333 E27.24948
G1 X-35.941 Y-6.976 E27.46618
G1 X-35.605 Y-7.304 E27.47896
G1 X-35.295 Y-7.519 E27.48921
G1 X-34.710 Y-7.303 F7800.000
G1 F1800.000 E26.48921
G92 E0
G1 X42.361 Y-42.923 F7800.000
G1 F1800.000 E1.00000
G1 X42.361 Y35.341 F540.000 E3.12931
G1 X22.361 Y35.341 E3.67344
G1 X22.361 Y38.056 E3.74729
G1 X22.199 Y38.106 E3.75190
G1 X21.599 Y37.249 E3.78037
G1 X21.004 Y36.787 E3.80088
G1 X20.301 Y36.520 E3.82133
G1 X19.548 Y36.473 E3.84186
G1 X18.815 Y36.650 E3.86238
G1 X18.167 Y37.034 E3.88286
G1 X17.661 Y37.592 E3.90335
G1 X17.343 Y38.276 E3.92388
G1 X17.240 Y39.024 E3.94441
G1 X17.362 Y39.766 E3.96489
G1 X17.698 Y40.441 E3.98539
G1 X18.217 Y40.987 E4.00590
G1 X18.874 Y41.355 E4.02638
G1 X19.611 Y41.514 E4.04688
G1 X20.362 Y41.448 E4.06740
G1 X21.059 Y41.163 E4.08788
G1 X21.642 Y40.687 E4.10836
G1 X22.187 Y39.866 E4.13517
G1 X22.361 Y39.918 E4.14011
G1 X22.361 Y42.270 E4.20409
G1 X20.986 Y42.730 E4.24353
G1 X20.578 Y42.838 E4.25502
G1 X20.178 Y42.901 E4.26603
G1 X19.774 Y42.922 E4.27704
G1 X19.369 Y42.902 E4.28808
G1 X18.971 Y42.841 E4.29902
G1 X18.578 Y42.737 E4.31007
G1 X18.199 Y42.595 E4.32110
G1 X17.837 Y42.415 E4.33209
G1 X14.570 Y40.334 E4.43749
G1 X14.962 Y39.718 E4.45736
G1 X16.205 Y37.330 E4.53060
G1 X17.236 Y34.842 E4.60387
G1 X18.045 Y32.275 E4.67712
G1 X18.628 Y29.644 E4.75043
G1 X18.980 Y26.975 E4.82367
G1 X19.097 Y24.284 E4.89695
G1 X18.980 Y21.593 E4.97022
G1 X18.628 Y18.924 E5.04347
G1 X18.046 Y16.294 E5.11675
G1 X17.236 Y13.726 E5.19002
G1 X16.205 Y11.238 E5.26330
G1 X14.962 Y8.850 E5.33654
G1 X13.515 Y6.579 E5.40980
G1 X11.875 Y4.442 E5.48309
G1 X10.056 Y2.457 E5.55634
G1 X8.071 Y0.637 E5.62960
G1 X5.933 Y-1.003 E5.70290
G1 X3.663 Y-2.449 E5.77615
G1 X1.275 Y-3.692 E5.84939
G1 X-1.213 Y-4.723 E5.92266
G1 X-3.782 Y-5.533 E5.99594
G1 X-6.412 Y-6.115 E6.06922
G1 X-9.080 Y-6.467 E6.14244
G1 X-11.772 Y-6.585 E6.21574
G1 X-14.462 Y-6.467 E6.28902
G1 X-17.131 Y-6.115 E6.36226
G1 X-19.761 Y-5.533 E6.43554
G1 X-22.330 Y-4.723 E6.50881
G1 X-24.817 Y-3.692 E6.58207
G1 X-27.206 Y-2.449 E6.65532
G1 X-29.477 Y-1.003 E6.72859
G1 X-31.597 Y0.622 E6.80127
G1 X-33.599 Y2.457 E6.87514
G1 X-35.418 Y4.442 E6.94839
G1 X-37.058 Y6.579 E7.02168
G1 X-37.450 Y7.195 E7.04155
G1 X-40.717 Y5.113 E7.14693
G1 X-41.033 Y4.860 E7.15794
G1 X-41.323 Y4.576 E7.16898
G1 X-41.582 Y4.264 E7.18001
G1 X-41.806 Y3.930 E7.19095
G1 X-41.994 Y3.572 E7.20197
G1 X-42.146 Y3.195 E7.21301
G1 X-42.258 Y2.806 E7.22404
G1 X-42.330 Y2.409 E7.23502
G1 X-42.360 Y2.006 E7.24602
G1 X-42.348 Y1.601 E7.25705
G1 X-42.295 Y1.199 E7.26806
G1 X-42.201 Y0.805 E7.27909
G1 X-42.067 Y0.423 E7.29009
G1 X-41.895 Y0.057 E7.30110
G1 X-41.686 Y-0.288 E7.31208
G1 X-41.441 Y-0.612 E7.32312
G1 X-41.144 Y-0.932 E7.33500
G1 X-35.235 Y-6.856 E7.56266
G1 X-34.907 Y-7.084 E7.57352
G1 X23.474 Y-42.923 E9.43727
G1 X42.274 Y-42.923 E9.94877
G1 F1800.000 E8.94877
G92 E0
G1 X20.177 Y37.092 F7800.000
G1 F1800.000 E1.00000
G1 X20.718 Y37.297 F540.000 E1.01572
G1 X21.175 Y37.652 E1.03149
G1 X21.508 Y38.127 E1.04725
G1 X21.684 Y38.678 E1.06299
G1 X21.692 Y39.257 E1.07874
G1 X21.529 Y39.812 E1.09448
G1 X21.208 Y40.294 E1.11024
G1 X20.760 Y40.660 E1.12599
G1 X20.224 Y40.879 E1.14173
G1 X19.647 Y40.930 E1.15750
G1 X19.081 Y40.808 E1.17326
G1 X18.576 Y40.525 E1.18900
G1 X18.177 Y40.106 E1.20475
G1 X17.919 Y39.587 E1.22051
G1 X17.825 Y39.016 E1.23625
G1 X17.904 Y38.441 E1.25203
G1 X18.149 Y37.916 E1.26780
G1 X18.537 Y37.487 E1.28354
G1 X19.035 Y37.192 E1.29929
G1 X19.599 Y37.056 E1.31507
G1 X20.091 Y37.087 E1.32848
G1 X20.326 Y37.650 F7800.000
G1 F1800.000 E0.32848
G92 E0
G1 X-36.772 Y2.929 F7800.000
G1 F1800.000 E1.00000
G1 X-37.144 Y3.371 F540.000 E1.01574
G1 X-37.630 Y3.686 E1.03149
G1 X-38.188 Y3.842 E1.04725
G1 X-38.767 Y3.828 E1.06302
G1 X-39.316 Y3.643 E1.07877
G1 X-39.786 Y3.306 E1.09450
G1 X-40.136 Y2.844 E1.11027
G1 X-40.334 Y2.300 E1.12603
G1 X-40.363 Y1.722 E1.14177
G1 X-40.220 Y1.160 E1.15753
G1 X-39.918 Y0.666 E1.17330
G1 X-39.484 Y0.283 E1.18904
G1 X-38.956 Y0.045 E1.20480
G1 X-38.381 Y-0.028 E1.22056
G1 X-37.811 Y0.074 E1.23631
G1 X-37.296 Y0.338 E1.25207
G1 X-36.881 Y0.741 E1.26780
G1 X-36.605 Y1.251 E1.28358
G1 X-36.489 Y1.818 E1.29933
G1 X-36.547 Y2.394 E1.31507
G1 X-36.738 Y2.849 E1.32848
G1 X-37.349 Y2.885 F7800.000
G1 X-36.374 Y3.354
G1 X-36.757 Y3.810 F540.000 E1.34467
G1 X-37.390 Y4.219 E1.36517
G1 X-38.115 Y4.423 E1.38568
G1 X-38.869 Y4.404 E1.40619
G1 X-39.583 Y4.164 E1.42670
G1 X-40.194 Y3.725 E1.44715
G1 X-40.650 Y3.124 E1.46767
G1 X-40.908 Y2.415 E1.48819
G1 X-40.945 Y1.664 E1.50867
G1 X-40.759 Y0.933 E1.52917
G1 X-40.366 Y0.290 E1.54969
G1 X-39.801 Y-0.208 E1.57017
G1 X-39.114 Y-0.518 E1.59067
G1 X-38.367 Y-0.613 E1.61117
G1 X-37.624 Y-0.481 E1.63169
G1 X-36.955 Y-0.137 E1.65217
G1 X-36.415 Y0.388 E1.67265
G1 X-36.055 Y1.051 E1.69318
G1 X-35.905 Y1.789 E1.71366
G1 X-35.980 Y2.538 E1.73415
G1 X-36.273 Y3.234 E1.75468
G1 X-36.318 Y3.288 E1.75661
G1 X-6.419 Y-13.532 F7800.000
G1 X-6.669 Y-13.998 F540.000 E1.77099
G1 X-6.860 Y-14.490 E1.78535
G1 X-6.988 Y-15.003 E1.79974
G1 X-7.053 Y-15.527 E1.81411
G1 X-7.053 Y-16.055 E1.82846
G1 X-6.988 Y-16.579 E1.84283
G1 X-6.860 Y-17.092 E1.85722
G1 X-6.669 Y-17.584 E1.87158
G1 X-6.419 Y-18.050 E1.88596
G1 X-6.113 Y-18.481 E1.90033
G1 X-5.758 Y-18.871 E1.91468
G1 X-5.357 Y-19.214 E1.92905
G1 X-4.929 Y-19.498 E1.94302
G1 X17.086 Y-33.507 E2.65296
G1 X17.557 Y-33.742 E2.66727
G1 X18.054 Y-33.917 E2.68162
G1 X18.570 Y-34.030 E2.69599
G1 X19.097 Y-34.079 E2.71038
G1 X19.624 Y-34.063 E2.72474
G1 X20.146 Y-33.981 E2.73912
G1 X20.654 Y-33.837 E2.75346
G1 X21.141 Y-33.631 E2.76785
G1 X21.598 Y-33.367 E2.78222
G1 X22.019 Y-33.049 E2.79657
G1 X22.399 Y-32.681 E2.81095
G1 X22.730 Y-32.269 E2.82534
G1 X23.008 Y-31.820 E2.83971
G1 X23.229 Y-31.341 E2.85407
G1 X23.389 Y-30.838 E2.86843
G1 X23.486 Y-30.319 E2.88280
G1 X23.518 Y-29.800 E2.89694
G1 X23.518 Y2.218 E3.76803
G1 X23.486 Y2.737 E3.78217
G1 X23.389 Y3.256 E3.79654
G1 X23.229 Y3.759 E3.81090
G1 X23.008 Y4.238 E3.82526
G1 X22.730 Y4.687 E3.83963
G1 X22.399 Y5.099 E3.85402
G1 X22.019 Y5.467 E3.86840
G1 X21.598 Y5.785 E3.88275
G1 X21.141 Y6.049 E3.89712
G1 X20.654 Y6.255 E3.91151
G1 X20.146 Y6.399 E3.92585
G1 X19.624 Y6.481 E3.94023
G1 X19.097 Y6.497 E3.95459
G1 X18.570 Y6.448 E3.96898
G1 X18.054 Y6.335 E3.98335
G1 X17.557 Y6.160 E3.99770
