; generated by Slic3r 0.9.10b on 2013-12-22 at 18:27:39

; layer_height = 0.3
; perimeters = 2
; top_solid_layers = 3
; bottom_solid_layers = 3
; fill_density = 0.4
; perimeter_speed = 30
; infill_speed = 60
; travel_speed = 130
; nozzle_diameter = 0.5
; filament_diameter = 2.85
; extrusion_multiplier = 1
; perimeters extrusion width = 0.70mm
; infill extrusion width = 0.70mm
; solid infill extrusion width = 0.70mm
; top infill extrusion width = 0.70mm
; first layer extrusion width = 0.60mm

G21 ; set units to millimeters
M107
M104 S0
M83
M140 S70
G28
G1Y98F9000
M190 S70
G1X5Y98Z150F9000
M104 S210
G1X5Y98Z1F9000
G1Z0.05
M109 S210
G1Z5
G1X15
;G1E5F50
G90 ; use absolute coordinates
G92 E0
M82 ; use absolute distances for extrusion
G1 F1800.000 E-1.00000
G92 E0
G1 Z0.300 F7800.000
G1 X22.120 Y22.510
G1 F1800.000 E1.00000
G1 X20.510 Y23.990 F540.000 E1.05950
G1 X20.050 Y24.380 E1.07591
G1 X18.320 Y25.700 E1.13511
G1 X17.880 Y26.010 E1.14975
G1 X16.040 Y27.190 E1.20922
G1 X15.530 Y27.490 E1.22532
G1 X13.570 Y28.510 E1.28543
G1 X13.050 Y28.750 E1.30102
G1 X11.070 Y29.570 E1.35932
G1 X10.500 Y29.770 E1.37576
G1 X8.410 Y30.420 E1.43531
G1 X7.880 Y30.560 E1.45022
G1 X5.760 Y31.030 E1.50930
G1 X5.210 Y31.130 E1.52451
G1 X3.040 Y31.420 E1.58407
G1 X2.440 Y31.470 E1.60045
G1 X0.260 Y31.560 E1.65981
G1 X-0.280 Y31.560 E1.67450
G1 X-2.450 Y31.470 E1.73359
G1 X-3.050 Y31.420 E1.74997
G1 X-5.220 Y31.130 E1.80954
G1 X-5.780 Y31.030 E1.82501
G1 X-7.940 Y30.550 E1.88521
G1 X-8.470 Y30.410 E1.90013
G1 X-10.520 Y29.770 E1.95856
G1 X-11.100 Y29.560 E1.97534
G1 X-13.110 Y28.720 E2.03461
G1 X-13.580 Y28.500 E2.04873
G1 X-15.520 Y27.500 E2.10811
G1 X-16.080 Y27.180 E2.12565
G1 X-17.910 Y26.000 E2.18489
G1 X-18.320 Y25.710 E2.19856
G1 X-20.060 Y24.390 E2.25798
G1 X-20.550 Y23.980 E2.27536
G1 X-22.150 Y22.500 E2.33466
G1 X-24.000 Y20.510 E2.40858
G1 X-24.390 Y20.050 E2.42499
G1 X-25.710 Y18.320 E2.48419
G1 X-26.020 Y17.880 E2.49884
G1 X-27.200 Y16.040 E2.55831
G1 X-27.500 Y15.520 E2.57464
G1 X-28.500 Y13.590 E2.63378
G1 X-28.730 Y13.100 E2.64850
G1 X-29.570 Y11.090 E2.70777
G1 X-29.780 Y10.500 E2.72481
G1 X-30.570 Y7.910 E2.79848
G1 X-31.050 Y5.790 E2.85762
G1 X-31.150 Y5.180 E2.87444
G1 X-31.430 Y3.010 E2.93397
G1 X-31.480 Y2.440 E2.94953
G1 X-31.570 Y0.260 E3.00889
G1 X-31.570 Y-0.280 E3.02359
G1 X-31.480 Y-2.450 E3.08267
G1 X-31.430 Y-3.020 E3.09824
G1 X-31.150 Y-5.190 E3.15777
G1 X-31.050 Y-5.800 E3.17459
G1 X-30.570 Y-7.920 E3.23373
G1 X-29.780 Y-10.510 E3.30740
G1 X-29.570 Y-11.100 E3.32443
G1 X-28.730 Y-13.110 E3.38370
G1 X-28.510 Y-13.580 E3.39782
G1 X-27.510 Y-15.520 E3.45720
G1 X-27.190 Y-16.080 E3.47475
G1 X-26.010 Y-17.910 E3.53399
G1 X-25.710 Y-18.330 E3.54803
G1 X-24.390 Y-20.060 E3.60724
G1 X-24.000 Y-20.520 E3.62364
G1 X-22.150 Y-22.510 E3.69757
G1 X-20.550 Y-23.990 E3.75686
G1 X-20.060 Y-24.400 E3.77425
G1 X-18.320 Y-25.720 E3.83367
G1 X-17.910 Y-26.010 E3.84733
G1 X-16.080 Y-27.190 E3.90657
G1 X-15.520 Y-27.510 E3.92412
G1 X-13.580 Y-28.510 E3.98350
G1 X-13.110 Y-28.730 E3.99762
G1 X-11.100 Y-29.570 E4.05689
G1 X-10.520 Y-29.780 E4.07367
G1 X-8.440 Y-30.430 E4.13296
G1 X-7.930 Y-30.570 E4.14735
G1 X-5.800 Y-31.050 E4.20675
G1 X-5.190 Y-31.150 E4.22357
G1 X-3.020 Y-31.430 E4.28310
G1 X-2.450 Y-31.480 E4.29866
G1 X-0.280 Y-31.570 E4.35775
G1 X0.260 Y-31.570 E4.37244
G1 X2.440 Y-31.480 E4.43180
G1 X3.010 Y-31.430 E4.44737
G1 X5.180 Y-31.150 E4.50690
G1 X5.790 Y-31.050 E4.52372
G1 X7.910 Y-30.570 E4.58286
G1 X10.500 Y-29.780 E4.65653
G1 X11.090 Y-29.570 E4.67356
G1 X13.100 Y-28.730 E4.73283
G1 X13.590 Y-28.500 E4.74756
G1 X15.520 Y-27.500 E4.80670
G1 X16.040 Y-27.200 E4.82303
G1 X17.880 Y-26.020 E4.88250
G1 X18.320 Y-25.710 E4.89714
G1 X20.050 Y-24.390 E4.95635
G1 X20.510 Y-24.000 E4.97276
G1 X22.500 Y-22.150 E5.04668
G1 X23.980 Y-20.550 E5.10598
G1 X24.390 Y-20.060 E5.12336
G1 X25.710 Y-18.320 E5.18278
G1 X26.000 Y-17.910 E5.19644
G1 X27.180 Y-16.080 E5.25568
G1 X27.500 Y-15.520 E5.27323
G1 X28.500 Y-13.580 E5.33261
G1 X28.720 Y-13.110 E5.34673
G1 X29.560 Y-11.100 E5.40600
G1 X29.770 Y-10.520 E5.42278
G1 X30.410 Y-8.470 E5.48121
G1 X30.550 Y-7.940 E5.49612
G1 X31.030 Y-5.780 E5.55632
G1 X31.130 Y-5.220 E5.57180
G1 X31.420 Y-3.050 E5.63136
G1 X31.470 Y-2.450 E5.64774
G1 X31.560 Y-0.280 E5.70683
G1 X31.560 Y0.260 E5.72153
G1 X31.470 Y2.440 E5.78089
G1 X31.420 Y3.040 E5.79727
G1 X31.130 Y5.210 E5.85683
G1 X31.030 Y5.770 E5.87231
G1 X30.550 Y7.930 E5.93251
G1 X30.410 Y8.460 E5.94742
G1 X29.770 Y10.510 E6.00585
G1 X29.560 Y11.090 E6.02263
G1 X28.720 Y13.100 E6.08190
G1 X28.490 Y13.590 E6.09663
G1 X27.490 Y15.520 E6.15577
G1 X27.190 Y16.040 E6.17210
G1 X26.010 Y17.880 E6.23157
G1 X25.700 Y18.320 E6.24621
G1 X24.380 Y20.050 E6.30542
G1 X23.990 Y20.510 E6.32182
G1 X22.510 Y22.120 E6.38132
G1 X22.181 Y22.449 E6.39397
G1 F1800.000 E5.39397
G92 E0
G1 X18.274 Y18.309 F7800.000
G1 F1800.000 E1.00000
G1 X16.608 Y19.832 F540.000 E1.06139
G1 X14.847 Y21.183 E1.12177
G1 X12.956 Y22.390 E1.18282
G1 X10.912 Y23.452 E1.24548
G1 X8.871 Y24.299 E1.30559
G1 X6.707 Y24.983 E1.36736
G1 X4.504 Y25.472 E1.42874
G1 X2.242 Y25.771 E1.49082
G1 X-0.013 Y25.868 E1.55222
G1 X-2.267 Y25.768 E1.61362
G1 X-4.517 Y25.470 E1.67538
G1 X-6.714 Y24.979 E1.73662
G1 X-8.824 Y24.316 E1.79678
G1 X-10.909 Y23.455 E1.85815
G1 X-12.923 Y22.409 E1.91990
G1 X-14.826 Y21.197 E1.98129
G1 X-16.637 Y19.808 E2.04339
G1 X-18.301 Y18.283 E2.10478
G1 X-19.824 Y16.618 E2.16617
G1 X-21.197 Y14.826 E2.22759
G1 X-22.409 Y12.923 E2.28898
G1 X-23.455 Y10.909 E2.35073
G1 X-24.312 Y8.836 E2.41175
G1 X-24.979 Y6.719 E2.47215
G1 X-25.470 Y4.517 E2.53353
G1 X-25.768 Y2.267 E2.59526
G1 X-25.868 Y0.013 E2.65667
G1 X-25.771 Y-2.242 E2.71806
G1 X-25.472 Y-4.504 E2.78014
G1 X-24.983 Y-6.707 E2.84153
G1 X-24.299 Y-8.871 E2.90329
G1 X-23.439 Y-10.943 E2.96431
G1 X-22.415 Y-12.912 E3.02469
G1 X-21.204 Y-14.816 E3.08609
G1 X-19.824 Y-16.618 E3.14784
G1 X-18.301 Y-18.283 E3.20923
G1 X-16.637 Y-19.808 E3.27062
G1 X-14.826 Y-21.197 E3.33272
G1 X-12.923 Y-22.409 E3.39411
G1 X-10.909 Y-23.455 E3.45587
G1 X-8.836 Y-24.312 E3.51689
G1 X-6.719 Y-24.979 E3.57728
G1 X-4.517 Y-25.470 E3.63867
G1 X-2.267 Y-25.768 E3.70040
G1 X-0.013 Y-25.868 E3.76180
G1 X2.242 Y-25.771 E3.82320
G1 X4.504 Y-25.472 E3.88528
G1 X6.707 Y-24.983 E3.94666
G1 X8.871 Y-24.299 E4.00843
G1 X10.943 Y-23.439 E4.06945
G1 X12.912 Y-22.415 E4.12983
G1 X14.816 Y-21.204 E4.19122
G1 X16.618 Y-19.824 E4.25298
G1 X18.283 Y-18.301 E4.31437
G1 X19.808 Y-16.637 E4.37576
G1 X21.197 Y-14.826 E4.43786
G1 X22.409 Y-12.923 E4.49925
G1 X23.455 Y-10.909 E4.56100
G1 X24.316 Y-8.824 E4.62237
G1 X24.979 Y-6.714 E4.68253
G1 X25.470 Y-4.517 E4.74377
G1 X25.768 Y-2.267 E4.80553
G1 X25.868 Y-0.013 E4.86693
G1 X25.771 Y2.242 E4.92833
G1 X25.477 Y4.480 E4.98973
G1 X24.979 Y6.714 E5.05202
G1 X24.299 Y8.871 E5.11356
G1 X23.439 Y10.943 E5.17458
G1 X22.390 Y12.956 E5.23633
G1 X21.175 Y14.857 E5.29772
G1 X19.824 Y16.618 E5.35811
G1 X18.334 Y18.247 E5.41817
G1 X17.891 Y17.873 F7800.000
G1 X16.246 Y19.381 F540.000 E5.47887
G1 X14.494 Y20.723 E5.53891
G1 X12.633 Y21.908 E5.59894
G1 X10.645 Y22.938 E5.65985
G1 X8.638 Y23.768 E5.71895
G1 X6.557 Y24.424 E5.77832
G1 X4.404 Y24.902 E5.83833
G1 X2.217 Y25.192 E5.89834
G1 X0.013 Y25.289 E5.95837
G1 X-2.192 Y25.194 E6.01840
G1 X-4.379 Y24.907 E6.07841
G1 X-6.564 Y24.420 E6.13933
G1 X-8.662 Y23.759 E6.19916
G1 X-10.699 Y22.915 E6.25915
G1 X-12.655 Y21.895 E6.31919
G1 X-14.515 Y20.709 E6.37920
G1 X-16.246 Y19.381 E6.43856
G1 X-17.873 Y17.891 E6.49857
G1 X-19.381 Y16.246 E6.55928
G1 X-20.723 Y14.494 E6.61932
G1 X-21.908 Y12.634 E6.67934
G1 X-22.925 Y10.676 E6.73937
G1 X-23.768 Y8.638 E6.79936
G1 X-24.424 Y6.557 E6.85872
G1 X-24.902 Y4.404 E6.91874
G1 X-25.192 Y2.217 E6.97875
G1 X-25.289 Y0.013 E7.03878
G1 X-25.194 Y-2.192 E7.09880
G1 X-24.907 Y-4.379 E7.15882
G1 X-24.424 Y-6.557 E7.21952
G1 X-23.759 Y-8.662 E7.27957
G1 X-22.915 Y-10.699 E7.33956
G1 X-21.895 Y-12.655 E7.39960
G1 X-20.709 Y-14.515 E7.45961
G1 X-19.381 Y-16.246 E7.51897
G1 X-17.891 Y-17.873 E7.57898
G1 X-16.246 Y-19.381 E7.63969
G1 X-14.494 Y-20.723 E7.69973
G1 X-12.634 Y-21.908 E7.75975
G1 X-10.676 Y-22.925 E7.81978
G1 X-8.638 Y-23.768 E7.87977
G1 X-6.557 Y-24.424 E7.93913
G1 X-4.404 Y-24.902 E7.99915
G1 X-2.217 Y-25.192 E8.05916
G1 X-0.013 Y-25.289 E8.11919
G1 X2.192 Y-25.194 E8.17921
G1 X4.379 Y-24.907 E8.23923
G1 X6.557 Y-24.424 E8.29993
G1 X8.662 Y-23.759 E8.35998
G1 X10.699 Y-22.915 E8.41997
G1 X12.655 Y-21.895 E8.48001
G1 X14.515 Y-20.709 E8.54002
G1 X16.246 Y-19.381 E8.59938
G1 X17.873 Y-17.891 E8.65939
G1 X19.381 Y-16.246 E8.72010
G1 X20.723 Y-14.494 E8.78014
G1 X21.908 Y-12.634 E8.84016
G1 X22.925 Y-10.676 E8.90019
G1 X23.768 Y-8.638 E8.96018
G1 X24.420 Y-6.564 E9.01933
G1 X24.902 Y-4.404 E9.07955
G1 X25.192 Y-2.217 E9.13957
G1 X25.289 Y-0.013 E9.19960
G1 X25.194 Y2.192 E9.25962
G1 X24.907 Y4.379 E9.31964
G1 X24.420 Y6.564 E9.38055
G1 X23.759 Y8.662 E9.44039
G1 X22.915 Y10.699 E9.50038
G1 X21.895 Y12.655 E9.56041
G1 X20.709 Y14.515 E9.62043
G1 X19.381 Y16.246 E9.67978
G1 X17.950 Y17.809 E9.73744
G1 X17.473 Y17.473 F7800.000
G1 X15.884 Y18.929 F540.000 E9.79608
G1 X14.173 Y20.242 E9.85475
G1 X12.355 Y21.400 E9.91339
G1 X10.424 Y22.403 E9.97260
G1 X8.452 Y23.220 E10.03067
G1 X6.395 Y23.868 E10.08935
G1 X4.291 Y24.335 E10.14799
G1 X2.154 Y24.617 E10.20663
G1 X-0.000 Y24.710 E10.26528
G1 X-2.154 Y24.617 E10.32393
G1 X-4.310 Y24.331 E10.38312
G1 X-6.395 Y23.868 E10.44122
G1 X-8.452 Y23.220 E10.49989
G1 X-10.443 Y22.396 E10.55851
G1 X-12.355 Y21.400 E10.61717
G1 X-14.173 Y20.242 E10.67581
G1 X-15.884 Y18.929 E10.73449
G1 X-17.473 Y17.473 E10.79313
G1 X-18.929 Y15.884 E10.85177
G1 X-20.242 Y14.173 E10.91044
G1 X-21.400 Y12.355 E10.96908
G1 X-22.403 Y10.424 E11.02829
G1 X-23.220 Y8.452 E11.08636
G1 X-23.868 Y6.395 E11.14504
G1 X-24.335 Y4.291 E11.20368
G1 X-24.617 Y2.154 E11.26232
G1 X-24.710 Y-0.000 E11.32097
G1 X-24.617 Y-2.154 E11.37962
G1 X-24.335 Y-4.291 E11.43827
G1 X-23.868 Y-6.395 E11.49691
G1 X-23.220 Y-8.452 E11.55559
G1 X-22.396 Y-10.443 E11.61421
G1 X-21.400 Y-12.355 E11.67286
G1 X-20.242 Y-14.173 E11.73151
G1 X-18.929 Y-15.884 E11.79018
G1 X-17.473 Y-17.473 E11.84882
G1 X-15.884 Y-18.929 E11.90746
G1 X-14.173 Y-20.242 E11.96613
G1 X-12.355 Y-21.400 E12.02477
G1 X-10.443 Y-22.396 E12.08343
G1 X-8.452 Y-23.220 E12.14205
G1 X-6.395 Y-23.868 E12.20073
G1 X-4.310 Y-24.331 E12.25883
G1 X-2.154 Y-24.617 E12.31801
G1 X-0.000 Y-24.710 E12.37666
G1 X2.154 Y-24.617 E12.43532
G1 X4.291 Y-24.335 E12.49396
G1 X6.395 Y-23.868 E12.55260
G1 X8.452 Y-23.220 E12.61128
G1 X10.424 Y-22.403 E12.66935
G1 X12.355 Y-21.400 E12.72855
G1 X14.173 Y-20.242 E12.78720
G1 X15.884 Y-18.929 E12.84587
G1 X17.473 Y-17.473 E12.90451
G1 X18.929 Y-15.884 E12.96315
G1 X20.242 Y-14.173 E13.02182
G1 X21.400 Y-12.355 E13.08046
G1 X22.396 Y-10.443 E13.13912
G1 X23.220 Y-8.452 E13.19774
G1 X23.868 Y-6.395 E13.25642
G1 X24.331 Y-4.310 E13.31452
G1 X24.617 Y-2.154 E13.37370
G1 X24.710 Y-0.000 E13.43235
G1 X24.617 Y2.154 E13.49101
G1 X24.335 Y4.291 E13.54965
G1 X23.868 Y6.395 E13.60829
G1 X23.220 Y8.452 E13.66697
G1 X22.396 Y10.443 E13.72559
G1 X21.400 Y12.355 E13.78425
G1 X20.242 Y14.173 E13.84289
G1 X18.929 Y15.884 E13.90156
G1 X17.532 Y17.409 E13.95784
G1 X16.917 Y17.315 F7800.000
G1 F1800.000 E12.95784
G92 E0
G1 X1.762 Y0.532 F7800.000
G1 F1800.000 E1.00000
G1 X1.894 Y0.000 F540.000 E1.01492
G1 X1.762 Y-0.532 E1.02983
G1 X24.108 Y-0.532 E1.63779
G1 X24.131 Y-0.000 E1.65228
G1 X24.108 Y0.532 E1.66677
G1 X1.849 Y0.532 E2.27236
G1 X0.071 Y-1.940 F7800.000
G1 X6.943 Y-23.089 F540.000 E2.87736
G1 X7.958 Y-22.769 E2.90631
G1 X1.067 Y-1.562 E3.51298
G1 X0.152 Y-1.910 E3.53961
G1 X-1.753 Y-0.615 F7800.000
G1 X-19.835 Y-13.753 F540.000 E4.14768
G1 X-19.187 Y-14.598 E4.17664
G1 X-1.113 Y-1.467 E4.78446
G1 X-1.418 Y-1.255 E4.79457
G1 X-1.713 Y-0.692 E4.81186
G1 F1800.000 E3.81186
G92 E0
G1 X-19.187 Y14.598 F7800.000
G1 F1800.000 E1.00000
G1 X-19.835 Y13.753 F540.000 E1.02897
G1 X-1.753 Y0.615 E1.63704
G1 X-1.418 Y1.255 E1.65669
G1 X-1.113 Y1.467 E1.66680
G1 X-19.116 Y14.547 E2.27226
G1 F1800.000 E1.27226
G92 E0
G1 X7.958 Y22.769 F7800.000
G1 F1800.000 E1.00000
G1 X6.943 Y23.089 F540.000 E1.02895
G1 X0.071 Y1.940 E1.63394
G1 X1.067 Y1.562 E1.66293
G1 X7.931 Y22.687 E2.26724
G1 X6.321 Y23.046 F7800.000
G1 X4.148 Y23.526 F540.000 E2.32777
G1 X2.082 Y23.798 E2.38447
G1 X-0.000 Y23.890 E2.44117
G1 X-2.082 Y23.798 E2.49788
G1 X-4.148 Y23.526 E2.55457
G1 X-6.183 Y23.076 E2.61127
G1 X-8.171 Y22.449 E2.66798
G1 X-10.096 Y21.651 E2.72468
G1 X-11.945 Y20.689 E2.78138
G1 X-13.702 Y19.569 E2.83807
G1 X-15.356 Y18.301 E2.89478
G1 X-16.893 Y16.893 E2.95148
G1 X-18.301 Y15.356 E3.00818
G1 X-18.640 Y14.916 E3.02330
G1 X-1.339 Y2.346 E3.60512
G1 X-1.088 Y2.481 E3.61286
G1 X-0.665 Y2.627 E3.62505
G1 X-0.294 Y2.689 E3.63527
G1 X6.294 Y22.963 E4.21526
G1 X5.764 Y22.889 F7800.000
G1 F1800.000 E3.21526
G92 E0
G1 X0.157 Y1.289 F7800.000
G1 F1800.000 E1.00000
G1 X-0.461 Y1.214 F540.000 E1.01693
G1 X-0.972 Y0.860 E1.03384
G1 X-1.260 Y0.310 E1.05074
G1 X-1.260 Y-0.310 E1.06761
G1 X-0.972 Y-0.860 E1.08451
G1 X-0.461 Y-1.214 E1.10142
G1 X0.157 Y-1.289 E1.11835
G1 X0.737 Y-1.068 E1.13525
G1 X1.149 Y-0.604 E1.15213
G1 X1.298 Y0.000 E1.16904
G1 X1.149 Y0.604 E1.18596
G1 X0.737 Y1.068 E1.20284
G1 X0.238 Y1.258 E1.21737
G1 X-0.152 Y0.800 F7800.000
G1 F1800.000 E0.21737
G92 E0
G1 X1.821 Y2.010 F7800.000
G1 F1800.000 E1.00000
G1 X2.138 Y1.665 F540.000 E1.01275
G1 X2.382 Y1.291 E1.02489
G1 X2.459 Y1.111 E1.03023
G1 X23.841 Y1.111 E1.61196
G1 X23.798 Y2.082 E1.63842
G1 X23.526 Y4.148 E1.69512
G1 X23.076 Y6.183 E1.75181
G1 X22.449 Y8.171 E1.80853
G1 X21.651 Y10.096 E1.86523
G1 X20.689 Y11.945 E1.92193
G1 X19.569 Y13.702 E1.97861
G1 X18.301 Y15.356 E2.03532
G1 X16.893 Y16.893 E2.09203
G1 X15.356 Y18.301 E2.14873
G1 X13.702 Y19.569 E2.20544
G1 X11.945 Y20.689 E2.26213
G1 X10.096 Y21.651 E2.31883
G1 X8.428 Y22.343 E2.36798
G1 X1.847 Y2.092 E2.94729
G1 X2.285 Y1.948 F7800.000
G1 F1800.000 E1.94729
G92 E0
G1 X2.459 Y-1.111 F7800.000
G1 F1800.000 E1.00000
G1 X2.382 Y-1.291 F540.000 E1.00533
G1 X2.138 Y-1.665 E1.01748
G1 X1.821 Y-2.010 E1.03023
G1 X8.428 Y-22.343 E1.61191
G1 X10.096 Y-21.651 E1.66105
G1 X11.945 Y-20.689 E1.71775
G1 X13.702 Y-19.569 E1.77444
G1 X15.356 Y-18.301 E1.83115
G1 X16.893 Y-16.893 E1.88785
G1 X18.301 Y-15.356 E1.94456
G1 X19.569 Y-13.702 E2.00127
G1 X20.689 Y-11.945 E2.05795
G1 X21.651 Y-10.096 E2.11465
G1 X22.449 Y-8.171 E2.17136
G1 X23.076 Y-6.183 E2.22807
G1 X23.526 Y-4.148 E2.28476
G1 X23.798 Y-2.082 E2.34146
G1 X23.841 Y-1.111 E2.36792
G1 X2.546 Y-1.111 E2.94729
G1 X2.508 Y-1.301 F7800.000
G1 X-0.294 Y-2.689
G1 X-0.665 Y-2.627 F540.000 E2.95752
G1 X-1.088 Y-2.481 E2.96971
G1 X-1.339 Y-2.346 E2.97744
G1 X-18.640 Y-14.916 E3.55926
G1 X-18.301 Y-15.356 E3.57438
G1 X-16.893 Y-16.893 E3.63108
G1 X-15.356 Y-18.301 E3.68778
G1 X-13.702 Y-19.569 E3.74449
G1 X-11.945 Y-20.689 E3.80118
G1 X-10.096 Y-21.651 E3.85788
G1 X-8.171 Y-22.449 E3.91458
G1 X-6.183 Y-23.076 E3.97129
G1 X-4.148 Y-23.526 E4.02799
G1 X-2.082 Y-23.798 E4.08468
G1 X-0.000 Y-23.890 E4.14139
G1 X2.082 Y-23.798 E4.19810
G1 X4.148 Y-23.526 E4.25479
G1 X6.321 Y-23.046 E4.31532
G1 X-0.267 Y-2.771 E4.89531
G1 X-0.621 Y-2.875 F7800.000
G1 X-2.663 Y-0.561
G1 X-2.710 Y-0.000 F540.000 E4.91063
G1 X-2.663 Y0.561 E4.92596
G1 X-19.943 Y13.117 E5.50708
G1 X-20.689 Y11.945 E5.54488
G1 X-21.651 Y10.096 E5.60157
G1 X-22.449 Y8.171 E5.65827
G1 X-23.076 Y6.183 E5.71499
G1 X-23.526 Y4.148 E5.77168
G1 X-23.798 Y2.082 E5.82838
G1 X-23.890 Y0.000 E5.88508
G1 X-23.798 Y-2.082 E5.94179
G1 X-23.526 Y-4.148 E5.99848
G1 X-23.076 Y-6.183 E6.05518
G1 X-22.449 Y-8.171 E6.11189
G1 X-21.651 Y-10.096 E6.16859
G1 X-20.689 Y-11.945 E6.22529
G1 X-19.943 Y-13.117 E6.26309
G1 X-2.733 Y-0.612 E6.84185
G1 X-3.063 Y-0.164 F7800.000
G1 F1800.000 E5.84185
G92 E0
G1 X-0.559 Y1.907 F7800.000
G1 F1800.000 E1.00000
G1 X-0.626 Y1.841 F360.000 E1.00257
G1 X2.634 Y0.123 F7800.000
G1 X2.388 Y-0.123 F360.000 E1.00741
G1 X2.806 Y-0.123 E1.01323
G1 X3.052 Y0.123 E1.01807
G1 X3.224 Y-0.123 E1.02225
