; generated by Slic3r 0.9.10b on 2013-11-30 at 21:02:12

; layer_height = 0.2
; perimeters = 2
; top_solid_layers = 3
; bottom_solid_layers = 3
; fill_density = 0.4
; perimeter_speed = 30
; infill_speed = 60
; travel_speed = 130
; nozzle_diameter = 0.5
; filament_diameter = 2.85
; extrusion_multiplier = 1
; perimeters extrusion width = 0.85mm
; infill extrusion width = 1.02mm
; solid infill extrusion width = 0.85mm
; top infill extrusion width = 0.85mm
; first layer extrusion width = 0.40mm

G21 ; set units to millimeters
M107
M104 S0
M83
M140 S70
G28
G1Y98F9000
M190 S70
G1X5Y98Z150F9000
M104 S210
G1X5Y98Z1F9000
G1Z0.05
M109 S210
G1Z5
G1X15
;G1E5F50
G90 ; use absolute coordinates
G92 E0
M82 ; use absolute distances for extrusion
G1 F1800.000 E-1.00000
G92 E0
G1 Z0.200 F7800.000
G1 X21.599 Y22.957
G1 F1800.000 E1.00000
G1 X-23.601 Y22.957 F540.000 E1.59724
G1 X-24.471 Y22.897 E1.60876
G1 X-25.321 Y22.727 E1.62021
G1 X-30.531 Y21.277 E1.69167
G1 X-31.851 Y20.747 E1.71046
G1 X-33.011 Y19.937 E1.72916
G1 X-33.981 Y18.897 E1.74795
G1 X-34.691 Y17.677 E1.76660
G1 X-35.111 Y16.327 E1.78528
G1 X-35.211 Y15.817 E1.79215
G1 X-35.301 Y15.197 E1.80043
G1 X-35.331 Y14.577 E1.80863
G1 X-35.331 Y9.507 E1.87562
G1 X-34.671 Y-14.763 E2.19642
G1 X-34.551 Y-15.833 E2.21065
G1 X-34.451 Y-16.343 E2.21751
G1 X-34.031 Y-17.693 E2.23620
G1 X-33.311 Y-18.923 E2.25503
G1 X-32.351 Y-19.963 E2.27373
G1 X-31.181 Y-20.763 E2.29246
G1 X-29.861 Y-21.293 E2.31125
G1 X-24.651 Y-22.733 E2.38267
G1 X-23.801 Y-22.903 E2.39413
G1 X-22.941 Y-22.963 E2.40552
G1 X23.599 Y-22.963 E3.02046
G1 X24.459 Y-22.903 E3.03185
G1 X25.309 Y-22.733 E3.04330
G1 X30.519 Y-21.293 E3.11472
G1 X31.839 Y-20.763 E3.13352
G1 X33.019 Y-19.953 E3.15243
G1 X33.979 Y-18.913 E3.17113
G1 X34.689 Y-17.673 E3.19001
G1 X35.119 Y-16.313 E3.20886
G1 X35.219 Y-15.793 E3.21586
G1 X35.299 Y-15.193 E3.22385
G1 X35.329 Y-14.583 E3.23192
G1 X35.319 Y-9.353 E3.30103
G1 X34.649 Y3.447 E3.47039
G1 X34.619 Y3.847 E3.47569
G1 X33.289 Y15.317 E3.62826
G1 X33.109 Y16.327 E3.64181
G1 X32.689 Y17.677 E3.66050
G1 X31.979 Y18.897 E3.67915
G1 X31.009 Y19.937 E3.69794
G1 X29.849 Y20.747 E3.71663
G1 X28.529 Y21.277 E3.73543
G1 X23.319 Y22.727 E3.80688
G1 X22.469 Y22.897 E3.81834
G1 X21.662 Y22.952 E3.82902
G1 F1800.000 E2.82902
G92 E0
G1 X-12.990 Y2.995 F7800.000
G1 F1800.000 E1.00000
G1 X-12.990 Y-1.662 F540.000 E1.06154
G1 X-10.904 Y-1.662 E1.08910
G1 X-12.248 Y0.667 E1.12463
G1 X-10.904 Y2.995 E1.16016
G1 X-12.927 Y2.995 E1.18689
G1 X-12.966 Y3.417 F7800.000
G1 X-13.348 Y3.417 F540.000 E1.19193
G1 X-13.411 Y3.096 E1.19625
G1 X-13.411 Y-1.763 E1.26045
G1 X-13.348 Y-2.083 E1.26477
G1 X-10.174 Y-2.083 E1.30671
G1 X-11.762 Y0.667 E1.34867
G1 X-10.174 Y3.417 E1.39063
G1 X-12.903 Y3.417 E1.42668
G1 X-13.157 Y3.086 F7800.000
G1 F1800.000 E0.42668
G92 E0
G1 X-1.632 Y2.995 F7800.000
G1 F1800.000 E1.00000
G1 X-3.718 Y2.995 F540.000 E1.02756
G1 X-2.374 Y0.667 E1.06309
G1 X-3.718 Y-1.662 E1.09862
G1 X-1.632 Y-1.662 E1.12618
G1 X-1.632 Y2.932 E1.18689
G1 X-1.211 Y3.095 F7800.000
G1 X-1.275 Y3.417 F540.000 E1.19122
G1 X-4.448 Y3.417 E1.23315
G1 X-2.860 Y0.667 E1.27511
G1 X-4.448 Y-2.083 E1.31707
G1 X-1.275 Y-2.083 E1.35900
G1 X-1.211 Y-1.762 E1.36334
G1 X-1.211 Y3.032 E1.42668
G1 X-1.514 Y3.221 F7800.000
G1 F1800.000 E0.42668
G92 E0
G1 X-7.089 Y4.724 F7800.000
G1 F1800.000 E1.00000
G1 X-6.671 Y4.724 F540.000 E1.00552
G1 X-6.560 Y4.637 E1.00739
G1 X-6.671 Y4.724 F7800.000
G1 X-6.560 Y4.812 F540.000 E1.00926
G1 X-7.089 Y4.724 F7800.000
G1 X-7.533 Y4.724 F540.000 E1.01513
G1 X-7.533 Y4.724 F7800.000
G1 X-7.978 Y4.690 F540.000 E1.02102
G1 X-7.978 Y4.690 F7800.000
G1 X-8.062 Y4.637 F540.000 E1.02234
G1 X-7.951 Y4.724 F7800.000
G1 X-7.978 Y4.758 F540.000 E1.02291
G1 X-7.978 Y4.758 F7800.000
G1 X-8.062 Y4.812 F540.000 E1.02423
G1 F1800.000 E0.02423
G92 E0
G1 X-8.062 Y-3.303 F7800.000
G1 F1800.000 E1.00000
G1 X-7.951 Y-3.391 F540.000 E1.00187
G1 X-8.062 Y-3.478 E1.00374
G1 X-7.951 Y-3.391 F7800.000
G1 X-7.756 Y-3.391 F540.000 E1.00632
G1 X-7.756 Y-3.391 F7800.000
G1 X-7.533 Y-3.391 F540.000 E1.00926
G1 X-7.533 Y-3.391 F7800.000
G1 X-6.671 Y-3.391 F540.000 E1.02065
G1 X-6.560 Y-3.478 E1.02252
G1 X-6.671 Y-3.391 F7800.000
G1 X-6.644 Y-3.357 F540.000 E1.02309
G1 X-6.644 Y-3.357 F7800.000
G1 X-6.560 Y-3.303 F540.000 E1.02441
G1 F1800.000 E0.02441
G92 E0
G1 X-12.685 Y1.239 F7800.000
G1 F1800.000 E1.00000
G1 X-11.705 Y2.219 F1080.000 E1.01850
G1 X-11.836 Y2.690 E1.02502
G1 X-12.685 Y1.842 E1.04104
G1 X-12.685 Y2.444 E1.04908
G1 X-12.439 Y2.690 E1.05372
G1 X-12.599 Y0.964 F7800.000
G1 X-12.699 Y0.863 F360.000 E1.05477
G1 X-12.577 Y0.654 E1.05654
G1 X-12.699 Y0.532 E1.05782
G1 X-12.506 Y0.394 E1.05956
G1 X-12.456 Y0.444 E1.06008
G1 X-12.400 Y0.319 F7800.000
G1 X-12.685 Y0.035 F1080.000 E1.06539
G1 X-12.180 Y-0.063 F7800.000
G1 X-12.685 Y-0.567 F1080.000 E1.07481
G1 X-12.685 Y-1.170 F7800.000
G1 X-11.960 Y-0.445 F1080.000 E1.08836
G1 X-11.739 Y-0.826 F7800.000
G1 X-12.269 Y-1.357 F1080.000 E1.09827
G1 X-11.667 Y-1.357 F7800.000
G1 X-11.519 Y-1.208 F1080.000 E1.10104
G1 F1800.000 E0.10104
G92 E0
G1 X-3.048 Y2.445 F7800.000
G1 F1800.000 E1.00000
G1 X-2.803 Y2.690 F1080.000 E1.00458
G1 X-2.200 Y2.690 F7800.000
G1 X-2.827 Y2.063 F1080.000 E1.01629
G1 X-2.607 Y1.681 F7800.000
G1 X-1.938 Y2.350 F1080.000 E1.02880
G1 X-1.938 Y1.748 F7800.000
G1 X-2.386 Y1.299 F1080.000 E1.03718
G1 X-2.166 Y0.918 F7800.000
G1 X-1.938 Y1.146 F1080.000 E1.04145
G1 X-1.990 Y0.973 F7800.000
G1 X-2.133 Y0.830 F360.000 E1.04292
G1 X-1.923 Y0.709 F7800.000
G1 X-2.138 Y0.494 F360.000 E1.04514
G1 X-1.981 Y0.501 F7800.000
G1 X-2.303 Y0.178 F1080.000 E1.05117
G1 X-1.938 Y-0.059 F7800.000
G1 X-3.126 Y-1.247 F1080.000 E1.07337
G1 X-2.633 Y-1.357 F7800.000
G1 X-1.938 Y-0.661 F1080.000 E1.08637
G1 X-1.938 Y-1.263 F7800.000
G1 X-2.031 Y-1.357 F1080.000 E1.08811
G1 X-1.950 Y0.350 F7800.000
G1 X-1.923 Y0.378 F360.000 E1.08840
G1 F1800.000 E0.08840
G92 E0
G1 X-13.657 Y14.462 F7800.000
G1 F1800.000 E1.00000
G1 X-13.657 Y9.805 F540.000 E1.06154
G1 X-11.571 Y9.805 E1.08910
G1 X-12.915 Y12.133 E1.12463
G1 X-11.571 Y14.462 E1.16016
G1 X-13.593 Y14.462 E1.18689
G1 X-13.633 Y14.883 F7800.000
G1 X-14.014 Y14.883 F540.000 E1.19193
G1 X-14.078 Y14.563 E1.19625
G1 X-14.078 Y9.704 E1.26045
G1 X-14.014 Y9.383 E1.26477
G1 X-10.841 Y9.383 E1.30671
G1 X-12.428 Y12.133 E1.34867
G1 X-10.841 Y14.883 E1.39063
G1 X-13.570 Y14.883 E1.42668
G1 X-13.824 Y14.553 F7800.000
G1 F1800.000 E0.42668
G92 E0
G1 X-2.299 Y14.462 F7800.000
G1 F1800.000 E1.00000
G1 X-4.385 Y14.462 F540.000 E1.02756
G1 X-3.040 Y12.133 E1.06309
G1 X-4.385 Y9.805 E1.09862
G1 X-2.299 Y9.805 E1.12618
G1 X-2.299 Y14.399 E1.18689
G1 X-1.877 Y14.562 F7800.000
G1 X-1.941 Y14.883 F540.000 E1.19122
G1 X-5.115 Y14.883 E1.23315
G1 X-3.527 Y12.133 E1.27511
G1 X-5.115 Y9.383 E1.31707
G1 X-1.941 Y9.383 E1.35900
G1 X-1.877 Y9.705 E1.36334
G1 X-1.877 Y14.499 E1.42668
G1 X-2.180 Y14.687 F7800.000
G1 F1800.000 E0.42668
G92 E0
G1 X-7.756 Y16.191 F7800.000
G1 F1800.000 E1.00000
G1 X-7.338 Y16.191 F540.000 E1.00552
G1 X-7.227 Y16.103 E1.00739
G1 X-7.338 Y16.191 F7800.000
G1 X-7.227 Y16.278 F540.000 E1.00926
G1 X-7.756 Y16.191 F7800.000
G1 X-8.200 Y16.191 F540.000 E1.01513
G1 X-8.200 Y16.191 F7800.000
G1 X-8.644 Y16.157 F540.000 E1.02102
G1 X-8.644 Y16.157 F7800.000
G1 X-8.729 Y16.103 F540.000 E1.02234
G1 X-8.618 Y16.191 F7800.000
G1 X-8.644 Y16.225 F540.000 E1.02291
G1 X-8.644 Y16.225 F7800.000
G1 X-8.729 Y16.278 F540.000 E1.02423
G1 F1800.000 E0.02423
G92 E0
G1 X-8.729 Y8.163 F7800.000
G1 F1800.000 E1.00000
G1 X-8.618 Y8.076 F540.000 E1.00187
G1 X-8.729 Y7.988 E1.00374
G1 X-8.618 Y8.076 F7800.000
G1 X-8.422 Y8.076 F540.000 E1.00632
G1 X-8.422 Y8.076 F7800.000
G1 X-8.200 Y8.076 F540.000 E1.00926
G1 X-8.200 Y8.076 F7800.000
G1 X-7.338 Y8.076 F540.000 E1.02065
G1 X-7.227 Y7.988 E1.02252
G1 X-7.338 Y8.076 F7800.000
G1 X-7.311 Y8.110 F540.000 E1.02309
G1 X-7.311 Y8.110 F7800.000
G1 X-7.227 Y8.163 F540.000 E1.02441
G1 F1800.000 E0.02441
G92 E0
G1 X-13.351 Y12.706 F7800.000
G1 F1800.000 E1.00000
G1 X-12.371 Y13.686 F1080.000 E1.01850
G1 X-12.503 Y14.157 E1.02502
G1 X-13.351 Y13.308 E1.04104
G1 X-13.351 Y13.911 E1.04908
G1 X-13.105 Y14.157 E1.05372
G1 X-13.266 Y12.430 F7800.000
G1 X-13.366 Y12.330 F360.000 E1.05477
G1 X-13.244 Y12.121 E1.05654
G1 X-13.366 Y11.999 E1.05782
G1 X-13.172 Y11.861 E1.05956
G1 X-13.122 Y11.911 E1.06008
G1 X-13.067 Y11.786 F7800.000
G1 X-13.351 Y11.502 F1080.000 E1.06539
G1 X-12.847 Y11.404 F7800.000
G1 X-13.351 Y10.899 F1080.000 E1.07481
G1 X-13.351 Y10.297 F7800.000
G1 X-12.626 Y11.022 F1080.000 E1.08836
G1 X-12.406 Y10.640 F7800.000
G1 X-12.936 Y10.110 F1080.000 E1.09827
G1 X-12.334 Y10.110 F7800.000
G1 X-12.185 Y10.258 F1080.000 E1.10104
G1 F1800.000 E0.10104
G92 E0
G1 X-3.714 Y13.911 F7800.000
G1 F1800.000 E1.00000
G1 X-3.469 Y14.157 F1080.000 E1.00458
G1 X-2.867 Y14.157 F7800.000
G1 X-3.494 Y13.530 F1080.000 E1.01629
G1 X-3.273 Y13.148 F7800.000
G1 X-2.604 Y13.817 F1080.000 E1.02880
G1 X-2.604 Y13.215 F7800.000
G1 X-3.053 Y12.766 F1080.000 E1.03718
G1 X-2.833 Y12.384 F7800.000
G1 X-2.604 Y12.612 F1080.000 E1.04145
G1 X-2.657 Y12.439 F7800.000
G1 X-2.799 Y12.297 F360.000 E1.04292
G1 X-2.589 Y12.176 F7800.000
G1 X-2.805 Y11.960 F360.000 E1.04514
G1 X-2.647 Y11.967 F7800.000
G1 X-2.970 Y11.645 F1080.000 E1.05117
G1 X-2.604 Y11.408 F7800.000
G1 X-3.792 Y10.220 F1080.000 E1.07337
G1 X-3.300 Y10.110 F7800.000
G1 X-2.604 Y10.806 F1080.000 E1.08637
G1 X-2.604 Y10.203 F7800.000
G1 X-2.698 Y10.110 F1080.000 E1.08811
G1 X-2.617 Y11.817 F7800.000
G1 X-2.589 Y11.844 F360.000 E1.08840
G1 F1800.000 E0.08840
G92 E0
G1 X-26.193 Y9.805 F7800.000
G1 F1800.000 E1.00000
G1 X-27.537 Y12.133 F540.000 E1.03553
G1 X-26.193 Y14.462 E1.07106
G1 X-28.279 Y14.462 E1.09862
G1 X-28.279 Y9.805 E1.16016
G1 X-26.256 Y9.805 E1.18689
G1 X-25.463 Y9.383 F7800.000
G1 X-27.051 Y12.133 F540.000 E1.22885
G1 X-25.463 Y14.883 E1.27081
G1 X-28.637 Y14.883 E1.31274
G1 X-28.700 Y14.563 E1.31706
G1 X-28.700 Y9.704 E1.38127
G1 X-28.637 Y9.383 E1.38558
G1 X-25.526 Y9.383 E1.42668
G1 X-25.786 Y9.654 F7800.000
G1 F1800.000 E0.42668
G92 E0
G1 X-16.921 Y9.805 F7800.000
G1 F1800.000 E1.00000
G1 X-16.921 Y14.462 F540.000 E1.06154
G1 X-19.007 Y14.462 E1.08910
G1 X-17.663 Y12.133 E1.12463
G1 X-19.007 Y9.805 E1.16016
G1 X-16.984 Y9.805 E1.18689
G1 X-16.500 Y9.705 F7800.000
G1 X-16.500 Y14.562 F540.000 E1.25106
G1 X-16.563 Y14.883 E1.25540
G1 X-19.737 Y14.883 E1.29733
G1 X-18.149 Y12.133 E1.33929
G1 X-19.737 Y9.383 E1.38125
G1 X-16.563 Y9.383 E1.42318
G1 X-16.512 Y9.643 E1.42668
G1 X-16.850 Y9.939 F7800.000
G1 F1800.000 E0.42668
G92 E0
G1 X-22.378 Y16.191 F7800.000
G1 F1800.000 E1.00000
G1 X-21.960 Y16.191 F540.000 E1.00552
G1 X-21.849 Y16.103 E1.00739
G1 X-21.960 Y16.191 F7800.000
G1 X-21.849 Y16.278 F540.000 E1.00926
G1 X-22.378 Y16.191 F7800.000
G1 X-22.822 Y16.191 F540.000 E1.01513
G1 X-22.822 Y16.191 F7800.000
G1 X-23.267 Y16.157 F540.000 E1.02102
G1 X-23.267 Y16.157 F7800.000
G1 X-23.351 Y16.103 F540.000 E1.02234
G1 X-23.240 Y16.191 F7800.000
G1 X-23.267 Y16.225 F540.000 E1.02291
G1 X-23.267 Y16.225 F7800.000
G1 X-23.351 Y16.278 F540.000 E1.02423
G1 F1800.000 E0.02423
G92 E0
G1 X-23.351 Y8.163 F7800.000
G1 F1800.000 E1.00000
G1 X-23.240 Y8.076 F540.000 E1.00187
G1 X-23.351 Y7.988 E1.00374
G1 X-23.240 Y8.076 F7800.000
G1 X-23.044 Y8.076 F540.000 E1.00632
G1 X-23.044 Y8.076 F7800.000
G1 X-22.822 Y8.076 F540.000 E1.00926
G1 X-22.822 Y8.076 F7800.000
G1 X-21.960 Y8.076 F540.000 E1.02065
G1 X-21.849 Y7.988 E1.02252
G1 X-21.960 Y8.076 F7800.000
G1 X-21.933 Y8.110 F540.000 E1.02309
G1 X-21.933 Y8.110 F7800.000
G1 X-21.849 Y8.163 F540.000 E1.02441
G1 F1800.000 E0.02441
G92 E0
G1 X-27.973 Y12.706 F7800.000
G1 F1800.000 E1.00000
G1 X-26.994 Y13.686 F1080.000 E1.01850
G1 X-27.125 Y14.157 E1.02502
G1 X-27.973 Y13.308 E1.04104
G1 X-27.973 Y13.911 E1.04908
G1 X-27.728 Y14.157 E1.05372
G1 X-27.888 Y12.430 F7800.000
G1 X-27.988 Y12.330 F360.000 E1.05477
G1 X-27.866 Y12.121 E1.05654
G1 X-27.988 Y11.999 E1.05782
G1 X-27.795 Y11.861 E1.05956
G1 X-27.745 Y11.911 E1.06008
G1 X-27.689 Y11.786 F7800.000
G1 X-27.973 Y11.502 F1080.000 E1.06539
G1 X-27.469 Y11.404 F7800.000
G1 X-27.973 Y10.899 F1080.000 E1.07481
G1 X-27.973 Y10.297 F7800.000
G1 X-27.248 Y11.022 F1080.000 E1.08836
G1 X-27.028 Y10.640 F7800.000
G1 X-27.558 Y10.110 F1080.000 E1.09827
G1 X-26.956 Y10.110 F7800.000
G1 X-26.808 Y10.258 F1080.000 E1.10104
G1 F1800.000 E0.10104
G92 E0
G1 X-18.337 Y13.911 F7800.000
G1 F1800.000 E1.00000
G1 X-18.091 Y14.157 F1080.000 E1.00458
G1 X-17.489 Y14.157 F7800.000
G1 X-18.116 Y13.530 F1080.000 E1.01629
G1 X-17.896 Y13.148 F7800.000
G1 X-17.227 Y13.817 F1080.000 E1.02880
G1 X-17.227 Y13.215 F7800.000
G1 X-17.675 Y12.766 F1080.000 E1.03718
G1 X-17.455 Y12.384 F7800.000
G1 X-17.227 Y12.612 F1080.000 E1.04145
G1 X-17.279 Y12.439 F7800.000
G1 X-17.421 Y12.297 F360.000 E1.04292
G1 X-17.212 Y12.176 F7800.000
G1 X-17.427 Y11.960 F360.000 E1.04514
G1 X-17.269 Y11.967 F7800.000
G1 X-17.592 Y11.645 F1080.000 E1.05117
G1 X-17.227 Y11.408 F7800.000
G1 X-18.415 Y10.220 F1080.000 E1.07337
G1 X-17.922 Y10.110 F7800.000
G1 X-17.227 Y10.806 F1080.000 E1.08637
G1 X-17.226 Y10.203 F7800.000
G1 X-17.320 Y10.110 F1080.000 E1.08811
G1 X-17.239 Y11.817 F7800.000
G1 X-17.212 Y11.844 F360.000 E1.08840
G1 F1800.000 E0.08840
G92 E0
G1 X-25.526 Y-2.329 F7800.000
G1 F1800.000 E1.00000
G1 X-26.871 Y-0.000 F540.000 E1.03553
G1 X-25.526 Y2.329 E1.07106
G1 X-27.612 Y2.329 E1.09862
G1 X-27.612 Y-2.329 E1.16016
G1 X-25.589 Y-2.329 E1.18689
G1 X-24.796 Y-2.750 F7800.000
G1 X-26.384 Y-0.000 F540.000 E1.22885
G1 X-24.796 Y2.750 E1.27081
G1 X-27.970 Y2.750 E1.31274
G1 X-28.034 Y2.430 E1.31706
G1 X-28.034 Y-2.430 E1.38127
G1 X-27.970 Y-2.750 E1.38558
G1 X-24.859 Y-2.750 E1.42668
G1 X-25.119 Y-2.479 F7800.000
G1 F1800.000 E0.42668
G92 E0
G1 X-16.254 Y-2.329 F7800.000
G1 F1800.000 E1.00000
G1 X-16.254 Y2.329 F540.000 E1.06154
G1 X-18.340 Y2.329 E1.08910
G1 X-16.996 Y-0.000 E1.12463
G1 X-18.340 Y-2.329 E1.16016
G1 X-16.318 Y-2.329 E1.18689
G1 X-15.833 Y-2.429 F7800.000
G1 X-15.833 Y2.429 F540.000 E1.25106
G1 X-15.897 Y2.750 E1.25540
G1 X-19.070 Y2.750 E1.29733
G1 X-17.483 Y-0.000 E1.33929
G1 X-19.070 Y-2.750 E1.38125
G1 X-15.897 Y-2.750 E1.42318
G1 X-15.845 Y-2.491 E1.42668
G1 X-16.183 Y-2.194 F7800.000
G1 F1800.000 E0.42668
G92 E0
G1 X-21.711 Y4.057 F7800.000
G1 F1800.000 E1.00000
G1 X-21.293 Y4.057 F540.000 E1.00552
G1 X-21.182 Y3.970 E1.00739
G1 X-21.293 Y4.057 F7800.000
G1 X-21.182 Y4.145 F540.000 E1.00926
G1 X-21.711 Y4.057 F7800.000
G1 X-22.156 Y4.057 F540.000 E1.01513
G1 X-22.156 Y4.057 F7800.000
G1 X-22.600 Y4.023 F540.000 E1.02102
G1 X-22.600 Y4.023 F7800.000
G1 X-22.684 Y3.970 F540.000 E1.02234
G1 X-22.573 Y4.057 F7800.000
G1 X-22.600 Y4.091 F540.000 E1.02291
G1 X-22.600 Y4.091 F7800.000
G1 X-22.684 Y4.145 F540.000 E1.02423
G1 F1800.000 E0.02423
G92 E0
G1 X-22.684 Y-3.970 F7800.000
G1 F1800.000 E1.00000
G1 X-22.573 Y-4.057 F540.000 E1.00187
G1 X-22.684 Y-4.145 E1.00374
G1 X-22.573 Y-4.057 F7800.000
G1 X-22.378 Y-4.057 F540.000 E1.00632
G1 X-22.378 Y-4.057 F7800.000
G1 X-22.156 Y-4.057 F540.000 E1.00926
G1 X-22.156 Y-4.057 F7800.000
G1 X-21.293 Y-4.057 F540.000 E1.02065
G1 X-21.182 Y-4.145 E1.02252
G1 X-21.293 Y-4.057 F7800.000
G1 X-21.267 Y-4.023 F540.000 E1.02309
G1 X-21.267 Y-4.023 F7800.000
G1 X-21.182 Y-3.970 F540.000 E1.02441
G1 F1800.000 E0.02441
G92 E0
G1 X-27.307 Y0.573 F7800.000
G1 F1800.000 E1.00000
G1 X-26.327 Y1.553 F1080.000 E1.01850
G1 X-26.459 Y2.023 E1.02502
G1 X-27.307 Y1.175 E1.04104
G1 X-27.307 Y1.777 E1.04908
G1 X-27.061 Y2.023 E1.05372
G1 X-27.221 Y0.297 F7800.000
G1 X-27.322 Y0.197 F360.000 E1.05477
G1 X-27.199 Y-0.012 E1.05654
G1 X-27.322 Y-0.135 E1.05782
G1 X-27.128 Y-0.272 E1.05956
G1 X-27.078 Y-0.222 E1.06008
G1 X-27.023 Y-0.348 F7800.000
G1 X-27.307 Y-0.632 F1080.000 E1.06539
G1 X-26.802 Y-0.729 F7800.000
G1 X-27.307 Y-1.234 F1080.000 E1.07481
G1 X-27.307 Y-1.836 F7800.000
G1 X-26.582 Y-1.111 F1080.000 E1.08836
G1 X-26.361 Y-1.493 F7800.000
G1 X-26.892 Y-2.023 F1080.000 E1.09827
