; generated by Slic3r 0.9.10b on 2013-11-30 at 19:00:03

; layer_height = 0.3
; perimeters = 2
; top_solid_layers = 3
; bottom_solid_layers = 3
; fill_density = 0.4
; perimeter_speed = 30
; infill_speed = 60
; travel_speed = 130
; nozzle_diameter = 0.5
; filament_diameter = 2.85
; extrusion_multiplier = 1
; perimeters extrusion width = 0.70mm
; infill extrusion width = 0.70mm
; solid infill extrusion width = 0.70mm
; top infill extrusion width = 0.70mm
; first layer extrusion width = 0.60mm

G21 ; set units to millimeters
M107
M104 S0
M83
M140 S70
G28
G1Y98F9000
M190 S70
G1X5Y98Z150F9000
M104 S210
G1X5Y98Z1F9000
G1Z0.05
M109 S210
G1Z5
G1X15
;G1E5F50
G90 ; use absolute coordinates
G92 E0
M82 ; use absolute distances for extrusion
G1 F1800.000 E-1.00000
G92 E0
G1 Z0.300 F7800.000
G1 X7.005 Y11.580
G1 F1800.000 E1.00000
G1 X-7.015 Y11.580 F540.000 E1.38144
G1 X-8.295 Y11.450 E1.41644
G1 X-9.535 Y11.080 E1.45165
G1 X-10.665 Y10.470 E1.48658
G1 X-11.665 Y9.650 E1.52177
G1 X-12.485 Y8.650 E1.55695
G1 X-13.095 Y7.520 E1.59189
G1 X-13.465 Y6.280 E1.62709
G1 X-13.595 Y5.000 E1.66210
G1 X-13.595 Y-5.000 E1.93416
G1 X-13.465 Y-6.280 E1.96917
G1 X-13.095 Y-7.520 E2.00437
G1 X-12.485 Y-8.650 E2.03931
G1 X-11.665 Y-9.650 E2.07450
G1 X-10.665 Y-10.470 E2.10968
G1 X-9.535 Y-11.080 E2.14462
G1 X-8.295 Y-11.450 E2.17982
G1 X-7.015 Y-11.580 E2.21483
G1 X7.005 Y-11.580 E2.59626
G1 X8.285 Y-11.450 E2.63127
G1 X9.525 Y-11.080 E2.66647
G1 X10.655 Y-10.470 E2.70141
G1 X11.655 Y-9.650 E2.73659
G1 X12.475 Y-8.650 E2.77178
G1 X13.085 Y-7.520 E2.80671
G1 X13.455 Y-6.280 E2.84192
G1 X13.585 Y-5.000 E2.87692
G1 X13.585 Y5.000 E3.14899
G1 X13.455 Y6.280 E3.18399
G1 X13.085 Y7.520 E3.21920
G1 X12.475 Y8.650 E3.25414
G1 X11.655 Y9.650 E3.28932
G1 X10.655 Y10.470 E3.32451
G1 X9.525 Y11.080 E3.35944
G1 X8.285 Y11.450 E3.39465
G1 X7.092 Y11.571 E3.42729
G1 F1800.000 E2.42729
G92 E0
G1 X-6.147 Y-4.132 F7800.000
G1 F1800.000 E1.00000
G1 X-3.591 Y-4.132 F540.000 E1.06955
G1 X-4.975 Y-2.061 E1.13733
G1 X-5.385 Y0.000 E1.19449
G1 X-4.975 Y2.061 E1.25165
G1 X-3.591 Y4.132 E1.31944
G1 X-6.147 Y4.132 E1.38898
G1 X-6.147 Y-4.045 E1.61147
G1 X-6.726 Y-4.711 F7800.000
G1 X-1.570 Y-4.711 F540.000 E1.75174
G1 X-1.544 Y-4.625 E1.75419
G1 X-3.391 Y-3.391 E1.81462
G1 X-4.430 Y-1.835 E1.86552
G1 X-4.795 Y0.000 E1.91642
G1 X-4.430 Y1.835 E1.96732
G1 X-3.391 Y3.391 E2.01823
G1 X-1.544 Y4.625 E2.07866
G1 X-1.570 Y4.711 E2.08111
G1 X-6.726 Y4.711 E2.22138
G1 X-6.726 Y-4.624 E2.47535
G1 X-6.225 Y-4.421 F7800.000
G1 F1800.000 E1.47535
G92 E0
G1 X3.591 Y4.132 F7800.000
G1 F1800.000 E1.00000
G1 X4.975 Y2.061 F540.000 E1.06778
G1 X5.385 Y0.000 E1.12494
G1 X4.975 Y-2.061 E1.18211
G1 X3.591 Y-4.132 E1.24989
G1 X6.147 Y-4.132 E1.31944
G1 X6.147 Y4.132 E1.54428
G1 X3.678 Y4.132 E1.61147
G1 X3.391 Y3.391 F7800.000
G1 X4.430 Y1.835 F540.000 E1.66237
G1 X4.795 Y0.000 E1.71327
G1 X4.430 Y-1.835 E1.76417
G1 X3.391 Y-3.391 E1.81507
G1 X1.544 Y-4.625 E1.87550
G1 X1.570 Y-4.711 E1.87795
G1 X6.726 Y-4.711 E2.01822
G1 X6.726 Y4.711 E2.27455
G1 X1.570 Y4.711 E2.41482
G1 X1.544 Y4.625 E2.41727
G1 X3.318 Y3.439 E2.47534
G1 X3.958 Y3.503 F7800.000
G1 F1800.000 E1.47534
G92 E0
G1 X-0.672 Y4.695 F7800.000
G1 F1800.000 E1.00000
G1 X0.649 Y4.666 F540.000 E1.03595
G1 X1.311 Y4.310 E1.05641
G1 X0.840 Y4.788 F7800.000
G1 X0.690 Y4.717 F540.000 E1.06091
G1 X0.690 Y4.717 F7800.000
G1 X0.649 Y4.666 F540.000 E1.06269
G1 X-0.840 Y4.788 F7800.000
G1 X-0.672 Y4.695 F540.000 E1.06790
G1 X-1.017 Y4.440 E1.07958
G1 X-1.017 Y4.440 F7800.000
G1 X-1.316 Y4.335 F540.000 E1.08818
G1 F1800.000 E0.08818
G92 E0
G1 X-1.312 Y-4.329 F7800.000
G1 F1800.000 E1.00000
G1 X-0.758 Y-4.559 F540.000 E1.01632
G1 X-0.674 Y-4.697 E1.02071
G1 X-0.840 Y-4.788 E1.02586
G1 X-0.674 Y-4.697 F7800.000
G1 X-0.485 Y-4.690 F540.000 E1.03099
G1 X-0.485 Y-4.690 F7800.000
G1 X-0.414 Y-4.724 F540.000 E1.03314
G1 X-0.414 Y-4.724 F7800.000
G1 X-0.193 Y-4.720 F540.000 E1.03915
G1 X-0.193 Y-4.720 F7800.000
G1 X0.138 Y-4.750 F540.000 E1.04819
G1 X0.138 Y-4.750 F7800.000
G1 X0.414 Y-4.724 F540.000 E1.05574
G1 X0.414 Y-4.724 F7800.000
G1 X0.485 Y-4.690 F540.000 E1.05788
G1 X0.485 Y-4.690 F7800.000
G1 X0.840 Y-4.788 F540.000 E1.06789
G1 X0.674 Y-4.697 F7800.000
G1 X1.033 Y-4.441 F540.000 E1.07988
G1 X1.033 Y-4.441 F7800.000
G1 X1.312 Y-4.329 F540.000 E1.08806
G1 F1800.000 E0.08806
G92 E0
G1 X5.728 Y1.992 F7800.000
G1 F1800.000 E1.00000
G1 X5.705 Y1.970 F1080.000 E1.00087
G1 X5.274 Y2.367 E1.01704
G1 X5.728 Y2.821 E1.03471
G1 X5.728 Y3.650 E1.05756
G1 X4.942 Y2.864 E1.08817
G1 X4.610 Y3.361 E1.10464
G1 X4.962 Y3.713 E1.11835
G1 X5.697 Y2.135 F7800.000
G1 X5.430 Y1.869 F360.000 E1.12359
G1 X5.738 Y1.757 E1.12814
G1 X5.500 Y1.519 E1.13282
G1 X5.738 Y1.337 E1.13698
G1 X5.570 Y1.169 E1.14030
G1 X5.738 Y0.918 E1.14450
G1 X5.639 Y0.819 E1.14644
G1 X5.738 Y0.498 E1.15111
G1 X5.709 Y0.469 E1.15169
G1 X5.738 Y-0.341 F7800.000
G1 X5.738 Y-0.761 F360.000 E1.15752
G1 X5.629 Y-0.869 E1.15966
G1 X5.738 Y-1.180 E1.16424
G1 X5.525 Y-1.393 E1.16843
G1 X5.738 Y-1.600 E1.17256
G1 X5.421 Y-1.917 E1.17880
G1 X5.639 Y-2.118 E1.18293
G1 X5.738 Y-2.019 E1.18486
G1 X5.728 Y-2.152 F7800.000
G1 X4.795 Y-3.085 F1080.000 E1.22076
G1 X4.996 Y-3.713 F7800.000
G1 X5.728 Y-2.981 F1080.000 E1.24892
G1 F1800.000 E0.24892
G92 E0
G1 X-4.606 Y-3.368 F7800.000
G1 F1800.000 E1.00000
G1 X-4.950 Y-3.713 F1080.000 E1.01327
G1 X-5.728 Y-3.661 F7800.000
G1 X-4.938 Y-2.871 F1080.000 E1.04366
G1 X-5.270 Y-2.374 F7800.000
G1 X-5.728 Y-2.832 F1080.000 E1.06129
G1 X-5.728 Y-2.004 F7800.000
G1 X-5.689 Y-1.965 F1080.000 E1.06278
G1 X-5.710 Y-0.461 F7800.000
G1 X-5.738 Y-0.489 F360.000 E1.06332
G1 X-5.641 Y-0.811 E1.06800
G1 X-5.738 Y-0.909 E1.06992
G1 X-5.571 Y-1.161 E1.07413
G1 X-5.738 Y-1.328 E1.07741
G1 X-5.501 Y-1.511 E1.08157
G1 X-5.738 Y-1.748 E1.08622
G1 X-5.432 Y-1.861 E1.09076
G1 X-5.710 Y-2.139 E1.09623
G1 X-5.646 Y2.120 F7800.000
G1 X-5.738 Y2.028 F360.000 E1.09803
G1 X-5.418 Y1.928 E1.10270
G1 X-5.738 Y1.609 E1.10900
G1 X-5.523 Y1.404 E1.11314
G1 X-5.738 Y1.189 E1.11739
G1 X-5.627 Y0.881 E1.12196
G1 X-5.738 Y0.770 E1.12415
G1 X-5.738 Y0.350 E1.13001
G1 X-5.728 Y2.141 F7800.000
G1 X-4.818 Y3.051 F1080.000 E1.16501
G1 X-4.984 Y3.713 F7800.000
G1 X-5.728 Y2.970 F1080.000 E1.19361
M104 S200 ; set temperature
M140 S50 ; set bed temperature
G1 F1800.000 E0.19361
G92 E0
G1 Z0.600 F7800.000
G1 X-6.033 Y4.018
G1 F1800.000 E1.00000
G1 X-6.033 Y-4.018 F600.000 E1.24735
G1 X-3.804 Y-4.018 E1.31596
G1 X-5.082 Y-2.105 E1.38678
G1 X-5.501 Y0.000 E1.45284
G1 X-5.082 Y2.105 E1.51891
G1 X-3.804 Y4.018 E1.58972
G1 X-5.935 Y4.018 E1.65531
G1 X-6.688 Y4.673 F7800.000
G1 X-6.688 Y-4.673 F600.000 E1.94296
G1 X-1.715 Y-4.673 E2.09600
G1 X-1.686 Y-4.575 E2.09913
G1 X-3.418 Y-3.418 E2.16325
G1 X-4.466 Y-1.850 E2.22130
G1 X-4.834 Y0.000 E2.27935
G1 X-4.466 Y1.850 E2.33740
G1 X-3.418 Y3.418 E2.39545
G1 X-1.686 Y4.575 E2.45957
G1 X-1.715 Y4.673 E2.46270
G1 X-6.589 Y4.673 E2.61272
G1 X-6.360 Y4.106 F7800.000
G1 F1800.000 E1.61272
G92 E0
G1 X6.033 Y-4.018 F7800.000
G1 F1800.000 E1.00000
G1 X6.033 Y4.018 F600.000 E1.24735
G1 X3.804 Y4.018 E1.31596
G1 X5.082 Y2.105 E1.38678
G1 X5.501 Y0.000 E1.45284
G1 X5.082 Y-2.105 E1.51891
G1 X3.804 Y-4.018 E1.58972
G1 X5.935 Y-4.018 E1.65531
G1 X6.688 Y-4.673 F7800.000
G1 X6.688 Y4.673 F600.000 E1.94296
G1 X1.715 Y4.673 E2.09600
G1 X1.686 Y4.575 E2.09913
G1 X3.418 Y3.418 E2.16325
G1 X4.466 Y1.850 E2.22130
G1 X4.834 Y0.000 E2.27935
G1 X4.466 Y-1.850 E2.33740
G1 X3.418 Y-3.418 E2.39545
G1 X1.686 Y-4.575 E2.45957
G1 X1.715 Y-4.673 E2.46270
G1 X6.589 Y-4.673 E2.61272
G1 X6.360 Y-4.106 F7800.000
G1 F1800.000 E1.61272
G92 E0
G1 X-0.690 Y4.698 F7800.000
G1 F1800.000 E1.00000
G1 X0.690 Y4.706 F600.000 E1.04248
G1 X1.301 Y4.289 E1.06524
G1 X0.899 Y4.754 F7800.000
G1 X0.753 Y4.677 F600.000 E1.07033
G1 X-0.690 Y4.698 F7800.000
G1 X-0.761 Y4.681 F600.000 E1.07257
G1 X-0.899 Y4.754 F7800.000
G1 X-0.761 Y4.681 F600.000 E1.07739
G1 X-1.255 Y4.283 E1.09690
G1 F1800.000 E0.09690
G92 E0
G1 X-1.255 Y-4.284 F7800.000
G1 F1800.000 E1.00000
G1 X-1.136 Y-4.436 F600.000 E1.00594
G1 X-1.136 Y-4.436 F7800.000
G1 X-0.956 Y-4.430 F600.000 E1.01149
G1 X-0.956 Y-4.430 F7800.000
G1 X-0.761 Y-4.681 F600.000 E1.02126
G1 X-0.899 Y-4.754 E1.02608
G1 X-0.761 Y-4.681 F7800.000
G1 X-0.690 Y-4.698 F600.000 E1.02832
G1 X-0.690 Y-4.698 F7800.000
G1 X0.690 Y-4.706 F600.000 E1.07080
G1 X0.690 Y-4.706 F7800.000
G1 X0.899 Y-4.754 F600.000 E1.07740
G1 X0.753 Y-4.677 F7800.000
G1 X0.772 Y-4.629 F600.000 E1.07897
G1 X0.772 Y-4.629 F7800.000
G1 X1.026 Y-4.410 F600.000 E1.08932
G1 X1.026 Y-4.410 F7800.000
G1 X1.301 Y-4.289 F600.000 E1.09854
G1 X5.358 Y-3.213 F7800.000
G1 X5.236 Y-3.091 F600.000 E1.10384
G1 F1800.000 E0.10384
G92 E0
G1 Z0.900 F7800.000
G1 X-3.804 Y-4.018
G1 F1800.000 E1.00000
G1 X-5.082 Y-2.105 F600.000 E1.07082
G1 X-5.501 Y0.000 E1.13688
G1 X-5.082 Y2.105 E1.20294
G1 X-3.804 Y4.018 E1.27376
G1 X-6.033 Y4.018 E1.34237
G1 X-6.033 Y-4.018 E1.58972
G1 X-3.902 Y-4.018 E1.65531
G1 X-3.418 Y-3.418 F7800.000
G1 X-4.466 Y-1.850 F600.000 E1.71336
G1 X-4.834 Y0.000 E1.77141
G1 X-4.466 Y1.850 E1.82946
G1 X-3.418 Y3.418 E1.88751
G1 X-1.686 Y4.575 E1.95163
G1 X-1.715 Y4.673 E1.95476
G1 X-6.688 Y4.673 E2.10780
G1 X-6.688 Y-4.673 E2.39545
G1 X-1.715 Y-4.673 E2.54849
G1 X-1.686 Y-4.575 E2.55162
G1 X-3.336 Y-3.472 E2.61272
G1 X-4.060 Y-3.546 F7800.000
G1 X3.804 Y-4.018
G1 X6.033 Y-4.018 F600.000 E2.68133
G1 X6.033 Y4.018 E2.92868
G1 X3.804 Y4.018 E2.99729
G1 X5.082 Y2.105 E3.06811
G1 X5.501 Y0.000 E3.13417
G1 X5.082 Y-2.105 E3.20024
G1 X3.858 Y-3.937 E3.26803
G1 X3.418 Y-3.418 F7800.000
G1 X1.686 Y-4.575 F600.000 E3.33215
G1 X1.715 Y-4.673 E3.33529
G1 X6.688 Y-4.673 E3.48833
G1 X6.688 Y4.673 E3.77597
G1 X1.715 Y4.673 E3.92901
G1 X1.686 Y4.575 E3.93214
G1 X3.418 Y3.418 E3.99626
G1 X4.466 Y1.850 E4.05431
G1 X4.834 Y0.000 E4.11236
G1 X4.466 Y-1.850 E4.17041
G1 X3.472 Y-3.336 E4.22544
G1 X3.546 Y-4.060 F7800.000
G1 F1800.000 E3.22544
G92 E0
G1 X0.690 Y4.706 F7800.000
G1 F1800.000 E1.00000
G1 X1.301 Y4.289 F600.000 E1.02276
G1 X0.899 Y4.754 F7800.000
G1 X0.753 Y4.677 F600.000 E1.02785
G1 X0.690 Y4.706 F7800.000
G1 X0.345 Y4.745 F600.000 E1.03853
G1 X0.345 Y4.745 F7800.000
G1 X-0.209 Y4.708 F600.000 E1.05563
G1 X-0.209 Y4.708 F7800.000
G1 X-0.690 Y4.708 F600.000 E1.07044
G1 X-0.690 Y4.708 F7800.000
G1 X-0.764 Y4.682 F600.000 E1.07284
G1 X-0.899 Y4.754 F7800.000
G1 X-0.764 Y4.682 F600.000 E1.07754
G1 X-0.843 Y4.520 E1.08310
G1 X-0.843 Y4.520 F7800.000
G1 X-1.144 Y4.346 F600.000 E1.09381
G1 X-1.144 Y4.346 F7800.000
G1 X-1.382 Y4.341 F600.000 E1.10112
G1 F1800.000 E0.10112
G92 E0
G1 X-1.382 Y-4.341 F7800.000
G1 F1800.000 E1.00000
G1 X-0.843 Y-4.520 F600.000 E1.01747
G1 X-0.764 Y-4.682 E1.02302
G1 X-0.899 Y-4.754 E1.02773
G1 X-0.764 Y-4.682 F7800.000
G1 X-0.690 Y-4.708 F600.000 E1.03013
G1 X-0.690 Y-4.708 F7800.000
G1 X-0.539 Y-4.677 F600.000 E1.03489
G1 X-0.539 Y-4.677 F7800.000
G1 X0.690 Y-4.706 F600.000 E1.07272
G1 X1.301 Y-4.289 E1.09548
G1 X0.899 Y-4.754 F7800.000
G1 X0.753 Y-4.677 F600.000 E1.10057
G1 F1800.000 E0.10057
G92 E0
G1 X-5.262 Y3.343 F7800.000
G1 F1800.000 E1.00000
G1 X-5.358 Y3.248 F600.000 E1.00422
G1 X-5.177 Y-3.179 F7800.000
G1 X-5.340 Y-3.343 F600.000 E1.01133
G1 X5.358 Y-3.029 F7800.000
G1 X5.116 Y-3.270 F600.000 E1.02183
G1 X5.121 Y3.343 F7800.000
G1 X5.089 Y3.311 F600.000 E1.02323
G1 F1800.000 E0.02323
G92 E0
G1 Z1.200 F7800.000
G1 X1.943 Y3.365
G1 F1800.000 E1.00000
G1 X-1.943 Y3.365 F600.000 E1.11958
G1 X-3.745 Y0.242 E1.23056
G1 X-3.885 Y0.000 E1.23917
G1 X-1.943 Y-3.365 E1.35875
G1 X1.943 Y-3.365 E1.47833
G1 X3.885 Y-0.000 E1.59792
G1 X1.992 Y3.280 E1.71448
G1 X1.441 Y2.944 F7800.000
G1 F1800.000 E0.71448
G92 E0
G1 X-6.033 Y3.748 F7800.000
G1 F1800.000 E1.00000
G1 X-6.033 Y-3.748 F600.000 E1.23073
G1 X-2.477 Y-3.748 E1.34018
G1 X-4.641 Y0.000 E1.47340
G1 X-2.477 Y3.748 E1.60661
G1 X-5.935 Y3.748 E1.71304
G1 X2.477 Y3.748 F7800.000
G1 X4.641 Y-0.000 F600.000 E1.84626
G1 X2.477 Y-3.748 E1.97947
G1 X6.033 Y-3.748 E2.08892
G1 X6.033 Y3.748 E2.31965
G1 X2.575 Y3.748 E2.42608
G1 X6.688 Y4.403 F7800.000
G1 X-6.688 Y4.403 F600.000 E2.83775
G1 X-6.688 Y-4.403 E3.10877
G1 X6.688 Y-4.403 E3.52044
G1 X6.688 Y4.305 E3.78844
G1 X6.121 Y4.076 F7800.000
G1 X5.559 Y3.092
G1 X3.404 Y3.092 F3600.000 E3.85477
G1 X3.721 Y2.542 E3.87432
G1 X5.559 Y2.542 E3.93088
G1 X5.559 Y1.992 E3.94781
G1 X4.039 Y1.992 E3.99459
G1 X4.356 Y1.442 E4.01414
G1 X5.559 Y1.442 E4.05115
G1 X5.559 Y0.892 E4.06808
G1 X4.674 Y0.892 E4.09532
G1 X4.991 Y0.342 E4.11486
G1 X5.559 Y0.342 E4.13233
G1 X5.559 Y-0.208 E4.14926
G1 X5.069 Y-0.208 E4.16433
G1 X4.751 Y-0.758 E4.18388
G1 X5.559 Y-0.758 E4.20873
G1 X5.559 Y-1.308 E4.22566
G1 X4.434 Y-1.308 E4.26029
G1 X4.116 Y-1.858 E4.27983
G1 X5.559 Y-1.858 E4.32423
G1 X5.559 Y-2.408 E4.34116
G1 X3.799 Y-2.408 E4.39533
G1 X3.481 Y-2.958 E4.41488
G1 X5.559 Y-2.958 E4.47882
G1 X1.844 Y3.831 F7800.000
G1 X1.739 Y3.936 F600.000 E4.48112
G1 X1.378 Y3.831 E4.48694
G1 X1.273 Y3.936 E4.48923
G1 X0.913 Y3.831 E4.49505
G1 X0.808 Y3.936 E4.49735
G1 X0.447 Y3.831 E4.50316
G1 X0.342 Y3.936 E4.50546
G1 X-0.018 Y3.831 E4.51127
G1 X-0.123 Y3.936 E4.51357
G1 X-0.484 Y3.831 E4.51938
G1 X-0.589 Y3.936 E4.52168
G1 X-0.949 Y3.831 E4.52749
G1 X-1.054 Y3.936 E4.52979
G1 X-1.415 Y3.831 E4.53560
G1 X-1.520 Y3.936 E4.53790
G1 X-1.887 Y3.838 E4.54378
G1 X-3.404 Y3.092 F7800.000
G1 X-5.559 Y3.092 F3600.000 E4.61011
G1 X-5.559 Y2.542 E4.62704
G1 X-3.721 Y2.542 E4.68360
G1 X-4.039 Y1.992 E4.70315
G1 X-5.559 Y1.992 E4.74993
G1 X-5.559 Y1.442 E4.76686
G1 X-4.363 Y1.442 E4.80366
G1 X-4.674 Y0.892 E4.82310
G1 X-5.559 Y0.892 E4.85034
G1 X-5.559 Y0.342 E4.86726
G1 X-4.991 Y0.342 E4.88473
G1 X-5.069 Y-0.208 E4.90182
G1 X-5.559 Y-0.208 E4.91690
G1 X-5.559 Y-0.758 E4.93383
G1 X-4.751 Y-0.758 E4.95868
G1 X-4.434 Y-1.308 E4.97823
G1 X-5.559 Y-1.308 E5.01285
G1 X-5.559 Y-1.858 E5.02978
G1 X-4.116 Y-1.858 E5.07418
G1 X-3.799 Y-2.408 E5.09373
G1 X-5.559 Y-2.408 E5.14790
G1 X-5.559 Y-2.958 E5.16483
G1 X-3.481 Y-2.958 E5.22877
G1 X-1.561 Y-3.936 F7800.000
G1 X-1.666 Y-3.831 F600.000 E5.23105
G1 X-1.096 Y-3.936 F7800.000
G1 X-1.201 Y-3.831 F600.000 E5.23333
G1 X-0.630 Y-3.936 F7800.000
G1 X-0.735 Y-3.831 F600.000 E5.23561
G1 X-0.165 Y-3.936 F7800.000
G1 X-0.270 Y-3.831 F600.000 E5.23788
G1 X0.301 Y-3.936 F7800.000
G1 X0.196 Y-3.831 F600.000 E5.24016
G1 X0.766 Y-3.936 F7800.000
G1 X0.661 Y-3.831 F600.000 E5.24244
G1 X1.232 Y-3.936 F7800.000
G1 X1.127 Y-3.831 F600.000 E5.24472
G1 X1.697 Y-3.936 F7800.000
G1 X1.592 Y-3.831 F600.000 E5.24700
M106 S255
G1 F1800.000 E4.24700
G92 E0
G1 Z1.500 F7800.000
G1 X1.943 Y-3.365
G1 F1800.000 E1.00000
G1 X3.885 Y-0.000 F600.000 E1.11958
G1 X2.063 Y3.156 E1.23176
G1 X1.943 Y3.365 E1.23917
G1 X-1.943 Y3.365 E1.35875
G1 X-3.885 Y-0.000 E1.47833
G1 X-1.943 Y-3.365 E1.59792
G1 X1.844 Y-3.365 E1.71448
G1 X1.829 Y-2.720 F7800.000
G1 F1800.000 E0.71448
G92 E0
G1 X-2.633 Y-3.478 F7800.000
G1 F1800.000 E1.00000
G1 X-4.641 Y-0.000 F600.000 E1.12362
G1 X-2.633 Y3.478 E1.24724
G1 X-6.033 Y3.478 E1.35189
G1 X-6.033 Y-3.478 E1.56600
G1 X-2.731 Y-3.478 E1.66763
G1 X2.633 Y-3.478 F7800.000
G1 X6.033 Y-3.478 F600.000 E1.77229
G1 X6.033 Y3.478 E1.98640
G1 X2.633 Y3.478 E2.09105
G1 X4.641 Y-0.000 E2.21467
G1 X2.682 Y-3.393 E2.33527
G1 X5.567 Y-4.133 F7800.000
G1 X6.688 Y-4.133 F600.000 E2.36975
G1 X6.688 Y4.133 E2.62415
G1 X-6.688 Y4.133 E3.03582
G1 X-6.688 Y-4.133 E3.29022
G1 X5.469 Y-4.133 E3.66439
G1 X5.894 Y-3.566 F7800.000
G1 F1800.000 E2.66439
G92 E0
G1 X-3.675 Y-2.622 F7800.000
G1 F1800.000 E1.00000
G1 X-4.057 Y-3.004 F995.466 E1.01696
G1 X-5.001 Y-3.004 E1.04659
G1 X-4.021 Y-2.023 E1.09012
G1 X-4.366 Y-1.425 E1.11181
G1 X-5.559 Y-2.617 E1.16475
G1 X-5.559 Y-1.673 E1.19438
G1 X-4.712 Y-0.826 E1.23198
G1 X-5.559 Y-0.729 E1.25874
G1 X-5.057 Y-0.228 E1.28100
G1 X-5.559 Y0.215 E1.30199
G1 X-4.390 Y1.383 E1.35385
G1 X-3.713 Y3.004 E1.40900
G1 X-5.559 Y1.159 E1.49092
G1 X-5.559 Y2.103 E1.52055
G1 X-4.657 Y3.004 E1.56056
G1 F1800.000 E0.56056
G92 E0
G1 X3.595 Y2.760 F7800.000
G1 F1800.000 E1.00000
G1 X3.838 Y3.004 F995.466 E1.01059
