; generated by Slic3r 0.9.10b on 2013-11-30 at 18:38:09

; layer_height = 0.3
; perimeters = 2
; top_solid_layers = 3
; bottom_solid_layers = 3
; fill_density = 0.4
; perimeter_speed = 30
; infill_speed = 60
; travel_speed = 130
; nozzle_diameter = 0.5
; filament_diameter = 2.85
; extrusion_multiplier = 1
; perimeters extrusion width = 0.70mm
; infill extrusion width = 0.70mm
; solid infill extrusion width = 0.70mm
; top infill extrusion width = 0.70mm
; first layer extrusion width = 0.60mm

G21 ; set units to millimeters
M107
M104 S0
M83
M140 S70
G28
G1Y98F9000
M190 S70
G1X5Y98Z150F9000
M104 S210
G1X5Y98Z1F9000
G1Z0.05
M109 S210
G1Z5
G1X15
;G1E5F50
G90 ; use absolute coordinates
G92 E0
M82 ; use absolute distances for extrusion
G1 F1800.000 E-1.00000
G92 E0
G1 Z0.300 F7800.000
G1 X12.580 Y7.500
G1 F1800.000 E1.00000
G1 X12.450 Y8.780 F540.000 E1.03500
G1 X12.080 Y10.020 E1.07021
G1 X11.470 Y11.150 E1.10515
G1 X10.650 Y12.150 E1.14033
G1 X9.650 Y12.970 E1.17551
G1 X8.520 Y13.580 E1.21045
G1 X7.280 Y13.950 E1.24566
G1 X6.000 Y14.080 E1.28066
G1 X-6.000 Y14.080 E1.60714
G1 X-7.280 Y13.950 E1.64214
G1 X-8.520 Y13.580 E1.67735
G1 X-9.650 Y12.970 E1.71229
G1 X-10.650 Y12.150 E1.74747
G1 X-11.470 Y11.150 E1.78266
G1 X-12.080 Y10.020 E1.81759
G1 X-12.450 Y8.780 E1.85280
G1 X-12.580 Y7.500 E1.88780
G1 X-12.580 Y-7.500 E2.29590
G1 X-12.450 Y-8.780 E2.33091
G1 X-12.080 Y-10.020 E2.36611
G1 X-11.470 Y-11.150 E2.40105
G1 X-10.650 Y-12.150 E2.43623
G1 X-9.650 Y-12.970 E2.47142
G1 X-8.520 Y-13.580 E2.50635
G1 X-7.280 Y-13.950 E2.54156
G1 X-6.000 Y-14.080 E2.57656
G1 X6.000 Y-14.080 E2.90304
G1 X7.280 Y-13.950 E2.93805
G1 X8.520 Y-13.580 E2.97325
G1 X9.650 Y-12.970 E3.00819
G1 X10.650 Y-12.150 E3.04337
G1 X11.470 Y-11.150 E3.07856
G1 X12.080 Y-10.020 E3.11349
G1 X12.450 Y-8.780 E3.14870
G1 X12.580 Y-7.500 E3.18370
G1 X12.580 Y7.413 E3.58944
G1 F1800.000 E2.58944
G92 E0
G1 X4.114 Y2.645 F7800.000
G1 F1800.000 E1.00000
G1 X3.558 Y3.356 F540.000 E1.02455
G1 X2.881 Y3.952 E1.04911
G1 X2.105 Y4.414 E1.07366
G1 X1.258 Y4.726 E1.09821
G1 X0.368 Y4.877 E1.12277
G1 X-0.534 Y4.861 E1.14732
G1 X-1.418 Y4.680 E1.17187
G1 X-2.254 Y4.340 E1.19643
G1 X-3.013 Y3.852 E1.22098
G1 X-3.670 Y3.233 E1.24553
G1 X-4.201 Y2.504 E1.27009
G1 X-4.590 Y1.689 E1.29464
G1 X-4.822 Y0.817 E1.31919
G1 X-4.890 Y-0.083 E1.34375
G1 X-4.875 Y-0.215 E1.34736
G1 X-4.791 Y-0.980 E1.36830
G1 X-4.530 Y-1.844 E1.39285
G1 X-4.114 Y-2.645 E1.41741
G1 X-3.558 Y-3.356 E1.44196
G1 X-2.881 Y-3.952 E1.46651
G1 X-2.105 Y-4.414 E1.49107
G1 X-1.258 Y-4.726 E1.51562
G1 X-0.368 Y-4.877 E1.54018
G1 X0.534 Y-4.861 E1.56473
G1 X1.418 Y-4.680 E1.58928
G1 X2.254 Y-4.340 E1.61384
G1 X3.013 Y-3.852 E1.63839
G1 X3.670 Y-3.233 E1.66294
G1 X4.201 Y-2.504 E1.68750
G1 X4.590 Y-1.689 E1.71205
G1 X4.822 Y-0.817 E1.73660
G1 X4.890 Y0.083 E1.76116
G1 X4.791 Y0.980 E1.78571
G1 X4.530 Y1.844 E1.81026
G1 X4.154 Y2.568 E1.83245
G1 X3.537 Y2.599 F7800.000
G1 X5.132 Y2.502
G1 X5.132 Y6.632 F540.000 E1.94482
G1 X-5.132 Y6.632 E2.22408
G1 X-5.132 Y2.466 E2.33742
G1 X-4.980 Y2.417 E2.34177
G1 X-4.106 Y3.617 E2.38217
G1 X-3.371 Y4.310 E2.40964
G1 X-2.522 Y4.856 E2.43711
G1 X-1.586 Y5.236 E2.46458
G1 X-1.404 Y5.274 E2.46966
G1 X-0.597 Y5.439 E2.49205
G1 X0.412 Y5.456 E2.51952
G1 X1.408 Y5.287 E2.54699
G1 X1.583 Y5.223 E2.55207
G1 X2.355 Y4.939 E2.57446
G1 X3.223 Y4.422 E2.60193
G1 X3.980 Y3.754 E2.62940
G1 X4.996 Y2.455 E2.67427
G1 X5.050 Y2.474 E2.67582
G1 X5.132 Y-6.632 F7800.000
G1 X5.132 Y-2.466 F540.000 E2.78916
G1 X4.980 Y-2.417 E2.79351
G1 X4.106 Y-3.617 E2.83391
G1 X3.371 Y-4.310 E2.86138
G1 X2.522 Y-4.856 E2.88885
G1 X1.586 Y-5.236 E2.91632
G1 X0.597 Y-5.439 E2.94379
G1 X-0.412 Y-5.456 E2.97126
G1 X-1.408 Y-5.287 E2.99873
G1 X-2.355 Y-4.939 E3.02620
G1 X-3.223 Y-4.422 E3.05368
G1 X-3.980 Y-3.754 E3.08115
G1 X-4.996 Y-2.455 E3.12601
G1 X-5.132 Y-2.502 E3.12992
G1 X-5.132 Y-6.632 E3.24228
G1 X5.045 Y-6.632 E3.51918
G1 X5.711 Y-7.211 F7800.000
G1 X5.711 Y7.211 F540.000 E3.91154
G1 X-5.711 Y7.211 E4.22228
G1 X-5.711 Y-7.211 E4.61464
G1 X5.624 Y-7.211 E4.92302
G1 X5.421 Y-6.710 F7800.000
G1 X4.710 Y3.671
G1 X4.713 Y4.504 F1080.000 E4.94602
G1 X4.268 Y4.059 E4.96338
G1 X3.827 Y4.448 E4.97961
G1 X4.713 Y5.334 E5.01420
G1 X4.713 Y6.164 E5.03711
G1 X3.370 Y4.822 E5.08951
G1 X2.850 Y5.132 E5.10622
G1 X3.931 Y6.213 E5.14843
G1 X3.101 Y6.213 E5.17134
G1 X2.296 Y5.407 E5.20278
G1 X2.271 Y6.213 E5.22503
G1 X1.689 Y5.631 E5.24776
G1 X1.244 Y6.016 E5.26400
G1 X1.441 Y6.213 E5.27168
G1 X1.271 Y6.043 F7800.000
G1 X1.156 Y5.928 F360.000 E5.27612
G1 X-1.219 Y6.043 F7800.000
G1 X-1.265 Y5.997 F360.000 E5.27794
G1 X-0.389 Y6.043 E5.30217
G1 X-1.234 Y6.028 F7800.000
G1 X-1.563 Y5.699 F1080.000 E5.31486
G1 X-1.879 Y6.213 F7800.000
G1 X-3.127 Y4.965 F1080.000 E5.36286
G1 X-3.539 Y6.213 F7800.000
G1 X-4.713 Y5.039 F1080.000 E5.40801
G1 X-4.713 Y4.209 F7800.000
G1 X-2.709 Y6.213 F1080.000 E5.48510
G1 X-4.369 Y6.213 F7800.000
G1 X-4.713 Y5.869 F1080.000 E5.49832
G1 X-5.100 Y2.025 F7800.000
G1 X-5.302 Y1.824 F360.000 E5.50229
G1 X-5.012 Y1.694 E5.50671
G1 X-5.302 Y1.404 E5.51241
G1 X-5.164 Y1.122 E5.51677
G1 X-5.302 Y0.984 E5.51948
G1 X-5.247 Y0.619 E5.52461
G1 X-5.302 Y0.565 E5.52569
G1 X-5.281 Y0.165 E5.53125
G1 X-5.302 Y0.145 E5.53165
G1 X-5.283 Y-0.255 E5.53722
G1 X-5.302 Y-0.274 E5.53760
G1 X-5.241 Y-0.633 E5.54266
G1 X-5.302 Y-0.694 E5.54386
G1 X-5.199 Y-1.012 E5.54849
G1 X-5.302 Y-1.114 E5.55050
G1 X-5.109 Y-1.341 E5.55464
G1 X-5.302 Y-1.533 E5.55842
G1 X-5.012 Y-1.663 E5.56284
G1 X-5.302 Y-1.953 E5.56854
G1 X-4.928 Y-1.999 E5.57377
G1 X-4.914 Y-1.985 E5.57405
G1 X-4.488 Y-3.866 F7800.000
G1 X-4.713 Y-4.092 F1080.000 E5.58271
G1 X-4.046 Y-4.255 F7800.000
G1 X-4.713 Y-4.922 F1080.000 E5.60836
G1 X-4.713 Y-5.752 F7800.000
G1 X-3.605 Y-4.644 F1080.000 E5.65099
G1 X-3.109 Y-4.978 F7800.000
G1 X-4.344 Y-6.213 F1080.000 E5.69851
G1 X-3.514 Y-6.213 F7800.000
G1 X-2.589 Y-5.288 F1080.000 E5.73411
G1 X-1.991 Y-5.520 F7800.000
G1 X-2.684 Y-6.213 F1080.000 E5.76078
G1 X-1.854 Y-6.213 F7800.000
G1 X-1.384 Y-5.743 F1080.000 E5.77886
G1 X-0.799 Y-5.988 F7800.000
G1 X-0.854 Y-6.043 F360.000 E5.78098
G1 X-0.019 Y-6.039 F7800.000
G1 X-0.024 Y-6.043 F360.000 E5.78115
G1 X0.806 Y-6.043 F7800.000
G1 X0.864 Y-5.986 F360.000 E5.78335
G1 X1.467 Y-6.213 F7800.000
G1 X2.268 Y-5.412 F1080.000 E5.81417
G1 X2.297 Y-6.213 F7800.000
G1 X4.713 Y-3.797 F1080.000 E5.90713
G1 X4.713 Y-4.627 F7800.000
G1 X3.127 Y-6.213 F1080.000 E5.96816
G1 X3.957 Y-6.213 F7800.000
G1 X4.713 Y-5.457 F1080.000 E5.99724
G1 X4.953 Y2.008 F7800.000
G1 X4.918 Y1.973 F360.000 E5.99793
G1 X5.016 Y1.651 E6.00262
G1 X5.302 Y1.937 E6.00827
G1 X5.302 Y1.517 E6.01412
G1 X5.113 Y1.329 E6.01784
G1 X5.302 Y1.097 E6.02200
G1 X5.201 Y0.997 E6.02398
G1 X5.302 Y0.678 E6.02865
G1 X5.243 Y0.619 E6.02981
G1 X5.302 Y0.258 E6.03491
G1 X5.284 Y0.241 E6.03526
G1 X5.302 Y-0.161 E6.04087
G1 X5.280 Y-0.183 E6.04130
G1 X5.302 Y-0.581 E6.04686
G1 X5.246 Y-0.637 E6.04796
G1 X5.302 Y-1.001 E6.05310
G1 X5.158 Y-1.144 E6.05593
G1 X5.302 Y-1.420 E6.06027
G1 X5.006 Y-1.716 E6.06610
G1 X5.302 Y-1.840 E6.07058
G1 X5.112 Y-2.029 E6.07432
M104 S200 ; set temperature
M140 S50 ; set bed temperature
G1 F1800.000 E5.07432
G92 E0
G1 Z0.600 F7800.000
G1 X4.625 Y-1.702
G1 F1800.000 E1.00000
G1 X4.859 Y-0.823 F657.786 E1.02799
G1 X4.928 Y0.084 E1.05599
G1 X4.829 Y0.988 E1.08398
G1 X4.565 Y1.858 E1.11198
G1 X4.146 Y2.665 E1.13997
G1 X3.585 Y3.382 E1.16796
G1 X2.903 Y3.983 E1.19596
G1 X2.122 Y4.449 E1.22395
G1 X1.595 Y4.642 E1.24121
G1 X1.268 Y4.763 E1.25194
G1 X0.371 Y4.915 E1.27994
G1 X-0.538 Y4.899 E1.30793
G1 X-1.429 Y4.717 E1.33593
G1 X-2.271 Y4.374 E1.36392
G1 X-3.037 Y3.882 E1.39191
G1 X-3.698 Y3.258 E1.41991
G1 X-4.234 Y2.523 E1.44790
G1 X-4.625 Y1.702 E1.47589
G1 X-4.859 Y0.823 E1.50389
G1 X-4.928 Y-0.084 E1.53188
G1 X-4.829 Y-0.988 E1.55988
G1 X-4.565 Y-1.858 E1.58787
G1 X-4.146 Y-2.665 E1.61586
G1 X-3.585 Y-3.382 E1.64386
G1 X-2.903 Y-3.983 E1.67185
G1 X-2.122 Y-4.449 E1.69984
G1 X-1.268 Y-4.763 E1.72784
G1 X-0.371 Y-4.915 E1.75583
G1 X0.538 Y-4.899 E1.78383
G1 X1.429 Y-4.717 E1.81182
G1 X2.271 Y-4.374 E1.83981
G1 X3.037 Y-3.882 E1.86781
G1 X3.698 Y-3.258 E1.89580
G1 X4.234 Y-2.523 E1.92379
G1 X4.583 Y-1.791 E1.94877
G1 X4.191 Y-1.212 F7800.000
G1 F1800.000 E0.94877
G92 E0
G1 X-5.018 Y6.518 F7800.000
G1 F1800.000 E1.00000
G1 X-5.018 Y2.850 F657.786 E1.11291
G1 X-4.846 Y2.794 E1.11847
G1 X-4.191 Y3.693 E1.15270
G1 X-3.441 Y4.400 E1.18442
G1 X-2.574 Y4.957 E1.21615
G1 X-1.620 Y5.346 E1.24788
G1 X-0.610 Y5.553 E1.27960
G1 X0.421 Y5.570 E1.31133
G1 X1.437 Y5.398 E1.34306
G1 X2.405 Y5.042 E1.37479
G1 X3.290 Y4.514 E1.40651
G1 X4.064 Y3.833 E1.43824
G1 X4.865 Y2.809 E1.47825
G1 X5.018 Y2.862 E1.48326
G1 X5.018 Y6.518 E1.59580
G1 X-4.920 Y6.518 E1.90169
G1 F1800.000 E0.90169
G92 E0
G1 X5.018 Y-6.518 F7800.000
G1 F1800.000 E1.00000
G1 X5.018 Y-2.850 F657.786 E1.11291
G1 X4.846 Y-2.794 E1.11847
G1 X4.191 Y-3.693 E1.15270
G1 X3.441 Y-4.400 E1.18442
G1 X2.574 Y-4.957 E1.21615
G1 X1.620 Y-5.346 E1.24788
G1 X0.610 Y-5.553 E1.27960
G1 X-0.421 Y-5.570 E1.31133
G1 X-1.437 Y-5.398 E1.34306
G1 X-2.405 Y-5.042 E1.37479
G1 X-3.290 Y-4.514 E1.40651
G1 X-4.064 Y-3.833 E1.43824
G1 X-4.865 Y-2.809 E1.47825
G1 X-5.018 Y-2.862 E1.48326
G1 X-5.018 Y-6.518 E1.59580
G1 X4.920 Y-6.518 E1.90169
G1 X5.673 Y-7.173 F7800.000
G1 X5.673 Y7.173 F657.786 E2.34323
G1 X-5.673 Y7.173 E2.69243
G1 X-5.673 Y-7.173 E3.13396
G1 X5.575 Y-7.173 E3.48014
G1 X5.346 Y-6.606 F7800.000
G1 F1800.000 E2.48014
G92 E0
G1 X-2.382 Y5.645 F7800.000
G1 F1800.000 E1.00000
G1 X-2.780 Y6.044 F1315.572 E1.01746
G1 X-2.949 Y5.281 E1.04166
G1 X-3.712 Y6.044 E1.07508
G1 X-4.544 Y5.945 E1.10103
G1 X-3.515 Y4.916 E1.14608
G1 X-4.082 Y4.552 E1.16695
G1 X-4.544 Y5.014 E1.18716
G1 X-4.932 Y2.142 F7800.000
G1 X-5.206 Y2.416 F600.000 E1.19310
G1 X-5.206 Y1.951 F7800.000
G1 X-5.077 Y1.821 F600.000 E1.19592
G1 X-5.206 Y1.485 F7800.000
G1 X-5.174 Y1.453 F600.000 E1.19661
G1 X-5.022 Y-1.959 F7800.000
G1 X-5.206 Y-1.775 F600.000 E1.20061
G1 X-5.206 Y-2.240 F7800.000
G1 X-5.063 Y-2.384 F600.000 E1.20372
G1 X-4.544 Y-4.300 F7800.000
G1 X-2.800 Y-6.044 F1315.572 E1.27964
G1 X-2.190 Y-5.722 F7800.000
G1 X-2.057 Y-5.855 F1315.572 E1.28546
G1 X-3.731 Y-6.044 F7800.000
G1 X-4.544 Y-5.231 F1315.572 E1.32084
G1 X-1.860 Y-6.052 F7800.000
G1 X-2.215 Y-5.697 F600.000 E1.32853
G1 X-1.395 Y-6.052 F7800.000
G1 X-1.618 Y-5.828 F600.000 E1.33338
G1 X-0.929 Y-6.052 F7800.000
G1 X-1.043 Y-5.938 F600.000 E1.33585
G1 X-0.463 Y-6.052 F7800.000
G1 X-0.482 Y-6.033 F600.000 E1.33626
G1 X0.002 Y-6.052 F7800.000
G1 X-0.020 Y-6.030 F600.000 E1.33674
G1 X0.468 Y-6.052 F7800.000
G1 X0.438 Y-6.022 F600.000 E1.33738
G1 X0.933 Y-6.052 F7800.000
G1 X0.859 Y-5.978 F600.000 E1.33899
G1 X1.399 Y-6.052 F7800.000
G1 X1.246 Y-5.899 F600.000 E1.34231
G1 X1.633 Y-5.820 F7800.000
G1 X1.865 Y-6.052 F600.000 E1.34735
G1 X2.320 Y-6.041 F7800.000
G1 X1.981 Y-5.702 F600.000 E1.35470
G1 X2.387 Y-5.642 F7800.000
G1 X2.788 Y-6.044 F1315.572 E1.37219
G1 X2.953 Y-5.278 F7800.000
G1 X3.720 Y-6.044 F1315.572 E1.40554
G1 X4.544 Y-5.937 F7800.000
G1 X3.520 Y-4.913 F1315.572 E1.45009
G1 X4.087 Y-4.549 F7800.000
G1 X4.544 Y-5.006 F1315.572 E1.46997
G1 X4.935 Y-2.137 F7800.000
G1 X5.206 Y-2.408 F600.000 E1.47586
G1 X5.078 Y-1.815 F7800.000
G1 X5.206 Y-1.943 F600.000 E1.47864
G1 X5.206 Y-1.477 F7800.000
G1 X5.176 Y-1.447 F600.000 E1.47929
G1 X5.018 Y1.970 F7800.000
G1 X5.206 Y1.783 F600.000 E1.48337
G1 X5.206 Y2.248 F7800.000
G1 X5.069 Y2.386 F600.000 E1.48635
G1 X4.544 Y4.308 F7800.000
G1 X2.808 Y6.044 F1315.572 E1.56193
G1 X2.210 Y5.710 F7800.000
G1 X2.058 Y5.862 F1315.572 E1.56853
G1 X3.739 Y6.044 F7800.000
G1 X4.544 Y5.239 F1315.572 E1.60357
G1 X2.216 Y5.704 F7800.000
G1 X1.868 Y6.052 F600.000 E1.61119
G1 X1.631 Y5.824 E1.61629
G1 X1.403 Y6.052 E1.62128
G1 X1.053 Y5.936 E1.62699
G1 X0.937 Y6.052 E1.62952
G1 X0.028 Y6.030 E1.64361
G1 X0.006 Y6.052 E1.64409
G1 X-0.430 Y6.022 E1.65086
G1 X-0.460 Y6.052 E1.65150
G1 X-0.853 Y5.979 E1.65769
G1 X-0.926 Y6.052 E1.65928
G1 X-1.239 Y5.900 E1.66468
G1 X-1.391 Y6.052 E1.66801
G1 X-1.626 Y5.821 E1.67311
G1 X-1.857 Y6.052 E1.67816
G1 X-1.976 Y5.705 E1.68384
G1 X-2.323 Y6.052 E1.69144
G1 F1800.000 E0.69144
G92 E0
G1 Z0.900 F7800.000
G1 X-1.752 Y4.585
G1 F1800.000 E1.00000
G1 X-2.271 Y4.374 F656.095 E1.01726
G1 X-3.037 Y3.882 E1.04526
G1 X-3.698 Y3.258 E1.07325
G1 X-4.234 Y2.523 E1.10124
G1 X-4.625 Y1.702 E1.12924
G1 X-4.859 Y0.823 E1.15723
G1 X-4.928 Y-0.084 E1.18523
G1 X-4.829 Y-0.988 E1.21322
G1 X-4.565 Y-1.858 E1.24121
G1 X-4.146 Y-2.665 E1.26921
G1 X-3.585 Y-3.382 E1.29720
G1 X-2.903 Y-3.983 E1.32519
G1 X-2.122 Y-4.449 E1.35319
G1 X-1.268 Y-4.763 E1.38118
G1 X-0.371 Y-4.915 E1.40918
G1 X0.538 Y-4.899 E1.43717
G1 X1.429 Y-4.717 E1.46516
G1 X2.271 Y-4.374 E1.49316
G1 X3.037 Y-3.882 E1.52115
G1 X3.290 Y-3.643 E1.53188
G1 X3.698 Y-3.258 E1.54914
G1 X4.234 Y-2.523 E1.57714
G1 X4.625 Y-1.702 E1.60513
G1 X4.859 Y-0.823 E1.63313
G1 X4.928 Y0.084 E1.66112
G1 X4.829 Y0.988 E1.68911
G1 X4.565 Y1.858 E1.71711
G1 X4.146 Y2.665 E1.74510
G1 X3.585 Y3.382 E1.77309
G1 X2.903 Y3.983 E1.80109
G1 X2.122 Y4.449 E1.82908
G1 X1.268 Y4.763 E1.85708
G1 X0.371 Y4.915 E1.88507
G1 X-0.538 Y4.899 E1.91306
G1 X-1.429 Y4.717 E1.94106
G1 X-1.661 Y4.622 E1.94877
G1 X-1.829 Y4.030 F7800.000
G1 F1800.000 E0.94877
G92 E0
G1 X-5.018 Y6.518 F7800.000
G1 F1800.000 E1.00000
G1 X-5.018 Y2.850 F656.095 E1.11291
G1 X-4.846 Y2.794 E1.11847
G1 X-4.191 Y3.693 E1.15270
G1 X-3.441 Y4.400 E1.18442
G1 X-2.574 Y4.957 E1.21615
G1 X-1.620 Y5.346 E1.24788
G1 X-0.610 Y5.553 E1.27960
G1 X0.421 Y5.570 E1.31133
G1 X1.437 Y5.398 E1.34306
G1 X2.405 Y5.042 E1.37479
G1 X3.290 Y4.514 E1.40651
G1 X4.064 Y3.833 E1.43824
G1 X4.865 Y2.809 E1.47825
G1 X5.018 Y2.862 E1.48326
G1 X5.018 Y6.518 E1.59580
G1 X-4.920 Y6.518 E1.90169
G1 X-5.018 Y-6.518 F7800.000
G1 X5.018 Y-6.518 F656.095 E2.21060
G1 X5.018 Y-2.850 E2.32351
G1 X4.846 Y-2.794 E2.32907
G1 X4.191 Y-3.693 E2.36330
G1 X3.441 Y-4.400 E2.39502
G1 X2.574 Y-4.957 E2.42675
G1 X1.620 Y-5.346 E2.45848
G1 X0.610 Y-5.553 E2.49021
G1 X-0.421 Y-5.570 E2.52193
G1 X-1.437 Y-5.398 E2.55366
G1 X-2.405 Y-5.042 E2.58539
G1 X-3.290 Y-4.514 E2.61711
G1 X-4.064 Y-3.833 E2.64884
G1 X-4.865 Y-2.809 E2.68886
G1 X-5.018 Y-2.862 E2.69386
G1 X-5.018 Y-6.420 E2.80338
G1 X-5.673 Y-7.173 F7800.000
G1 X5.673 Y-7.173 F656.095 E3.15258
G1 X5.673 Y7.173 E3.59412
G1 X-5.673 Y7.173 E3.94332
G1 X-5.673 Y-7.075 E4.38183
G1 X-5.106 Y-6.846 F7800.000
G1 F1800.000 E3.38183
G92 E0
G1 X-3.811 Y4.726 F7800.000
G1 F1800.000 E1.00000
G1 X-2.494 Y6.044 F1312.191 E1.05772
G1 X-3.425 Y6.044 E1.08656
G1 X-4.544 Y4.925 E1.13556
G1 X-4.544 Y5.856 E1.16441
G1 X-4.356 Y6.044 E1.17262
G1 X-2.020 Y6.052 F7800.000
G1 X-2.254 Y5.817 F600.000 E1.17775
G1 X-1.850 Y5.756 E1.18408
G1 X-1.554 Y6.052 E1.19056
G1 X-1.241 Y5.900 E1.19596
G1 X-1.089 Y6.052 E1.19929
G1 X-0.656 Y6.018 E1.20600
G1 X-0.623 Y6.052 E1.20674
G1 X-0.183 Y6.026 E1.21356
G1 X-0.157 Y6.052 E1.21412
G1 X0.291 Y6.034 E1.22107
G1 X0.308 Y6.052 E1.22145
G1 X0.715 Y5.993 E1.22782
G1 X0.774 Y6.052 E1.22910
G1 X1.114 Y5.926 E1.23471
G1 X1.240 Y6.052 E1.23746
G1 X1.512 Y5.858 E1.24264
G1 X1.705 Y6.052 E1.24687
G1 X1.859 Y5.740 E1.25226
G1 X2.171 Y6.052 E1.25909
G1 X2.163 Y6.044 F7800.000
G1 X2.088 Y5.969 F1312.191 E1.26235
G1 X2.555 Y5.505 F7800.000
G1 X3.094 Y6.044 F1312.191 E1.28583
G1 X3.139 Y5.157 F7800.000
G1 X4.026 Y6.044 F1312.191 E1.32444
G1 X4.544 Y5.631 F7800.000
G1 X3.699 Y4.786 F1312.191 E1.36121
G1 X4.194 Y4.350 F7800.000
G1 X4.544 Y4.700 F1312.191 E1.37643
G1 X5.001 Y2.362 F7800.000
G1 X4.888 Y2.249 F600.000 E1.37888
G1 X5.206 Y2.102 F7800.000
G1 X5.031 Y1.927 F600.000 E1.38267
G1 X5.206 Y1.637 F7800.000
G1 X5.140 Y1.570 F600.000 E1.38412
G1 X5.206 Y-1.623 F7800.000
G1 X5.101 Y-1.728 F600.000 E1.38639
G1 X5.206 Y-2.089 F7800.000
G1 X4.956 Y-2.339 F600.000 E1.39183
G1 X4.544 Y-4.614 F7800.000
G1 X3.114 Y-6.044 F1312.191 E1.45408
G1 X2.940 Y-5.286 F7800.000
G1 X2.182 Y-6.044 F1312.191 E1.48705
G1 X4.045 Y-6.044 F7800.000
G1 X4.544 Y-5.545 F1312.191 E1.50876
G1 X2.289 Y-5.937 F7800.000
