; generated by Slic3r 0.9.10b on 2013-11-30 at 21:37:48

; layer_height = 0.2
; perimeters = 2
; top_solid_layers = 3
; bottom_solid_layers = 3
; fill_density = 0.4
; perimeter_speed = 30
; infill_speed = 60
; travel_speed = 130
; nozzle_diameter = 0.5
; filament_diameter = 2.85
; extrusion_multiplier = 1
; perimeters extrusion width = 0.85mm
; infill extrusion width = 1.02mm
; solid infill extrusion width = 0.85mm
; top infill extrusion width = 0.85mm
; first layer extrusion width = 0.40mm

G21 ; set units to millimeters
M107
M104 S0
M83
M140 S70
G28
G1Y98F9000
M190 S70
G1X5Y98Z150F9000
M104 S210
G1X5Y98Z1F9000
G1Z0.05
M109 S210
G1Z5
G1X15
;G1E5F50
G90 ; use absolute coordinates
G92 E0
M82 ; use absolute distances for extrusion
G1 F1800.000 E-1.00000
G92 E0
G1 Z0.200 F7800.000
G1 X23.499 Y30.320
G1 F1800.000 E1.00000
G1 X-23.501 Y30.320 F540.000 E1.62102
G1 X-24.361 Y30.260 E1.63241
G1 X-25.211 Y30.090 E1.64386
G1 X-30.421 Y28.650 E1.71529
G1 X-31.741 Y28.120 E1.73408
G1 X-32.911 Y27.320 E1.75281
G1 X-33.871 Y26.280 E1.77151
G1 X-34.591 Y25.050 E1.79034
G1 X-35.011 Y23.700 E1.80902
G1 X-35.111 Y23.190 E1.81589
G1 X-35.201 Y22.570 E1.82417
G1 X-35.231 Y21.950 E1.83237
G1 X-35.231 Y-21.960 E2.41256
G1 X-35.201 Y-22.580 E2.42076
G1 X-35.111 Y-23.200 E2.42904
G1 X-35.011 Y-23.710 E2.43591
G1 X-34.591 Y-25.060 E2.45459
G1 X-33.871 Y-26.290 E2.47342
G1 X-32.911 Y-27.330 E2.49212
G1 X-31.741 Y-28.130 E2.51085
G1 X-30.421 Y-28.660 E2.52964
G1 X-25.211 Y-30.100 E2.60106
G1 X-24.361 Y-30.270 E2.61252
G1 X-23.501 Y-30.330 E2.62391
G1 X23.499 Y-30.330 E3.24493
G1 X24.359 Y-30.270 E3.25632
G1 X25.209 Y-30.100 E3.26777
G1 X30.419 Y-28.660 E3.33919
G1 X31.739 Y-28.130 E3.35799
G1 X32.919 Y-27.320 E3.37690
G1 X33.879 Y-26.280 E3.39560
G1 X34.589 Y-25.040 E3.41448
G1 X35.019 Y-23.680 E3.43333
G1 X35.119 Y-23.160 E3.44032
G1 X35.199 Y-22.560 E3.44832
G1 X35.229 Y-21.950 E3.45639
G1 X35.229 Y21.940 E4.03632
G1 X35.199 Y22.550 E4.04439
G1 X35.119 Y23.150 E4.05239
G1 X35.019 Y23.670 E4.05938
G1 X34.589 Y25.030 E4.07823
G1 X33.879 Y26.270 E4.09711
G1 X32.919 Y27.310 E4.11581
G1 X31.739 Y28.120 E4.13472
G1 X30.419 Y28.650 E4.15352
G1 X25.209 Y30.090 E4.22494
G1 X24.359 Y30.260 E4.23639
G1 X23.562 Y30.316 E4.24695
G1 F1800.000 E3.24695
G92 E0
G1 X26.093 Y17.171 F7800.000
G1 F1800.000 E1.00000
G1 X28.179 Y17.171 F540.000 E1.02756
G1 X28.179 Y21.829 E1.08910
G1 X26.093 Y21.829 E1.11666
G1 X27.437 Y19.500 E1.15219
G1 X26.125 Y17.226 E1.18689
G1 X25.363 Y16.750 F7800.000
G1 X28.536 Y16.750 F540.000 E1.22882
G1 X28.600 Y17.071 E1.23315
G1 X28.600 Y21.929 E1.29733
G1 X28.536 Y22.250 E1.30166
G1 X25.363 Y22.250 E1.34359
G1 X26.951 Y19.500 E1.38555
G1 X25.395 Y16.805 E1.42667
G1 X25.759 Y16.894 F7800.000
G1 F1800.000 E0.42667
G92 E0
G1 X16.821 Y21.829 F7800.000
G1 F1800.000 E1.00000
G1 X16.821 Y17.171 F540.000 E1.06154
G1 X18.907 Y17.171 E1.08910
G1 X17.563 Y19.500 E1.12463
G1 X18.907 Y21.829 E1.16016
G1 X16.884 Y21.829 E1.18688
G1 X16.400 Y21.930 F7800.000
G1 X16.400 Y17.070 F540.000 E1.25109
G1 X16.463 Y16.750 E1.25541
G1 X19.637 Y16.750 E1.29734
G1 X18.049 Y19.500 E1.33930
G1 X19.637 Y22.250 E1.38126
G1 X16.463 Y22.250 E1.42320
G1 X16.412 Y21.992 E1.42668
G1 X16.750 Y21.695 F7800.000
G1 F1800.000 E0.42668
G92 E0
G1 X11.093 Y21.829 F7800.000
G1 F1800.000 E1.00000
G1 X12.437 Y19.500 F540.000 E1.03553
G1 X11.093 Y17.171 E1.07106
G1 X13.179 Y17.171 E1.09862
G1 X13.179 Y21.829 E1.16016
G1 X11.156 Y21.829 E1.18689
G1 X10.363 Y22.250 F7800.000
G1 X11.951 Y19.500 F540.000 E1.22884
G1 X10.363 Y16.750 E1.27080
G1 X13.536 Y16.750 E1.31274
G1 X13.600 Y17.071 E1.31707
G1 X13.600 Y21.929 E1.38125
G1 X13.536 Y22.250 E1.38558
G1 X10.426 Y22.250 E1.42667
G1 X10.686 Y21.979 F7800.000
G1 F1800.000 E0.42667
G92 E0
G1 X1.821 Y17.171 F7800.000
G1 F1800.000 E1.00000
G1 X3.907 Y17.171 F540.000 E1.02756
G1 X2.563 Y19.500 E1.06309
G1 X3.907 Y21.829 E1.09862
G1 X1.821 Y21.829 E1.12618
G1 X1.821 Y17.235 E1.18688
G1 X1.400 Y17.070 F7800.000
G1 X1.463 Y16.750 F540.000 E1.19120
G1 X4.637 Y16.750 E1.23314
G1 X3.049 Y19.500 E1.27510
G1 X4.637 Y22.250 E1.31706
G1 X1.463 Y22.250 E1.35899
G1 X1.400 Y21.930 E1.36331
G1 X1.400 Y17.134 E1.42668
G1 X1.702 Y16.945 F7800.000
G1 F1800.000 E0.42668
G92 E0
G1 X-3.907 Y21.829 F7800.000
G1 F1800.000 E1.00000
G1 X-2.563 Y19.500 F540.000 E1.03553
G1 X-3.907 Y17.171 E1.07106
G1 X-1.821 Y17.171 E1.09862
G1 X-1.821 Y21.829 E1.16016
G1 X-3.844 Y21.829 E1.18688
G1 X-4.637 Y22.250 F7800.000
G1 X-3.049 Y19.500 F540.000 E1.22884
G1 X-4.637 Y16.750 E1.27080
G1 X-1.464 Y16.750 E1.31274
G1 X-1.400 Y17.071 E1.31707
G1 X-1.400 Y21.929 E1.38125
G1 X-1.464 Y22.250 E1.38558
G1 X-4.574 Y22.250 E1.42667
G1 X-4.314 Y21.979 F7800.000
G1 F1800.000 E0.42667
G92 E0
G1 X-11.093 Y21.829 F7800.000
G1 F1800.000 E1.00000
G1 X-13.179 Y21.829 F540.000 E1.02756
G1 X-13.179 Y17.171 E1.08910
G1 X-11.093 Y17.171 E1.11666
G1 X-12.437 Y19.500 E1.15219
G1 X-11.125 Y21.774 E1.18688
G1 X-10.363 Y22.250 F7800.000
G1 X-13.537 Y22.250 F540.000 E1.22882
G1 X-13.600 Y21.930 E1.23314
G1 X-13.600 Y17.070 E1.29734
G1 X-13.537 Y16.750 E1.30166
G1 X-10.363 Y16.750 E1.34360
G1 X-11.951 Y19.500 E1.38556
G1 X-10.395 Y22.195 E1.42668
G1 X-10.759 Y22.106 F7800.000
G1 F1800.000 E0.42668
G92 E0
G1 X-18.907 Y17.171 F7800.000
G1 F1800.000 E1.00000
G1 X-16.821 Y17.171 F540.000 E1.02756
G1 X-16.821 Y21.829 E1.08910
G1 X-18.907 Y21.829 E1.11666
G1 X-17.563 Y19.500 E1.15219
G1 X-18.875 Y17.226 E1.18689
G1 X-19.637 Y16.750 F7800.000
G1 X-16.463 Y16.750 F540.000 E1.22882
G1 X-16.400 Y17.071 E1.23315
G1 X-16.400 Y21.929 E1.29733
G1 X-16.463 Y22.250 E1.30166
G1 X-19.637 Y22.250 E1.34359
G1 X-18.049 Y19.500 E1.38555
G1 X-19.605 Y16.805 E1.42668
G1 X-19.241 Y16.894 F7800.000
G1 F1800.000 E0.42668
G92 E0
G1 X-26.093 Y17.171 F7800.000
G1 F1800.000 E1.00000
G1 X-27.437 Y19.500 F540.000 E1.03553
G1 X-26.093 Y21.829 E1.07106
G1 X-28.179 Y21.829 E1.09862
G1 X-28.179 Y17.171 E1.16016
G1 X-26.156 Y17.171 E1.18689
G1 X-25.363 Y16.750 F7800.000
G1 X-26.951 Y19.500 F540.000 E1.22885
G1 X-25.363 Y22.250 E1.27081
G1 X-28.537 Y22.250 E1.31274
G1 X-28.600 Y21.930 E1.31706
G1 X-28.600 Y17.070 E1.38126
G1 X-28.537 Y16.750 E1.38558
G1 X-25.426 Y16.750 E1.42668
G1 X-25.686 Y17.021 F7800.000
G1 F1800.000 E0.42668
G92 E0
G1 X-26.093 Y4.171 F7800.000
G1 F1800.000 E1.00000
G1 X-27.437 Y6.500 F540.000 E1.03553
G1 X-26.093 Y8.829 E1.07106
G1 X-28.179 Y8.829 E1.09862
G1 X-28.179 Y4.171 E1.16016
G1 X-26.156 Y4.171 E1.18689
G1 X-25.623 Y3.750 F7800.000
G1 X-25.363 Y3.750 F540.000 E1.19032
G1 X-26.951 Y6.500 E1.23228
G1 X-25.363 Y9.250 E1.27424
G1 X-28.537 Y9.250 E1.31618
G1 X-28.600 Y8.930 E1.32049
G1 X-28.600 Y4.070 E1.38470
G1 X-28.537 Y3.750 E1.38902
G1 X-25.686 Y3.750 E1.42668
G1 X-25.493 Y3.975 F7800.000
G1 F1800.000 E0.42668
G92 E0
G1 X-18.907 Y4.171 F7800.000
G1 F1800.000 E1.00000
G1 X-16.821 Y4.171 F540.000 E1.02756
G1 X-16.821 Y8.829 E1.08910
G1 X-18.907 Y8.829 E1.11666
G1 X-17.563 Y6.500 E1.15219
G1 X-18.875 Y4.226 E1.18689
G1 X-19.637 Y3.750 F7800.000
G1 X-16.463 Y3.750 F540.000 E1.22882
G1 X-16.400 Y4.071 E1.23315
G1 X-16.400 Y8.929 E1.29733
G1 X-16.463 Y9.250 E1.30166
G1 X-19.637 Y9.250 E1.34359
G1 X-18.049 Y6.500 E1.38555
G1 X-19.605 Y3.805 E1.42668
G1 X-19.241 Y3.894 F7800.000
G1 F1800.000 E0.42668
G92 E0
G1 X-11.093 Y4.171 F7800.000
G1 F1800.000 E1.00000
G1 X-12.437 Y6.500 F540.000 E1.03553
G1 X-11.093 Y8.829 E1.07106
G1 X-13.179 Y8.829 E1.09862
G1 X-13.179 Y4.171 E1.16016
G1 X-11.156 Y4.171 E1.18688
G1 X-10.623 Y3.750 F7800.000
G1 X-10.363 Y3.750 F540.000 E1.19032
G1 X-11.951 Y6.500 E1.23228
G1 X-10.363 Y9.250 E1.27424
G1 X-13.537 Y9.250 E1.31617
G1 X-13.600 Y8.930 E1.32049
G1 X-13.600 Y4.070 E1.38470
G1 X-13.537 Y3.750 E1.38901
G1 X-10.686 Y3.750 E1.42668
G1 X-10.493 Y3.975 F7800.000
G1 F1800.000 E0.42668
G92 E0
G1 X-3.907 Y4.171 F7800.000
G1 F1800.000 E1.00000
G1 X-1.821 Y4.171 F540.000 E1.02756
G1 X-1.821 Y8.829 E1.08910
G1 X-3.907 Y8.829 E1.11666
G1 X-2.563 Y6.500 E1.15219
G1 X-3.875 Y4.226 E1.18688
G1 X-4.637 Y3.750 F7800.000
G1 X-1.464 Y3.750 F540.000 E1.22882
G1 X-1.400 Y4.071 E1.23315
G1 X-1.400 Y8.929 E1.29733
G1 X-1.464 Y9.250 E1.30166
G1 X-4.637 Y9.250 E1.34359
G1 X-3.049 Y6.500 E1.38555
G1 X-4.605 Y3.805 E1.42667
G1 X-4.241 Y3.894 F7800.000
G1 F1800.000 E0.42667
G92 E0
G1 X1.821 Y8.829 F7800.000
G1 F1800.000 E1.00000
G1 X1.821 Y4.171 F540.000 E1.06154
G1 X3.907 Y4.171 E1.08910
G1 X2.563 Y6.500 E1.12463
G1 X3.907 Y8.829 E1.16016
G1 X1.884 Y8.829 E1.18688
G1 X1.400 Y8.930 F7800.000
G1 X1.400 Y4.070 F540.000 E1.25109
G1 X1.463 Y3.750 E1.25541
G1 X4.637 Y3.750 E1.29734
G1 X3.049 Y6.500 E1.33930
G1 X4.637 Y9.250 E1.38126
G1 X1.463 Y9.250 E1.42320
G1 X1.412 Y8.992 E1.42668
G1 X1.750 Y8.695 F7800.000
G1 F1800.000 E0.42668
G92 E0
G1 X13.179 Y8.829 F7800.000
G1 F1800.000 E1.00000
G1 X11.093 Y8.829 F540.000 E1.02756
G1 X12.437 Y6.500 E1.06309
G1 X11.093 Y4.171 E1.09862
G1 X13.179 Y4.171 E1.12618
G1 X13.179 Y8.765 E1.18689
G1 X13.600 Y8.929 F7800.000
G1 X13.536 Y9.250 F540.000 E1.19122
G1 X10.363 Y9.250 E1.23315
G1 X11.951 Y6.500 E1.27511
G1 X10.363 Y3.750 E1.31707
G1 X13.536 Y3.750 E1.35900
G1 X13.600 Y4.071 E1.36333
G1 X13.600 Y8.865 E1.42667
G1 X13.297 Y9.054 F7800.000
G1 F1800.000 E0.42667
G92 E0
G1 X16.821 Y4.171 F7800.000
G1 F1800.000 E1.00000
G1 X18.907 Y4.171 F540.000 E1.02756
G1 X17.563 Y6.500 E1.06309
G1 X18.907 Y8.829 E1.09862
G1 X16.821 Y8.829 E1.12618
G1 X16.821 Y4.235 E1.18688
G1 X16.400 Y4.070 F7800.000
G1 X16.463 Y3.750 F540.000 E1.19120
G1 X19.637 Y3.750 E1.23314
G1 X18.049 Y6.500 E1.27510
G1 X19.637 Y9.250 E1.31706
G1 X16.463 Y9.250 E1.35899
G1 X16.400 Y8.930 E1.36331
G1 X16.400 Y4.134 E1.42668
G1 X16.702 Y3.945 F7800.000
G1 F1800.000 E0.42668
G92 E0
G1 X28.179 Y4.171 F7800.000
G1 F1800.000 E1.00000
G1 X28.179 Y8.829 F540.000 E1.06154
G1 X26.093 Y8.829 E1.08910
G1 X27.437 Y6.500 E1.12463
G1 X26.093 Y4.171 E1.16016
G1 X28.116 Y4.171 E1.18689
G1 X28.155 Y3.750 F7800.000
G1 X28.536 Y3.750 F540.000 E1.19193
G1 X28.600 Y4.071 E1.19626
G1 X28.600 Y8.929 E1.26044
G1 X28.536 Y9.250 E1.26477
G1 X25.363 Y9.250 E1.30670
G1 X26.951 Y6.500 E1.34866
G1 X25.363 Y3.750 E1.39062
G1 X28.092 Y3.750 E1.42667
G1 X28.346 Y4.080 F7800.000
G1 F1800.000 E0.42667
G92 E0
G1 X28.179 Y-4.171 F7800.000
G1 F1800.000 E1.00000
G1 X26.093 Y-4.171 F540.000 E1.02756
G1 X27.437 Y-6.500 E1.06309
G1 X26.093 Y-8.829 E1.09862
G1 X28.179 Y-8.829 E1.12618
G1 X28.179 Y-4.235 E1.18689
G1 X28.600 Y-4.071 F7800.000
G1 X28.536 Y-3.750 F540.000 E1.19122
G1 X25.363 Y-3.750 E1.23315
G1 X26.951 Y-6.500 E1.27511
G1 X25.363 Y-9.250 E1.31707
G1 X28.536 Y-9.250 E1.35900
G1 X28.600 Y-8.929 E1.36333
G1 X28.600 Y-4.135 E1.42667
G1 X28.297 Y-3.946 F7800.000
G1 F1800.000 E0.42667
G92 E0
G1 X16.821 Y-4.171 F7800.000
G1 F1800.000 E1.00000
G1 X16.821 Y-8.829 F540.000 E1.06154
G1 X18.907 Y-8.829 E1.08910
G1 X17.563 Y-6.500 E1.12463
G1 X18.907 Y-4.171 E1.16016
G1 X16.884 Y-4.171 E1.18689
G1 X16.400 Y-4.070 F7800.000
G1 X16.400 Y-8.930 F540.000 E1.25109
G1 X16.463 Y-9.250 E1.25541
G1 X19.637 Y-9.250 E1.29734
G1 X18.049 Y-6.500 E1.33930
G1 X19.637 Y-3.750 E1.38126
G1 X16.463 Y-3.750 E1.42320
G1 X16.412 Y-4.008 E1.42668
G1 X16.750 Y-4.305 F7800.000
G1 F1800.000 E0.42668
G92 E0
G1 X11.093 Y-4.171 F7800.000
G1 F1800.000 E1.00000
G1 X12.437 Y-6.500 F540.000 E1.03553
G1 X11.093 Y-8.829 E1.07106
G1 X13.179 Y-8.829 E1.09862
G1 X13.179 Y-4.171 E1.16016
G1 X11.156 Y-4.171 E1.18689
G1 X10.623 Y-3.750 F7800.000
G1 X10.363 Y-3.750 F540.000 E1.19032
G1 X11.951 Y-6.500 E1.23228
G1 X10.363 Y-9.250 E1.27424
G1 X13.536 Y-9.250 E1.31617
G1 X13.600 Y-8.929 E1.32050
G1 X13.600 Y-4.071 E1.38468
G1 X13.536 Y-3.750 E1.38901
G1 X10.686 Y-3.750 E1.42667
G1 X10.493 Y-3.975 F7800.000
G1 F1800.000 E0.42667
G92 E0
G1 X1.821 Y-8.829 F7800.000
G1 F1800.000 E1.00000
G1 X3.907 Y-8.829 F540.000 E1.02756
G1 X2.563 Y-6.500 E1.06309
G1 X3.907 Y-4.171 E1.09862
G1 X1.821 Y-4.171 E1.12618
G1 X1.821 Y-8.765 E1.18689
G1 X1.400 Y-8.930 F7800.000
G1 X1.463 Y-9.250 F540.000 E1.19120
G1 X4.637 Y-9.250 E1.23314
G1 X3.049 Y-6.500 E1.27510
G1 X4.637 Y-3.750 E1.31706
G1 X1.463 Y-3.750 E1.35899
G1 X1.400 Y-4.070 E1.36331
G1 X1.400 Y-8.866 E1.42668
G1 X1.702 Y-9.055 F7800.000
G1 F1800.000 E0.42668
G92 E0
G1 X-3.907 Y-8.829 F7800.000
G1 F1800.000 E1.00000
G1 X-1.821 Y-8.829 F540.000 E1.02756
G1 X-1.821 Y-4.171 E1.08910
G1 X-3.907 Y-4.171 E1.11666
G1 X-2.563 Y-6.500 E1.15219
G1 X-3.875 Y-8.774 E1.18689
G1 X-4.637 Y-9.250 F7800.000
G1 X-1.464 Y-9.250 F540.000 E1.22882
G1 X-1.400 Y-8.929 E1.23315
G1 X-1.400 Y-4.071 E1.29733
G1 X-1.464 Y-3.750 E1.30166
G1 X-4.637 Y-3.750 E1.34359
G1 X-3.049 Y-6.500 E1.38555
G1 X-4.605 Y-9.195 E1.42667
G1 X-4.241 Y-9.106 F7800.000
G1 F1800.000 E0.42667
G92 E0
G1 X-11.093 Y-8.829 F7800.000
G1 F1800.000 E1.00000
G1 X-12.437 Y-6.500 F540.000 E1.03553
G1 X-11.093 Y-4.171 E1.07106
G1 X-13.179 Y-4.171 E1.09862
G1 X-13.179 Y-8.829 E1.16016
G1 X-11.156 Y-8.829 E1.18688
G1 X-10.623 Y-9.250 F7800.000
G1 X-10.363 Y-9.250 F540.000 E1.19032
G1 X-11.951 Y-6.500 E1.23228
G1 X-10.363 Y-3.750 E1.27424
G1 X-13.537 Y-3.750 E1.31617
G1 X-13.600 Y-4.070 E1.32049
G1 X-13.600 Y-8.930 E1.38470
G1 X-13.537 Y-9.250 E1.38901
G1 X-10.686 Y-9.250 E1.42668
G1 X-10.493 Y-9.025 F7800.000
G1 F1800.000 E0.42668
G92 E0
G1 X-16.821 Y-8.829 F7800.000
G1 F1800.000 E1.00000
G1 X-16.821 Y-4.171 F540.000 E1.06154
G1 X-18.907 Y-4.171 E1.08910
G1 X-17.563 Y-6.500 E1.12463
G1 X-18.907 Y-8.829 E1.16016
G1 X-16.884 Y-8.829 E1.18689
G1 X-16.400 Y-8.929 F7800.000
G1 X-16.400 Y-4.071 F540.000 E1.25106
G1 X-16.463 Y-3.750 E1.25540
G1 X-19.637 Y-3.750 E1.29733
G1 X-18.049 Y-6.500 E1.33929
G1 X-19.637 Y-9.250 E1.38125
G1 X-16.463 Y-9.250 E1.42318
G1 X-16.412 Y-8.991 E1.42668
G1 X-16.750 Y-8.694 F7800.000
G1 F1800.000 E0.42668
G92 E0
G1 X-26.093 Y-4.171 F7800.000
G1 F1800.000 E1.00000
G1 X-28.179 Y-4.171 F540.000 E1.02756
G1 X-28.179 Y-8.829 E1.08910
G1 X-26.093 Y-8.829 E1.11666
G1 X-27.437 Y-6.500 E1.15219
G1 X-26.125 Y-4.226 E1.18689
G1 X-25.363 Y-3.750 F7800.000
G1 X-28.537 Y-3.750 F540.000 E1.22882
G1 X-28.600 Y-4.070 E1.23314
G1 X-28.600 Y-8.930 E1.29735
G1 X-28.537 Y-9.250 E1.30166
G1 X-25.363 Y-9.250 E1.34360
G1 X-26.951 Y-6.500 E1.38556
G1 X-25.395 Y-3.805 E1.42668
G1 X-25.759 Y-3.894 F7800.000
G1 F1800.000 E0.42668
G92 E0
G1 X-26.093 Y-21.829 F7800.000
G1 F1800.000 E1.00000
G1 X-27.437 Y-19.500 F540.000 E1.03553
G1 X-26.093 Y-17.171 E1.07106
G1 X-28.179 Y-17.171 E1.09862
G1 X-28.179 Y-21.829 E1.16016
G1 X-26.156 Y-21.829 E1.18689
G1 X-25.363 Y-22.250 F7800.000
G1 X-26.951 Y-19.500 F540.000 E1.22885
G1 X-25.363 Y-16.750 E1.27081
G1 X-28.537 Y-16.750 E1.31274
G1 X-28.600 Y-17.070 E1.31706
G1 X-28.600 Y-21.930 E1.38127
G1 X-28.537 Y-22.250 E1.38558
G1 X-25.426 Y-22.250 E1.42668
G1 X-25.686 Y-21.979 F7800.000
G1 F1800.000 E0.42668
G92 E0
G1 X-16.821 Y-21.829 F7800.000
G1 F1800.000 E1.00000
G1 X-16.821 Y-17.171 F540.000 E1.06154
G1 X-18.907 Y-17.171 E1.08910
G1 X-17.563 Y-19.500 E1.12463
G1 X-18.907 Y-21.829 E1.16016
G1 X-16.884 Y-21.829 E1.18689
G1 X-16.400 Y-21.929 F7800.000
G1 X-16.400 Y-17.071 F540.000 E1.25106
G1 X-16.463 Y-16.750 E1.25540
G1 X-19.637 Y-16.750 E1.29733
G1 X-18.049 Y-19.500 E1.33929
G1 X-19.637 Y-22.250 E1.38125
G1 X-16.463 Y-22.250 E1.42318
G1 X-16.412 Y-21.991 E1.42668
G1 X-16.750 Y-21.694 F7800.000
G1 F1800.000 E0.42668
G92 E0
G1 X-13.179 Y-17.171 F7800.000
G1 F1800.000 E1.00000
G1 X-13.179 Y-21.829 F540.000 E1.06154
G1 X-11.093 Y-21.829 E1.08910
G1 X-12.437 Y-19.500 E1.12463
G1 X-11.093 Y-17.171 E1.16016
G1 X-13.116 Y-17.171 E1.18688
G1 X-13.600 Y-17.070 F7800.000
G1 X-13.600 Y-21.930 F540.000 E1.25109
G1 X-13.537 Y-22.250 E1.25541
G1 X-10.363 Y-22.250 E1.29734
G1 X-11.951 Y-19.500 E1.33930
G1 X-10.363 Y-16.750 E1.38126
G1 X-13.537 Y-16.750 E1.42320
G1 X-13.588 Y-17.008 E1.42668
G1 X-13.250 Y-17.304 F7800.000
G1 F1800.000 E0.42668
G92 E0
G1 X-1.821 Y-17.171 F7800.000
G1 F1800.000 E1.00000
G1 X-3.907 Y-17.171 F540.000 E1.02756
G1 X-2.563 Y-19.500 E1.06309
G1 X-3.907 Y-21.829 E1.09862
G1 X-1.821 Y-21.829 E1.12618
G1 X-1.821 Y-17.235 E1.18689
G1 X-1.400 Y-17.071 F7800.000
