; generated by Slic3r 0.9.10b on 2013-11-30 at 20:41:08

; layer_height = 0.2
; perimeters = 2
; top_solid_layers = 3
; bottom_solid_layers = 3
; fill_density = 0.4
; perimeter_speed = 30
; infill_speed = 60
; travel_speed = 130
; nozzle_diameter = 0.5
; filament_diameter = 2.85
; extrusion_multiplier = 1
; perimeters extrusion width = 0.85mm
; infill extrusion width = 1.02mm
; solid infill extrusion width = 0.85mm
; top infill extrusion width = 0.85mm
; first layer extrusion width = 0.40mm

G21 ; set units to millimeters
M107
M104 S0
M83
M140 S70
G28
G1Y98F9000
M190 S70
G1X5Y98Z150F9000
M104 S210
G1X5Y98Z1F9000
G1Z0.05
M109 S210
G1Z5
G1X15
;G1E5F50
G90 ; use absolute coordinates
G92 E0
M82 ; use absolute distances for extrusion
G1 F1800.000 E-1.00000
G92 E0
G1 Z0.200 F7800.000
G1 X-7.134 Y-17.563
G1 F1800.000 E1.00000
G1 X9.526 Y-17.033 F540.000 E1.22024
G1 X10.296 Y-16.963 E1.23046
G1 X11.046 Y-16.803 E1.24059
G1 X16.256 Y-15.353 E1.31205
G1 X17.576 Y-14.823 E1.33084
G1 X18.736 Y-14.013 E1.34954
G1 X19.706 Y-12.973 E1.36833
G1 X20.416 Y-11.753 E1.38698
G1 X20.836 Y-10.403 E1.40566
G1 X20.936 Y-9.893 E1.41253
G1 X21.026 Y-9.273 E1.42081
G1 X21.056 Y-8.653 E1.42901
G1 X21.056 Y-3.733 E1.49402
G1 X21.016 Y9.067 E1.66315
G1 X20.986 Y9.677 E1.67122
G1 X20.896 Y10.287 E1.67936
G1 X20.796 Y10.797 E1.68623
G1 X20.376 Y12.147 E1.70491
G1 X19.666 Y13.367 E1.72356
G1 X18.696 Y14.407 E1.74235
G1 X17.536 Y15.217 E1.76105
G1 X16.216 Y15.747 E1.77984
G1 X11.006 Y17.197 E1.85130
G1 X10.176 Y17.367 E1.86249
G1 X9.336 Y17.427 E1.87362
G1 X-7.284 Y17.557 E2.09323
G1 X-9.334 Y17.557 E2.12032
G1 X-10.204 Y17.497 E2.13184
G1 X-11.054 Y17.327 E2.14329
G1 X-16.264 Y15.877 E2.21475
G1 X-17.584 Y15.347 E2.23355
G1 X-18.744 Y14.537 E2.25224
G1 X-19.714 Y13.497 E2.27103
G1 X-20.424 Y12.277 E2.28968
G1 X-20.844 Y10.927 E2.30836
G1 X-20.944 Y10.417 E2.31523
G1 X-21.034 Y9.797 E2.32351
G1 X-21.064 Y9.177 E2.33171
G1 X-21.064 Y-9.193 E2.57444
G1 X-21.034 Y-9.813 E2.58264
G1 X-20.944 Y-10.433 E2.59092
G1 X-20.844 Y-10.943 E2.59778
G1 X-20.424 Y-12.293 E2.61646
G1 X-19.704 Y-13.523 E2.63530
G1 X-18.744 Y-14.563 E2.65400
G1 X-17.574 Y-15.363 E2.67272
G1 X-16.254 Y-15.893 E2.69152
G1 X-11.044 Y-17.333 E2.76294
G1 X-10.194 Y-17.503 E2.77439
G1 X-9.334 Y-17.563 E2.78579
G1 X-7.198 Y-17.563 E2.81402
G1 F1800.000 E1.81402
G92 E0
G1 X-11.926 Y-9.062 F7800.000
G1 F1800.000 E1.00000
G1 X-13.271 Y-6.733 F540.000 E1.03553
G1 X-11.926 Y-4.405 E1.07106
G1 X-14.012 Y-4.405 E1.09862
G1 X-14.012 Y-9.062 E1.16016
G1 X-11.989 Y-9.062 E1.18689
G1 X-11.196 Y-9.483 F7800.000
G1 X-12.784 Y-6.733 F540.000 E1.22885
G1 X-11.196 Y-3.983 E1.27081
G1 X-14.370 Y-3.983 E1.31274
G1 X-14.434 Y-4.304 E1.31706
G1 X-14.434 Y-9.163 E1.38127
G1 X-14.370 Y-9.483 E1.38558
G1 X-11.259 Y-9.483 E1.42668
G1 X-11.519 Y-9.213 F7800.000
G1 F1800.000 E0.42668
G92 E0
G1 X-2.654 Y-9.062 F7800.000
G1 F1800.000 E1.00000
G1 X-2.654 Y-4.405 F540.000 E1.06154
G1 X-4.740 Y-4.405 E1.08910
G1 X-3.396 Y-6.733 E1.12463
G1 X-4.740 Y-9.062 E1.16016
G1 X-2.718 Y-9.062 E1.18689
G1 X-2.233 Y-9.162 F7800.000
G1 X-2.233 Y-4.305 F540.000 E1.25106
G1 X-2.297 Y-3.983 E1.25540
G1 X-5.470 Y-3.983 E1.29733
G1 X-3.883 Y-6.733 E1.33929
G1 X-5.470 Y-9.483 E1.38125
G1 X-2.297 Y-9.483 E1.42318
G1 X-2.245 Y-9.224 E1.42668
G1 X-2.583 Y-8.928 F7800.000
G1 F1800.000 E0.42668
G92 E0
G1 X-8.111 Y-2.676 F7800.000
G1 F1800.000 E1.00000
G1 X-7.693 Y-2.676 F540.000 E1.00552
G1 X-7.582 Y-2.763 E1.00739
G1 X-7.693 Y-2.676 F7800.000
G1 X-7.582 Y-2.588 F540.000 E1.00926
G1 X-8.111 Y-2.676 F7800.000
G1 X-8.556 Y-2.676 F540.000 E1.01513
G1 X-8.556 Y-2.676 F7800.000
G1 X-9.000 Y-2.710 F540.000 E1.02102
G1 X-9.000 Y-2.710 F7800.000
G1 X-9.084 Y-2.763 F540.000 E1.02234
G1 X-8.973 Y-2.676 F7800.000
G1 X-9.000 Y-2.642 F540.000 E1.02291
G1 X-9.000 Y-2.642 F7800.000
G1 X-9.084 Y-2.588 F540.000 E1.02423
G1 F1800.000 E0.02423
G92 E0
G1 X-9.084 Y-10.703 F7800.000
G1 F1800.000 E1.00000
G1 X-8.973 Y-10.791 F540.000 E1.00187
G1 X-9.084 Y-10.878 E1.00374
G1 X-8.973 Y-10.791 F7800.000
G1 X-8.778 Y-10.791 F540.000 E1.00632
G1 X-8.778 Y-10.791 F7800.000
G1 X-8.556 Y-10.791 F540.000 E1.00926
G1 X-8.556 Y-10.791 F7800.000
G1 X-7.693 Y-10.791 F540.000 E1.02065
G1 X-7.582 Y-10.878 E1.02252
G1 X-7.693 Y-10.791 F7800.000
G1 X-7.667 Y-10.757 F540.000 E1.02309
G1 X-7.667 Y-10.757 F7800.000
G1 X-7.582 Y-10.703 F540.000 E1.02441
G1 F1800.000 E0.02441
G92 E0
G1 X-13.707 Y-6.161 F7800.000
G1 F1800.000 E1.00000
G1 X-12.727 Y-5.181 F1080.000 E1.01850
G1 X-12.859 Y-4.710 E1.02502
G1 X-13.707 Y-5.558 E1.04104
G1 X-13.707 Y-4.956 E1.04908
G1 X-13.461 Y-4.710 E1.05372
G1 X-13.621 Y-6.436 F7800.000
G1 X-13.722 Y-6.537 F360.000 E1.05477
G1 X-13.599 Y-6.746 E1.05654
G1 X-13.722 Y-6.868 E1.05782
G1 X-13.528 Y-7.006 E1.05956
G1 X-13.478 Y-6.956 E1.06008
G1 X-13.423 Y-7.081 F7800.000
G1 X-13.707 Y-7.365 F1080.000 E1.06539
G1 X-13.202 Y-7.463 F7800.000
G1 X-13.707 Y-7.967 F1080.000 E1.07481
G1 X-13.707 Y-8.570 F7800.000
G1 X-12.982 Y-7.845 F1080.000 E1.08836
G1 X-12.761 Y-8.226 F7800.000
G1 X-13.292 Y-8.757 F1080.000 E1.09827
G1 X-12.689 Y-8.757 F7800.000
G1 X-12.541 Y-8.608 F1080.000 E1.10104
G1 F1800.000 E0.10104
G92 E0
G1 X-4.070 Y-4.955 F7800.000
G1 F1800.000 E1.00000
G1 X-3.825 Y-4.710 F1080.000 E1.00458
G1 X-3.223 Y-4.710 F7800.000
G1 X-3.849 Y-5.337 F1080.000 E1.01629
G1 X-3.629 Y-5.719 F7800.000
G1 X-2.960 Y-5.050 F1080.000 E1.02880
G1 X-2.960 Y-5.652 F7800.000
G1 X-3.409 Y-6.101 F1080.000 E1.03718
G1 X-3.188 Y-6.482 F7800.000
G1 X-2.960 Y-6.254 F1080.000 E1.04145
G1 X-3.013 Y-6.427 F7800.000
G1 X-3.155 Y-6.570 F360.000 E1.04292
G1 X-2.945 Y-6.691 F7800.000
G1 X-3.160 Y-6.906 F360.000 E1.04514
G1 X-3.003 Y-6.899 F7800.000
G1 X-3.325 Y-7.222 F1080.000 E1.05117
G1 X-2.960 Y-7.459 F7800.000
G1 X-4.148 Y-8.647 F1080.000 E1.07337
G1 X-3.656 Y-8.757 F7800.000
G1 X-2.960 Y-8.061 F1080.000 E1.08637
G1 X-2.960 Y-8.663 F7800.000
G1 X-3.053 Y-8.757 F1080.000 E1.08811
G1 X-2.973 Y-7.050 F7800.000
G1 X-2.945 Y-7.022 F360.000 E1.08840
G1 F1800.000 E0.08840
G92 E0
G1 X-14.012 Y9.062 F7800.000
G1 F1800.000 E1.00000
G1 X-14.012 Y4.405 F540.000 E1.06154
G1 X-11.926 Y4.405 E1.08910
G1 X-13.271 Y6.733 E1.12463
G1 X-11.926 Y9.062 E1.16016
G1 X-13.949 Y9.062 E1.18689
G1 X-13.988 Y9.483 F7800.000
G1 X-14.370 Y9.483 F540.000 E1.19193
G1 X-14.434 Y9.163 E1.19625
G1 X-14.434 Y4.304 E1.26045
G1 X-14.370 Y3.983 E1.26477
G1 X-11.196 Y3.983 E1.30671
G1 X-12.784 Y6.733 E1.34867
G1 X-11.196 Y9.483 E1.39063
G1 X-13.925 Y9.483 E1.42668
G1 X-14.179 Y9.153 F7800.000
G1 F1800.000 E0.42668
G92 E0
G1 X-4.740 Y9.062 F7800.000
G1 F1800.000 E1.00000
G1 X-3.396 Y6.733 F540.000 E1.03553
G1 X-4.740 Y4.405 E1.07106
G1 X-2.654 Y4.405 E1.09862
G1 X-2.654 Y9.062 E1.16016
G1 X-4.677 Y9.062 E1.18689
G1 X-5.470 Y9.483 F7800.000
G1 X-3.883 Y6.733 F540.000 E1.22885
G1 X-5.470 Y3.983 E1.27081
G1 X-2.297 Y3.983 E1.31274
G1 X-2.233 Y4.305 E1.31707
G1 X-2.233 Y9.162 E1.38125
G1 X-2.297 Y9.483 E1.38558
G1 X-5.407 Y9.483 E1.42668
G1 X-5.148 Y9.213 F7800.000
G1 F1800.000 E0.42668
G92 E0
G1 X-8.111 Y10.791 F7800.000
G1 F1800.000 E1.00000
G1 X-7.693 Y10.791 F540.000 E1.00552
G1 X-7.582 Y10.703 E1.00739
G1 X-7.693 Y10.791 F7800.000
G1 X-7.582 Y10.878 F540.000 E1.00926
G1 X-8.111 Y10.791 F7800.000
G1 X-8.556 Y10.791 F540.000 E1.01513
G1 X-8.556 Y10.791 F7800.000
G1 X-9.000 Y10.757 F540.000 E1.02102
G1 X-9.000 Y10.757 F7800.000
G1 X-9.084 Y10.703 F540.000 E1.02234
G1 X-8.973 Y10.791 F7800.000
G1 X-9.000 Y10.825 F540.000 E1.02291
G1 X-9.000 Y10.825 F7800.000
G1 X-9.084 Y10.878 F540.000 E1.02423
G1 F1800.000 E0.02423
G92 E0
G1 X-9.084 Y2.763 F7800.000
G1 F1800.000 E1.00000
G1 X-8.973 Y2.676 F540.000 E1.00187
G1 X-9.084 Y2.588 E1.00374
G1 X-8.973 Y2.676 F7800.000
G1 X-8.778 Y2.676 F540.000 E1.00632
G1 X-8.778 Y2.676 F7800.000
G1 X-8.556 Y2.676 F540.000 E1.00926
G1 X-8.556 Y2.676 F7800.000
G1 X-7.693 Y2.676 F540.000 E1.02065
G1 X-7.582 Y2.588 E1.02252
G1 X-7.693 Y2.676 F7800.000
G1 X-7.667 Y2.710 F540.000 E1.02309
G1 X-7.667 Y2.710 F7800.000
G1 X-7.582 Y2.763 F540.000 E1.02441
G1 F1800.000 E0.02441
G92 E0
G1 X-13.707 Y7.306 F7800.000
G1 F1800.000 E1.00000
G1 X-12.727 Y8.286 F1080.000 E1.01850
G1 X-12.859 Y8.757 E1.02502
G1 X-13.707 Y7.908 E1.04104
G1 X-13.707 Y8.511 E1.04908
G1 X-13.461 Y8.757 E1.05372
G1 X-13.621 Y7.030 F7800.000
G1 X-13.722 Y6.930 F360.000 E1.05477
G1 X-13.599 Y6.721 E1.05654
G1 X-13.722 Y6.599 E1.05782
G1 X-13.528 Y6.461 E1.05956
G1 X-13.478 Y6.511 E1.06008
G1 X-13.423 Y6.386 F7800.000
G1 X-13.707 Y6.102 F1080.000 E1.06539
G1 X-13.202 Y6.004 F7800.000
G1 X-13.707 Y5.499 F1080.000 E1.07481
G1 X-13.707 Y4.897 F7800.000
G1 X-12.982 Y5.622 F1080.000 E1.08836
G1 X-12.761 Y5.240 F7800.000
G1 X-13.292 Y4.710 F1080.000 E1.09827
G1 X-12.689 Y4.710 F7800.000
G1 X-12.541 Y4.858 F1080.000 E1.10104
G1 F1800.000 E0.10104
G92 E0
G1 X-4.070 Y8.511 F7800.000
G1 F1800.000 E1.00000
G1 X-3.825 Y8.757 F1080.000 E1.00458
G1 X-3.223 Y8.757 F7800.000
G1 X-3.849 Y8.130 F1080.000 E1.01629
G1 X-3.629 Y7.748 F7800.000
G1 X-2.960 Y8.417 F1080.000 E1.02880
G1 X-2.960 Y7.815 F7800.000
G1 X-3.409 Y7.366 F1080.000 E1.03718
G1 X-3.188 Y6.984 F7800.000
G1 X-2.960 Y7.212 F1080.000 E1.04145
G1 X-3.013 Y7.039 F7800.000
G1 X-3.155 Y6.897 F360.000 E1.04292
G1 X-2.945 Y6.776 F7800.000
G1 X-3.160 Y6.560 F360.000 E1.04514
G1 X-3.003 Y6.567 F7800.000
G1 X-3.325 Y6.245 F1080.000 E1.05117
G1 X-2.960 Y6.008 F7800.000
G1 X-4.148 Y4.820 F1080.000 E1.07337
G1 X-3.656 Y4.710 F7800.000
G1 X-2.960 Y5.406 F1080.000 E1.08637
G1 X-2.960 Y4.803 F7800.000
G1 X-3.053 Y4.710 F1080.000 E1.08811
G1 X-2.973 Y6.417 F7800.000
G1 X-2.945 Y6.444 F360.000 E1.08840
G1 F1800.000 E0.08840
G92 E0
G1 X2.610 Y4.271 F7800.000
G1 F1800.000 E1.00000
G1 X4.696 Y4.271 F540.000 E1.02756
G1 X3.351 Y6.600 E1.06309
G1 X4.696 Y8.929 E1.09862
G1 X2.610 Y8.929 E1.12618
G1 X2.610 Y4.335 E1.18689
G1 X2.188 Y4.170 F7800.000
G1 X2.252 Y3.850 F540.000 E1.19120
G1 X5.426 Y3.850 E1.23314
G1 X3.838 Y6.600 E1.27510
G1 X5.426 Y9.350 E1.31706
G1 X2.252 Y9.350 E1.35899
G1 X2.188 Y9.030 E1.36331
G1 X2.188 Y4.234 E1.42668
G1 X2.490 Y4.045 F7800.000
G1 F1800.000 E0.42668
G92 E0
G1 X13.968 Y8.929 F7800.000
G1 F1800.000 E1.00000
G1 X11.882 Y8.929 F540.000 E1.02756
G1 X13.226 Y6.600 E1.06309
G1 X11.882 Y4.271 E1.09862
G1 X13.968 Y4.271 E1.12618
G1 X13.968 Y8.865 E1.18689
G1 X14.389 Y9.029 F7800.000
G1 X14.325 Y9.350 F540.000 E1.19122
G1 X11.152 Y9.350 E1.23315
G1 X12.740 Y6.600 E1.27511
G1 X11.152 Y3.850 E1.31707
G1 X14.325 Y3.850 E1.35900
G1 X14.389 Y4.171 E1.36334
G1 X14.389 Y8.965 E1.42668
G1 X14.086 Y9.154 F7800.000
G1 F1800.000 E0.42668
G92 E0
G1 X8.511 Y10.657 F7800.000
G1 F1800.000 E1.00000
G1 X8.929 Y10.657 F540.000 E1.00552
G1 X9.040 Y10.570 E1.00739
G1 X8.929 Y10.657 F7800.000
G1 X9.040 Y10.745 F540.000 E1.00926
G1 X8.511 Y10.657 F7800.000
G1 X8.067 Y10.657 F540.000 E1.01513
G1 X8.067 Y10.657 F7800.000
G1 X7.622 Y10.623 F540.000 E1.02102
G1 X7.622 Y10.623 F7800.000
G1 X7.538 Y10.570 F540.000 E1.02234
G1 X7.649 Y10.657 F7800.000
G1 X7.622 Y10.691 F540.000 E1.02291
G1 X7.622 Y10.691 F7800.000
G1 X7.538 Y10.745 F540.000 E1.02423
G1 F1800.000 E0.02423
G92 E0
G1 X7.538 Y2.630 F7800.000
G1 F1800.000 E1.00000
G1 X7.649 Y2.543 F540.000 E1.00187
G1 X7.538 Y2.455 E1.00374
G1 X7.649 Y2.543 F7800.000
G1 X7.844 Y2.543 F540.000 E1.00632
G1 X7.844 Y2.543 F7800.000
G1 X8.067 Y2.543 F540.000 E1.00926
G1 X8.067 Y2.543 F7800.000
G1 X8.929 Y2.543 F540.000 E1.02065
G1 X9.040 Y2.455 E1.02252
G1 X8.929 Y2.543 F7800.000
G1 X8.956 Y2.577 F540.000 E1.02309
G1 X8.956 Y2.577 F7800.000
G1 X9.040 Y2.630 F540.000 E1.02441
G1 F1800.000 E0.02441
G92 E0
G1 X2.915 Y7.173 F7800.000
G1 F1800.000 E1.00000
G1 X3.895 Y8.153 F1080.000 E1.01850
G1 X3.764 Y8.623 E1.02502
G1 X2.915 Y7.775 E1.04104
G1 X2.915 Y8.377 E1.04908
G1 X3.161 Y8.623 E1.05372
G1 X3.001 Y6.897 F7800.000
G1 X2.901 Y6.797 F360.000 E1.05477
G1 X3.023 Y6.588 E1.05654
G1 X2.901 Y6.465 E1.05782
G1 X3.094 Y6.328 E1.05956
G1 X3.144 Y6.378 E1.06008
G1 X3.199 Y6.252 F7800.000
G1 X2.915 Y5.968 F1080.000 E1.06539
G1 X3.420 Y5.871 F7800.000
G1 X2.915 Y5.366 F1080.000 E1.07481
G1 X2.915 Y4.764 F7800.000
G1 X3.640 Y5.489 F1080.000 E1.08836
G1 X3.861 Y5.107 F7800.000
G1 X3.331 Y4.577 F1080.000 E1.09827
G1 X3.933 Y4.577 F7800.000
G1 X4.081 Y4.725 F1080.000 E1.10104
G1 F1800.000 E0.10104
G92 E0
G1 X12.552 Y8.378 F7800.000
G1 F1800.000 E1.00000
G1 X12.797 Y8.623 F1080.000 E1.00458
G1 X13.400 Y8.623 F7800.000
G1 X12.773 Y7.996 F1080.000 E1.01629
G1 X12.993 Y7.615 F7800.000
G1 X13.662 Y8.284 F1080.000 E1.02880
G1 X13.662 Y7.681 F7800.000
G1 X13.214 Y7.233 F1080.000 E1.03718
G1 X13.434 Y6.851 F7800.000
G1 X13.662 Y7.079 F1080.000 E1.04145
G1 X13.610 Y6.906 F7800.000
G1 X13.467 Y6.764 F360.000 E1.04292
G1 X13.677 Y6.642 F7800.000
G1 X13.462 Y6.427 F360.000 E1.04514
G1 X13.619 Y6.434 F7800.000
G1 X13.297 Y6.111 F1080.000 E1.05117
G1 X13.662 Y5.875 F7800.000
G1 X12.474 Y4.686 F1080.000 E1.07337
G1 X12.967 Y4.577 F7800.000
G1 X13.662 Y5.272 F1080.000 E1.08637
G1 X13.662 Y4.670 F7800.000
G1 X13.569 Y4.577 F1080.000 E1.08811
G1 X13.649 Y6.283 F7800.000
G1 X13.677 Y6.311 F360.000 E1.08840
G1 F1800.000 E0.08840
G92 E0
G1 X2.654 Y-3.871 F7800.000
G1 F1800.000 E1.00000
G1 X2.654 Y-8.529 F540.000 E1.06154
G1 X4.740 Y-8.529 E1.08910
G1 X3.396 Y-6.200 E1.12463
G1 X4.740 Y-3.871 E1.16016
G1 X2.718 Y-3.871 E1.18689
G1 X2.678 Y-3.450 F7800.000
G1 X2.297 Y-3.450 F540.000 E1.19193
G1 X2.233 Y-3.770 E1.19625
G1 X2.233 Y-8.630 E1.26045
G1 X2.297 Y-8.950 E1.26477
G1 X5.470 Y-8.950 E1.30671
G1 X3.883 Y-6.200 E1.34867
G1 X5.470 Y-3.450 E1.39063
G1 X2.741 Y-3.450 E1.42668
G1 X2.487 Y-3.780 F7800.000
G1 F1800.000 E0.42668
G92 E0
G1 X11.926 Y-8.529 F7800.000
G1 F1800.000 E1.00000
G1 X14.012 Y-8.529 F540.000 E1.02756
G1 X14.012 Y-3.871 E1.08910
G1 X11.926 Y-3.871 E1.11666
G1 X13.271 Y-6.200 E1.15219
G1 X11.958 Y-8.474 E1.18689
G1 X11.196 Y-8.950 F7800.000
G1 X14.370 Y-8.950 F540.000 E1.22882
G1 X14.434 Y-8.629 E1.23315
G1 X14.434 Y-3.771 E1.29733
G1 X14.370 Y-3.450 E1.30166
G1 X11.196 Y-3.450 E1.34359
G1 X12.784 Y-6.200 E1.38555
G1 X11.228 Y-8.895 E1.42668
G1 X11.592 Y-8.806 F7800.000
G1 F1800.000 E0.42668
G92 E0
G1 X8.556 Y-2.143 F7800.000
G1 F1800.000 E1.00000
G1 X8.973 Y-2.143 F540.000 E1.00552
G1 X9.084 Y-2.230 E1.00739
G1 X8.973 Y-2.143 F7800.000
G1 X9.084 Y-2.055 F540.000 E1.00926
G1 X8.556 Y-2.143 F7800.000
G1 X8.111 Y-2.143 F540.000 E1.01513
G1 X8.111 Y-2.143 F7800.000
G1 X7.667 Y-2.177 F540.000 E1.02102
G1 X7.667 Y-2.177 F7800.000
G1 X7.582 Y-2.230 F540.000 E1.02234
G1 X7.693 Y-2.143 F7800.000
G1 X7.667 Y-2.109 F540.000 E1.02291
G1 X7.667 Y-2.109 F7800.000
G1 X7.582 Y-2.055 F540.000 E1.02423
G1 F1800.000 E0.02423
G92 E0
G1 X7.582 Y-10.170 F7800.000
G1 F1800.000 E1.00000
G1 X7.693 Y-10.257 F540.000 E1.00187
G1 X7.582 Y-10.345 E1.00374
G1 X7.693 Y-10.257 F7800.000
G1 X7.889 Y-10.257 F540.000 E1.00632
G1 X7.889 Y-10.257 F7800.000
G1 X8.111 Y-10.257 F540.000 E1.00926
G1 X8.111 Y-10.257 F7800.000
G1 X8.973 Y-10.257 F540.000 E1.02065
G1 X9.084 Y-10.345 E1.02252
G1 X8.973 Y-10.257 F7800.000
G1 X9.000 Y-10.223 F540.000 E1.02309
G1 X9.000 Y-10.223 F7800.000
G1 X9.084 Y-10.170 F540.000 E1.02441
G1 F1800.000 E0.02441
G92 E0
G1 X2.960 Y-5.627 F7800.000
G1 F1800.000 E1.00000
G1 X3.940 Y-4.647 F1080.000 E1.01850
G1 X3.808 Y-4.177 E1.02502
G1 X2.960 Y-5.025 E1.04104
G1 X2.960 Y-4.423 E1.04908
G1 X3.206 Y-4.177 E1.05372
G1 X3.046 Y-5.903 F7800.000
G1 X2.945 Y-6.003 F360.000 E1.05477
G1 X3.067 Y-6.212 E1.05654
G1 X2.945 Y-6.335 E1.05782
G1 X3.139 Y-6.472 E1.05956
G1 X3.189 Y-6.422 E1.06008
G1 X3.244 Y-6.548 F7800.000
G1 X2.960 Y-6.832 F1080.000 E1.06539
G1 X3.464 Y-6.929 F7800.000
G1 X2.960 Y-7.434 F1080.000 E1.07481
G1 X2.960 Y-8.036 F7800.000
G1 X3.685 Y-7.311 F1080.000 E1.08836
G1 X3.905 Y-7.693 F7800.000
G1 X3.375 Y-8.223 F1080.000 E1.09827
G1 X3.977 Y-8.223 F7800.000
G1 X4.126 Y-8.075 F1080.000 E1.10104
G1 F1800.000 E0.10104
G92 E0
G1 X12.597 Y-4.422 F7800.000
G1 F1800.000 E1.00000
G1 X12.842 Y-4.177 F1080.000 E1.00458
G1 X13.444 Y-4.177 F7800.000
G1 X12.817 Y-4.804 F1080.000 E1.01629
