; generated by Slic3r 0.9.10b on 2013-11-30 at 20:23:11

; layer_height = 0.2
; perimeters = 2
; top_solid_layers = 3
; bottom_solid_layers = 3
; fill_density = 0.4
; perimeter_speed = 30
; infill_speed = 60
; travel_speed = 130
; nozzle_diameter = 0.5
; filament_diameter = 2.85
; extrusion_multiplier = 1
; perimeters extrusion width = 0.85mm
; infill extrusion width = 1.02mm
; solid infill extrusion width = 0.85mm
; top infill extrusion width = 0.85mm
; first layer extrusion width = 0.40mm

G21 ; set units to millimeters
M107
M104 S0
M83
M140 S70
G28
G1Y98F9000
M190 S70
G1X5Y98Z150F9000
M104 S210
G1X5Y98Z1F9000
G1Z0.05
M109 S210
G1Z5
G1X15
;G1E5F50
G90 ; use absolute coordinates
G92 E0
M82 ; use absolute distances for extrusion
G1 F1800.000 E-1.00000
G92 E0
G1 Z0.200 F7800.000
G1 X1.992 Y10.920
G1 F1800.000 E1.00000
G1 X-2.008 Y10.920 F540.000 E1.05285
G1 X-2.928 Y10.860 E1.06503
G1 X-3.828 Y10.660 E1.07722
G1 X-9.048 Y9.120 E1.14913
G1 X-10.408 Y8.540 E1.16866
G1 X-11.608 Y7.650 E1.18840
G1 X-12.588 Y6.490 E1.20847
G1 X-13.188 Y5.380 E1.22514
G1 X-13.548 Y4.160 E1.24195
G1 X-13.838 Y2.680 E1.26188
G1 X-13.928 Y2.070 E1.27002
G1 X-13.958 Y1.450 E1.27823
G1 X-13.958 Y-1.460 E1.31668
G1 X-13.928 Y-2.080 E1.32488
G1 X-13.838 Y-2.690 E1.33302
G1 X-13.548 Y-4.170 E1.35295
G1 X-13.188 Y-5.390 E1.36976
G1 X-12.588 Y-6.500 E1.38643
G1 X-11.608 Y-7.660 E1.40650
G1 X-10.408 Y-8.550 E1.42624
G1 X-9.048 Y-9.130 E1.44577
G1 X-3.828 Y-10.670 E1.51768
G1 X-2.928 Y-10.870 E1.52987
G1 X-2.008 Y-10.930 E1.54205
G1 X1.992 Y-10.930 E1.59490
G1 X2.912 Y-10.870 E1.60708
G1 X3.802 Y-10.670 E1.61914
G1 X9.032 Y-9.130 E1.69117
G1 X10.402 Y-8.550 E1.71083
G1 X11.602 Y-7.670 E1.73049
G1 X12.582 Y-6.500 E1.75066
G1 X13.182 Y-5.390 E1.76733
G1 X13.542 Y-4.170 E1.78414
G1 X13.832 Y-2.690 E1.80407
G1 X13.922 Y-2.080 E1.81221
G1 X13.952 Y-1.460 E1.82042
G1 X13.952 Y1.450 E1.85887
G1 X13.922 Y2.070 E1.86707
G1 X13.832 Y2.680 E1.87522
G1 X13.542 Y4.160 E1.89514
G1 X13.182 Y5.380 E1.91195
G1 X12.582 Y6.490 E1.92862
G1 X11.602 Y7.660 E1.94879
G1 X10.402 Y8.540 E1.96845
G1 X9.032 Y9.120 E1.98811
G1 X3.802 Y10.660 E2.06015
G1 X2.912 Y10.860 E2.07220
G1 X2.055 Y10.916 E2.08355
G1 F1800.000 E1.08355
G92 E0
G1 X6.719 Y2.329 F7800.000
G1 F1800.000 E1.00000
G1 X3.693 Y2.329 F540.000 E1.03999
G1 X5.037 Y-0.000 E1.07551
G1 X3.693 Y-2.329 E1.11104
G1 X6.719 Y-2.329 E1.15103
G1 X6.906 Y-1.389 E1.16369
G1 X6.906 Y1.389 E1.20039
G1 X6.731 Y2.267 E1.21222
G1 X7.065 Y2.750 F7800.000
G1 X2.963 Y2.750 F540.000 E1.26642
G1 X4.551 Y-0.000 E1.30838
G1 X2.963 Y-2.750 E1.35034
G1 X7.065 Y-2.750 E1.40454
G1 X7.327 Y-1.430 E1.42232
G1 X7.327 Y1.430 E1.46012
G1 X7.077 Y2.688 E1.47706
G1 X6.715 Y2.516 F7800.000
G1 F1800.000 E0.47706
G92 E0
G1 X-3.693 Y2.329 F7800.000
G1 F1800.000 E1.00000
G1 X-6.719 Y2.329 F540.000 E1.03998
G1 X-6.906 Y1.388 E1.05265
G1 X-6.906 Y-1.388 E1.08934
G1 X-6.719 Y-2.329 E1.10201
G1 X-3.693 Y-2.329 E1.14199
G1 X-5.037 Y-0.000 E1.17752
G1 X-3.725 Y2.274 E1.21222
G1 X-2.963 Y2.750 F7800.000
G1 X-7.065 Y2.750 F540.000 E1.26642
G1 X-7.327 Y1.430 E1.28421
G1 X-7.327 Y-1.430 E1.32199
G1 X-7.065 Y-2.750 E1.33977
G1 X-2.963 Y-2.750 E1.39398
G1 X-4.551 Y-0.000 E1.43594
G1 X-2.995 Y2.695 E1.47706
G1 X-3.359 Y2.606 F7800.000
G1 F1800.000 E0.47706
G92 E0
G1 X-0.842 Y4.157 F7800.000
G1 F1800.000 E1.00000
G1 X1.644 Y4.157 F540.000 E1.03285
G1 X1.749 Y4.070 E1.03466
G1 X1.644 Y4.157 F7800.000
G1 X1.684 Y4.206 F540.000 E1.03549
G1 X1.684 Y4.206 F7800.000
G1 X1.749 Y4.245 F540.000 E1.03649
G1 X-0.842 Y4.157 F7800.000
G1 X-1.263 Y4.157 F540.000 E1.04206
G1 X-1.263 Y4.157 F7800.000
G1 X-1.684 Y4.109 F540.000 E1.04766
G1 X-1.684 Y4.109 F7800.000
G1 X-1.749 Y4.070 F540.000 E1.04866
G1 X-1.644 Y4.157 F7800.000
G1 X-1.749 Y4.245 F540.000 E1.05047
G1 F1800.000 E0.05047
G92 E0
G1 X-1.749 Y-4.070 F7800.000
G1 F1800.000 E1.00000
G1 X-1.644 Y-4.157 F540.000 E1.00181
G1 X-1.749 Y-4.245 E1.00362
G1 X-1.644 Y-4.157 F7800.000
G1 X-1.474 Y-4.157 F540.000 E1.00587
G1 X-1.474 Y-4.157 F7800.000
G1 X1.644 Y-4.157 F540.000 E1.04706
G1 X1.749 Y-4.245 E1.04887
G1 X1.644 Y-4.157 F7800.000
G1 X1.684 Y-4.109 F540.000 E1.04970
G1 X1.684 Y-4.109 F7800.000
G1 X1.749 Y-4.070 F540.000 E1.05071
G1 F1800.000 E0.05071
G92 E0
G1 X6.361 Y-2.023 F7800.000
G1 F1800.000 E1.00000
G1 X6.495 Y-1.889 F1080.000 E1.00252
G1 X6.600 Y-1.184 E1.01200
G1 X5.761 Y-2.023 E1.02778
G1 X5.161 Y-2.023 E1.03576
G1 X6.600 Y-0.584 E1.06282
G1 X6.600 Y0.016 E1.07080
G1 X4.561 Y-2.023 E1.10915
G1 X4.578 Y-1.407 E1.11735
G1 X6.600 Y0.616 E1.15539
G1 X6.600 Y1.215 E1.16336
G1 X5.388 Y0.003 E1.18616
G1 X5.169 Y0.384 E1.19200
G1 X6.525 Y1.740 E1.21751
G1 X6.208 Y2.023 E1.22316
G1 X4.949 Y0.764 E1.24684
G1 X4.729 Y1.144 E1.25268
G1 X5.608 Y2.023 E1.26921
G1 X5.008 Y2.023 E1.27719
G1 X4.510 Y1.525 E1.28657
G1 X4.290 Y1.905 E1.29241
G1 X4.409 Y2.023 E1.29463
G1 F1800.000 E0.29463
G92 E0
G1 X-4.539 Y1.475 F7800.000
G1 F1800.000 E1.00000
G1 X-6.600 Y-0.587 F1080.000 E1.03852
G1 X-6.600 Y-1.187 F7800.000
G1 X-5.358 Y0.055 F1080.000 E1.06173
G1 X-5.179 Y-0.366 F7800.000
G1 X-6.529 Y-1.716 F1080.000 E1.08696
G1 X-6.237 Y-2.023 F7800.000
G1 X-4.959 Y-0.746 F1080.000 E1.11083
G1 X-4.740 Y-1.126 F7800.000
G1 X-5.637 Y-2.023 F1080.000 E1.12760
G1 X-5.037 Y-2.023 F7800.000
G1 X-4.520 Y-1.507 F1080.000 E1.13725
G1 X-4.301 Y-1.887 F7800.000
G1 X-4.437 Y-2.023 F1080.000 E1.13980
G1 X-6.600 Y0.013 F7800.000
G1 X-4.590 Y2.023 F1080.000 E1.17737
G1 X-5.190 Y2.023 F7800.000
G1 X-6.600 Y0.613 F1080.000 E1.20372
G1 X-6.600 Y1.213 F7800.000
G1 X-5.790 Y2.023 F1080.000 E1.21887
G1 X-6.390 Y2.023 F7800.000
G1 X-6.488 Y1.925 F1080.000 E1.22070
M104 S200 ; set temperature
M140 S50 ; set bed temperature
G1 F1800.000 E0.22070
G92 E0
G1 Z0.400 F7800.000
G1 X6.200 Y-1.972
G1 F1800.000 E1.00000
G1 X6.327 Y-1.332 F600.000 E1.01652
G1 X6.327 Y1.332 E1.08391
G1 X6.200 Y1.972 E1.10043
G1 X4.567 Y1.972 E1.14176
G1 X5.705 Y-0.000 E1.19937
G1 X4.567 Y-1.972 E1.25699
G1 X6.079 Y-1.972 E1.29526
G1 X6.863 Y-2.779 F7800.000
G1 X7.134 Y-1.411 F600.000 E1.33054
G1 X7.134 Y1.411 E1.40195
G1 X6.863 Y2.779 E1.43724
G1 X3.169 Y2.779 E1.53071
G1 X4.773 Y-0.000 E1.61191
G1 X3.169 Y-2.779 E1.69310
G1 X6.742 Y-2.779 E1.78350
G1 X6.554 Y-2.033 F7800.000
G1 F1800.000 E0.78350
G92 E0
G1 X-4.567 Y1.972 F7800.000
G1 F1800.000 E1.00000
G1 X-6.200 Y1.972 F600.000 E1.04133
G1 X-6.327 Y1.331 E1.05785
G1 X-6.327 Y-1.331 E1.12523
G1 X-6.200 Y-1.972 E1.14175
G1 X-4.567 Y-1.972 E1.18308
G1 X-5.705 Y-0.000 E1.24070
G1 X-4.627 Y1.867 E1.29525
G1 X-3.169 Y2.779 F7800.000
G1 X-6.863 Y2.779 F600.000 E1.38871
G1 X-7.134 Y1.411 E1.42401
G1 X-7.134 Y-1.411 E1.49540
G1 X-6.863 Y-2.779 E1.53070
G1 X-3.169 Y-2.779 E1.62417
G1 X-4.773 Y-0.000 E1.70536
G1 X-3.229 Y2.674 E1.78350
G1 X-3.927 Y2.503 F7800.000
G1 F1800.000 E0.78350
G92 E0
G1 X1.000 Y4.157 F7800.000
G1 F1800.000 E1.00000
G1 X1.647 Y4.157 F600.000 E1.01637
G1 X1.000 Y4.157 F7800.000
G1 X-1.000 Y4.157 F600.000 E1.06697
G1 X-1.000 Y4.157 F7800.000
G1 X-1.400 Y4.157 F600.000 E1.07709
G1 X-1.400 Y4.157 F7800.000
G1 X-1.647 Y4.157 F600.000 E1.08334
G1 F1800.000 E0.08334
G92 E0
G1 X-1.647 Y-4.157 F7800.000
G1 F1800.000 E1.00000
G1 X-1.400 Y-4.157 F600.000 E1.00625
G1 X-1.400 Y-4.157 F7800.000
G1 X0.600 Y-4.157 F600.000 E1.05685
G1 X0.600 Y-4.157 F7800.000
G1 X1.647 Y-4.157 F600.000 E1.08334
G1 F1800.000 E0.08334
G92 E0
G1 Z0.600 F7800.000
G1 X-4.439 Y2.194
G1 F1800.000 E1.00000
G1 X-6.156 Y2.194 F600.000 E1.04345
G1 X-6.327 Y1.331 E1.06570
G1 X-6.327 Y-1.331 E1.13307
G1 X-6.156 Y-2.194 E1.15532
G1 X-4.439 Y-2.194 E1.19877
G1 X-5.705 Y-0.000 E1.26287
G1 X-4.499 Y2.089 E1.32390
G1 X-3.334 Y2.493 F7800.000
G1 X-3.041 Y3.001 F600.000 E1.33874
G1 X-6.712 Y3.001 E1.43162
G1 X-6.864 Y2.773 E1.43854
G1 X-7.134 Y1.411 E1.47370
G1 X-7.134 Y-1.411 E1.54508
G1 X-6.864 Y-2.773 E1.58024
G1 X-6.712 Y-3.001 E1.58716
G1 X-3.041 Y-3.001 E1.68004
G1 X-4.773 Y-0.000 E1.76772
G1 X-3.395 Y2.388 E1.83749
G1 X-3.627 Y3.001 F7800.000
G1 F1800.000 E0.83749
G92 E0
G1 X4.439 Y-2.194 F7800.000
G1 F1800.000 E1.00000
G1 X6.156 Y-2.194 F600.000 E1.04346
G1 X6.327 Y-1.332 E1.06569
G1 X6.327 Y1.332 E1.13309
G1 X6.156 Y2.194 E1.15532
G1 X4.439 Y2.194 E1.19878
G1 X5.705 Y-0.000 E1.26287
G1 X4.499 Y-2.089 E1.32390
G1 X3.301 Y-2.551 F7800.000
G1 X3.041 Y-3.001 F600.000 E1.33705
G1 X6.712 Y-3.001 E1.42993
G1 X6.864 Y-2.773 E1.43686
G1 X7.134 Y-1.411 E1.47200
G1 X7.134 Y1.411 E1.54341
G1 X6.864 Y2.773 E1.57855
G1 X6.712 Y3.001 E1.58548
G1 X3.041 Y3.001 E1.67836
G1 X4.773 Y-0.000 E1.76603
G1 X3.361 Y-2.446 E1.83750
G1 X3.560 Y-3.001 F7800.000
G1 F1800.000 E0.83750
G92 E0
G1 X1.000 Y4.157 F7800.000
G1 F1800.000 E1.00000
G1 X1.647 Y4.157 F600.000 E1.01637
G1 X1.000 Y4.157 F7800.000
G1 X-1.000 Y4.157 F600.000 E1.06697
G1 X-1.000 Y4.157 F7800.000
G1 X-1.400 Y4.157 F600.000 E1.07709
G1 X-1.400 Y4.157 F7800.000
G1 X-1.647 Y4.157 F600.000 E1.08334
G1 F1800.000 E0.08334
G92 E0
G1 X-1.647 Y-4.157 F7800.000
G1 F1800.000 E1.00000
G1 X-1.400 Y-4.157 F600.000 E1.00625
G1 X-1.400 Y-4.157 F7800.000
G1 X0.600 Y-4.157 F600.000 E1.05685
G1 X0.600 Y-4.157 F7800.000
G1 X1.647 Y-4.157 F600.000 E1.08334
G1 F1800.000 E0.08334
G92 E0
G1 Z0.800 F7800.000
G1 X6.112 Y-2.415
G1 F1800.000 E1.00000
G1 X6.327 Y-1.332 F600.000 E1.02796
G1 X6.327 Y1.332 E1.09535
G1 X6.112 Y2.415 E1.12331
G1 X4.311 Y2.415 E1.16889
G1 X5.705 Y-0.000 E1.23946
G1 X4.311 Y-2.415 E1.31003
G1 X5.991 Y-2.415 E1.35255
G1 X6.901 Y-2.586 F7800.000
G1 X7.134 Y-1.411 F600.000 E1.38285
G1 X7.134 Y1.411 E1.45426
G1 X6.864 Y2.773 E1.48940
G1 X6.563 Y3.223 E1.50307
G1 X2.913 Y3.223 E1.59544
G1 X4.773 Y-0.000 E1.68959
G1 X2.913 Y-3.223 E1.78375
G1 X6.563 Y-3.223 E1.87612
G1 X6.864 Y-2.773 E1.88979
G1 X6.878 Y-2.704 E1.89157
G1 X6.294 Y-2.054 F7800.000
G1 F1800.000 E0.89157
G92 E0
G1 X-4.311 Y2.415 F7800.000
G1 F1800.000 E1.00000
G1 X-6.112 Y2.415 F600.000 E1.04558
G1 X-6.327 Y1.331 E1.07355
G1 X-6.327 Y-1.331 E1.14092
G1 X-6.112 Y-2.415 E1.16889
G1 X-4.311 Y-2.415 E1.21446
G1 X-5.705 Y-0.000 E1.28504
G1 X-4.371 Y2.311 E1.35255
G1 X-3.463 Y2.269 F7800.000
G1 X-2.913 Y3.223 F600.000 E1.38039
G1 X-6.563 Y3.223 E1.47276
G1 X-6.864 Y2.773 E1.48643
G1 X-7.134 Y1.411 E1.52159
G1 X-7.134 Y-1.411 E1.59298
G1 X-6.864 Y-2.773 E1.62813
G1 X-6.563 Y-3.223 E1.64180
G1 X-2.913 Y-3.223 E1.73417
G1 X-4.773 Y-0.000 E1.82832
G1 X-3.524 Y2.165 E1.89157
G1 X-3.867 Y2.968 F7800.000
G1 F1800.000 E0.89157
G92 E0
G1 X1.000 Y4.157 F7800.000
G1 F1800.000 E1.00000
G1 X1.647 Y4.157 F600.000 E1.01637
G1 X1.000 Y4.157 F7800.000
G1 X-1.000 Y4.157 F600.000 E1.06697
G1 X-1.000 Y4.157 F7800.000
G1 X-1.400 Y4.157 F600.000 E1.07709
G1 X-1.400 Y4.157 F7800.000
G1 X-1.647 Y4.157 F600.000 E1.08334
G1 F1800.000 E0.08334
G92 E0
G1 X-1.647 Y-4.157 F7800.000
G1 F1800.000 E1.00000
G1 X-1.400 Y-4.157 F600.000 E1.00625
G1 X-1.400 Y-4.157 F7800.000
G1 X0.600 Y-4.157 F600.000 E1.05685
G1 X0.600 Y-4.157 F7800.000
G1 X1.647 Y-4.157 F600.000 E1.08334
M106 S255
G1 F1800.000 E0.08334
G92 E0
G1 Z1.000 F7800.000
G1 X4.183 Y-2.637
G1 F1800.000 E1.00000
G1 X6.068 Y-2.637 F600.000 E1.04771
G1 X6.327 Y-1.332 E1.08138
G1 X6.327 Y1.332 E1.14878
G1 X6.068 Y2.637 E1.18245
G1 X4.183 Y2.637 E1.23016
G1 X5.705 Y-0.000 E1.30721
G1 X4.243 Y-2.532 E1.38120
G1 X3.736 Y-3.444 F7800.000
G1 X6.415 Y-3.444 F600.000 E1.44899
G1 X6.864 Y-2.773 E1.46941
G1 X7.134 Y-1.411 E1.50456
G1 X7.134 Y1.411 E1.57597
G1 X6.864 Y2.773 E1.61111
G1 X6.415 Y3.444 E1.63153
G1 X2.785 Y3.444 E1.72339
G1 X4.773 Y-0.000 E1.82402
G1 X2.785 Y-3.444 E1.92465
G1 X3.615 Y-3.444 E1.94565
G1 X4.139 Y-2.745 F7800.000
G1 F1800.000 E0.94565
G92 E0
G1 X-6.068 Y2.637 F7800.000
G1 F1800.000 E1.00000
G1 X-6.327 Y1.331 F600.000 E1.03369
G1 X-6.327 Y-1.331 E1.10106
G1 X-6.068 Y-2.637 E1.13475
G1 X-4.183 Y-2.637 E1.18245
G1 X-5.705 Y-0.000 E1.25950
G1 X-4.183 Y2.637 E1.33655
G1 X-5.947 Y2.637 E1.38119
G1 X-6.864 Y2.773 F7800.000
G1 X-7.134 Y1.411 F600.000 E1.41635
G1 X-7.134 Y-1.411 E1.48774
G1 X-6.864 Y-2.773 E1.52289
G1 X-6.415 Y-3.444 E1.54332
G1 X-2.785 Y-3.444 E1.63517
G1 X-4.773 Y-0.000 E1.73580
G1 X-2.785 Y3.444 E1.83643
G1 X-6.415 Y3.444 E1.92828
G1 X-6.796 Y2.874 E1.94564
G1 X-6.332 Y2.167 F7800.000
G1 F1800.000 E0.94564
G92 E0
G1 X1.000 Y4.144 F7800.000
G1 F1800.000 E1.00000
G1 X1.680 Y4.119 F600.000 E1.01722
G1 X1.000 Y4.144 F7800.000
G1 X-0.200 Y4.145 F600.000 E1.04758
G1 X-0.200 Y4.145 F7800.000
G1 X-0.392 Y4.094 F600.000 E1.05259
G1 X-0.392 Y4.094 F7800.000
G1 X-1.602 Y4.102 F600.000 E1.08322
G1 F1800.000 E0.08322
G92 E0
G1 X-1.541 Y-4.102 F7800.000
G1 F1800.000 E1.00000
G1 X-1.688 Y-4.128 F600.000 E1.00378
G1 X-1.541 Y-4.102 F7800.000
G1 X-0.200 Y-4.166 F600.000 E1.03774
G1 X-0.200 Y-4.166 F7800.000
G1 X1.658 Y-4.170 F600.000 E1.08475
G1 F1800.000 E0.08475
G92 E0
G1 X-5.271 Y2.064 F7800.000
G1 F1800.000 E1.00000
G1 X-5.678 Y1.657 F600.000 E1.00677
G1 X-5.751 Y-1.068 F7800.000
G1 X-5.557 Y-1.404 F600.000 E1.01132
G1 X-5.700 Y-1.547 E1.01370
G1 X-5.363 Y-1.740 E1.01826
G1 X-5.612 Y-1.990 E1.02240
G1 F1800.000 E0.02240
G92 E0
G1 X5.754 Y-1.231 F7800.000
G1 F1800.000 E1.00000
G1 X5.524 Y-1.460 F600.000 E1.00381
G1 X5.634 Y-1.881 E1.00892
G1 X5.451 Y-2.064 E1.01194
G1 X5.336 Y2.064 F7800.000
G1 X5.234 Y1.962 F600.000 E1.01363
G1 X5.429 Y1.626 E1.01818
G1 X5.642 Y1.839 E1.02172
G1 X5.730 Y1.397 E1.02702
G1 X5.623 Y1.290 E1.02879
G1 F1800.000 E0.02879
G92 E0
G1 Z1.200 F7800.000
G1 X5.836 Y-2.859
G1 F1800.000 E1.00000
G1 X6.104 Y-2.458 F600.000 E1.01220
G1 X6.327 Y-1.332 E1.04126
G1 X6.327 Y1.332 E1.10865
G1 X6.104 Y2.458 E1.13772
G1 X5.836 Y2.859 E1.14991
G1 X4.055 Y2.859 E1.19497
G1 X5.705 Y-0.000 E1.27850
G1 X4.055 Y-2.859 E1.36203
G1 X5.714 Y-2.859 E1.40403
G1 X6.267 Y-3.666 F7800.000
G1 X6.864 Y-2.773 F600.000 E1.43121
G1 X7.134 Y-1.411 E1.46635
G1 X7.134 Y1.411 E1.53776
G1 X6.864 Y2.773 E1.57290
G1 X6.267 Y3.666 E1.60008
G1 X2.657 Y3.666 E1.69142
G1 X4.773 Y-0.000 E1.79853
G1 X2.657 Y-3.666 E1.90564
G1 X6.145 Y-3.666 E1.99391
G1 X6.162 Y-2.866 F7800.000
G1 F1800.000 E0.99391
G92 E0
G1 X-4.055 Y2.859 F7800.000
G1 F1800.000 E1.00000
G1 X-5.835 Y2.859 F600.000 E1.04506
G1 X-6.104 Y2.458 E1.05725
G1 X-6.327 Y1.331 E1.08633
G1 X-6.327 Y-1.331 E1.15370
G1 X-6.104 Y-2.458 E1.18277
G1 X-5.835 Y-2.859 E1.19497
G1 X-4.055 Y-2.859 E1.24003
G1 X-5.705 Y-0.000 E1.32356
G1 X-4.115 Y2.754 E1.40403
G1 X-3.721 Y1.822 F7800.000
G1 X-2.657 Y3.666 F600.000 E1.45789
G1 X-6.266 Y3.666 E1.54923
G1 X-6.864 Y2.773 E1.57640
G1 X-7.134 Y1.411 E1.61156
G1 X-7.134 Y-1.411 E1.68295
G1 X-6.864 Y-2.773 E1.71810
G1 X-6.266 Y-3.666 E1.74528
G1 X-2.657 Y-3.666 E1.83661
G1 X-4.773 Y-0.000 E1.94372
G1 X-3.782 Y1.718 E1.99390
G1 X-4.125 Y2.521 F7800.000
G1 F1800.000 E0.99390
G92 E0
G1 X0.783 Y4.094 F7800.000
G1 F1800.000 E1.00000
G1 X1.680 Y4.119 F600.000 E1.02270
G1 X0.783 Y4.094 F7800.000
G1 X-0.392 Y4.094 F600.000 E1.05242
G1 X-0.392 Y4.094 F7800.000
G1 X-1.680 Y4.179 F600.000 E1.08510
G1 F1800.000 E0.08510
G92 E0
G1 X-1.558 Y-4.115 F7800.000
G1 F1800.000 E1.00000
G1 X-1.698 Y-4.141 F600.000 E1.00362
G1 X-1.558 Y-4.115 F7800.000
G1 X-0.200 Y-4.224 F600.000 E1.03808
G1 X-0.200 Y-4.224 F7800.000
G1 X1.728 Y-4.267 F600.000 E1.08689
G1 F1800.000 E0.08689
G92 E0
G1 X-5.084 Y2.223 F7800.000
G1 F1800.000 E1.00000
G1 X-5.147 Y2.286 F600.000 E1.00104
G1 X-5.278 Y1.887 E1.00598
G1 X-5.574 Y2.182 E1.01089
G1 X-5.662 Y1.740 E1.01620
G1 X-5.472 Y1.550 E1.01935
G1 X-5.750 Y1.297 E1.02376
G1 X-5.666 Y1.214 E1.02514
G1 X-5.361 Y-1.743 F7800.000
G1 X-5.735 Y-1.369 F600.000 E1.03135
G1 X-5.604 Y-2.031 E1.03927
G1 X-5.349 Y-2.286 E1.04350
G1 F1800.000 E0.04350
G92 E0
G1 X5.754 Y-1.190 F7800.000
G1 F1800.000 E1.00000
G1 X5.707 Y-1.144 F600.000 E1.00078
G1 X5.513 Y-1.480 E1.00533
G1 X5.680 Y-1.647 E1.00810
G1 X5.319 Y-1.816 E1.01279
G1 X5.592 Y-2.089 E1.01732
G1 X5.258 Y-2.286 E1.02187
G1 X5.125 Y-2.152 E1.02408
G1 X5.576 Y2.169 F7800.000
G1 X5.460 Y2.286 F600.000 E1.02601
G1 X5.209 Y2.006 E1.03042
G1 X5.708 Y1.507 E1.03869
G1 F1800.000 E0.03869
G92 E0
G1 Z1.400 F7800.000
G1 X3.927 Y3.081
G1 F1800.000 E1.00000
G1 X5.705 Y-0.000 F600.000 E1.09001
G1 X3.927 Y-3.081 E1.18002
