; generated by Slic3r 0.9.10b on 2013-12-22 at 09:28:43

; layer_height = 0.2
; perimeters = 2
; top_solid_layers = 3
; bottom_solid_layers = 3
; fill_density = 0.4
; perimeter_speed = 30
; infill_speed = 60
; travel_speed = 130
; nozzle_diameter = 0.5
; filament_diameter = 2.85
; extrusion_multiplier = 1
; perimeters extrusion width = 0.85mm
; infill extrusion width = 1.02mm
; solid infill extrusion width = 0.85mm
; top infill extrusion width = 0.85mm
; first layer extrusion width = 0.40mm

G21 ; set units to millimeters
M107
M104 S0
M83
M140 S70
G28
G1Y98F9000
M190 S70
G1X5Y98Z150F9000
M104 S210
G1X5Y98Z1F9000
G1Z0.05
M109 S210
G1Z5
G1X15
;G1E5F50
G90 ; use absolute coordinates
G92 E0
M82 ; use absolute distances for extrusion
G1 F1800.000 E-1.00000
G92 E0
G1 Z0.200 F7800.000
G1 X13.683 Y-1.053
G1 F1800.000 E1.00000
G1 X13.413 Y12.947 F540.000 E1.18502
G1 X13.273 Y14.187 E1.20151
G1 X12.893 Y15.367 E1.21789
G1 X12.293 Y16.457 E1.23433
G1 X11.493 Y17.407 E1.25074
G1 X10.523 Y18.187 E1.26718
G1 X9.423 Y18.767 E1.28362
G1 X8.233 Y19.127 E1.30004
G1 X6.993 Y19.247 E1.31650
G1 X1.193 Y19.247 E1.39314
G1 X0.693 Y19.227 E1.39975
G1 X-7.767 Y18.567 E1.51188
G1 X-9.107 Y18.317 E1.52989
G1 X-10.367 Y17.787 E1.54795
G1 X-11.487 Y17.007 E1.56598
G1 X-12.417 Y15.997 E1.58412
G1 X-13.117 Y14.827 E1.60214
G1 X-13.547 Y13.527 E1.62023
G1 X-13.687 Y12.167 E1.63830
G1 X-13.687 Y1.047 E1.78523
G1 X-13.427 Y-12.953 E1.97024
G1 X-13.287 Y-14.183 E1.98660
G1 X-12.907 Y-15.373 E2.00310
G1 X-12.307 Y-16.463 E2.01954
G1 X-11.507 Y-17.413 E2.03596
G1 X-10.537 Y-18.193 E2.05240
G1 X-9.437 Y-18.773 E2.06883
G1 X-8.247 Y-19.133 E2.08526
G1 X-7.007 Y-19.253 E2.10172
G1 X-1.207 Y-19.253 E2.17836
G1 X-0.707 Y-19.233 E2.18497
G1 X7.763 Y-18.573 E2.29722
G1 X9.103 Y-18.323 E2.31524
G1 X10.363 Y-17.793 E2.33330
G1 X11.483 Y-17.013 E2.35133
G1 X12.413 Y-16.003 E2.36947
G1 X13.113 Y-14.833 E2.38749
G1 X13.543 Y-13.533 E2.40558
G1 X13.683 Y-12.173 E2.42364
G1 X13.683 Y-1.117 E2.56974
G1 F1800.000 E1.56974
G92 E0
G1 X-2.141 Y-7.805 F7800.000
G1 F1800.000 E1.00000
G1 X-2.444 Y-7.366 F540.000 E1.00705
G1 X-2.843 Y-7.013 E1.01409
G1 X-3.316 Y-6.765 E1.02114
G1 X-3.833 Y-6.637 E1.02819
G1 X-4.367 Y-6.637 E1.03523
G1 X-4.884 Y-6.765 E1.04228
G1 X-5.357 Y-7.013 E1.04933
G1 X-5.756 Y-7.366 E1.05637
G1 X-6.059 Y-7.805 E1.06342
G1 X-6.248 Y-8.304 E1.07047
G1 X-6.312 Y-8.833 E1.07752
G1 X-6.248 Y-9.363 E1.08456
G1 X-6.059 Y-9.861 E1.09161
G1 X-5.756 Y-10.300 E1.09866
G1 X-5.394 Y-10.621 E1.10505
G1 X-4.884 Y-10.902 E1.11273
G1 X-4.367 Y-11.029 E1.11978
G1 X-3.833 Y-11.029 E1.12683
G1 X-3.316 Y-10.902 E1.13387
G1 X-2.843 Y-10.654 E1.14092
G1 X-2.444 Y-10.300 E1.14797
G1 X-2.141 Y-9.861 E1.15501
G1 X-1.952 Y-9.363 E1.16206
G1 X-1.888 Y-8.833 E1.16911
G1 X-1.952 Y-8.304 E1.17615
G1 X-2.119 Y-7.864 E1.18237
G1 X-2.563 Y-7.805 F7800.000
G1 F1800.000 E0.18237
G92 E0
G1 X-6.368 Y-7.345 F7800.000
G1 F1800.000 E1.00000
G1 X-5.598 Y-6.663 F540.000 E1.01359
G1 X-5.035 Y-6.368 E1.02199
G1 X-4.418 Y-6.216 E1.03039
G1 X-3.782 Y-6.216 E1.03879
G1 X-3.165 Y-6.368 E1.04719
G1 X-2.602 Y-6.663 E1.05559
G1 X-1.832 Y-7.345 E1.06918
G1 X-1.832 Y-2.466 E1.13366
G1 X-6.368 Y-2.466 E1.19359
G1 X-6.368 Y-7.282 E1.25723
G1 X-6.368 Y-12.201 F7800.000
G1 X-1.832 Y-12.201 F540.000 E1.31716
G1 X-1.832 Y-10.321 E1.34200
G1 X-2.602 Y-11.003 E1.35559
G1 X-3.165 Y-11.299 E1.36399
G1 X-3.782 Y-11.451 E1.37239
G1 X-4.418 Y-11.451 E1.38079
G1 X-5.035 Y-11.299 E1.38919
G1 X-5.598 Y-11.003 E1.39759
G1 X-6.368 Y-10.321 E1.41118
G1 X-6.368 Y-12.138 E1.43518
G1 X-6.789 Y-12.623 F7800.000
G1 X-1.411 Y-12.623 F540.000 E1.50625
G1 X-1.411 Y-2.044 E1.64602
G1 X-6.789 Y-2.044 E1.71709
G1 X-6.789 Y-12.559 E1.85603
G1 X-6.424 Y-12.412 F7800.000
G1 F1800.000 E0.85603
G92 E0
G1 X-2.227 Y-6.515 F7800.000
G1 F1800.000 E1.00000
G1 X-2.138 Y-6.426 F1080.000 E1.00170
G1 X-2.138 Y-5.817 E1.00993
G1 X-2.626 Y-6.306 E1.01926
G1 X-3.026 Y-6.096 E1.02535
G1 X-2.138 Y-5.208 E1.04232
G1 X-2.138 Y-4.599 E1.05054
G1 X-3.508 Y-5.969 E1.07671
G1 X-4.059 Y-5.910 E1.08419
G1 X-2.138 Y-3.989 E1.12088
G1 X-2.138 Y-3.380 E1.12911
G1 X-4.737 Y-5.980 E1.17876
G1 X-5.781 Y-6.414 E1.19403
G1 X-2.138 Y-2.771 E1.26361
G1 X-2.747 Y-2.771 E1.27184
G1 X-6.062 Y-6.087 E1.33516
G1 X-6.062 Y-5.477 E1.34339
G1 X-3.356 Y-2.771 E1.39508
G1 X-3.965 Y-2.771 E1.40331
G1 X-6.062 Y-4.868 E1.44336
G1 X-6.062 Y-4.259 E1.45159
G1 X-4.574 Y-2.771 E1.48001
G1 X-5.184 Y-2.771 E1.48823
G1 X-6.062 Y-3.650 E1.50502
G1 X-6.062 Y-3.041 E1.51325
G1 X-5.793 Y-2.771 E1.51839
G1 X-6.407 Y-7.903 F7800.000
G1 X-6.499 Y-7.995 F360.000 E1.51934
G1 X-6.465 Y-9.611 F7800.000
G1 X-6.499 Y-9.645 F360.000 E1.51969
G1 X-6.374 Y-9.850 E1.52145
G1 X-6.415 Y-9.891 E1.52187
G1 X-5.689 Y-11.532 F7800.000
G1 X-5.847 Y-11.691 F360.000 E1.52594
G1 X-4.305 Y-11.742 F7800.000
G1 X-4.474 Y-11.911 F360.000 E1.52768
G1 X-4.144 Y-11.911 E1.53009
G1 X-3.975 Y-11.742 E1.53184
G1 X-3.814 Y-11.911 E1.53354
G1 X-3.658 Y-11.754 E1.53516
G1 X-2.343 Y-11.463 F7800.000
G1 X-2.570 Y-11.691 F360.000 E1.54100
G1 X-1.701 Y-9.797 F7800.000
G1 X-1.870 Y-9.966 F360.000 E1.54274
G1 X-1.718 Y-7.835 F7800.000
G1 X-1.791 Y-7.908 F360.000 E1.54349
G1 F1800.000 E0.54349
G92 E0
G1 X2.154 Y-8.167 F7800.000
G1 F1800.000 E1.00000
G1 X2.219 Y-8.696 F540.000 E1.00705
G1 X2.390 Y-9.148 E1.01344
G1 X2.711 Y-9.634 E1.02112
G1 X3.110 Y-9.987 E1.02817
G1 X3.582 Y-10.235 E1.03522
G1 X4.100 Y-10.363 E1.04226
G1 X4.633 Y-10.363 E1.04931
G1 X5.151 Y-10.235 E1.05636
G1 X5.623 Y-9.987 E1.06340
G1 X6.023 Y-9.634 E1.07045
G1 X6.326 Y-9.195 E1.07750
G1 X6.515 Y-8.696 E1.08454
G1 X6.579 Y-8.167 E1.09159
G1 X6.515 Y-7.637 E1.09864
G1 X6.326 Y-7.139 E1.10569
G1 X6.023 Y-6.700 E1.11273
G1 X5.623 Y-6.346 E1.11978
G1 X5.151 Y-6.098 E1.12683
G1 X4.633 Y-5.971 E1.13387
G1 X4.100 Y-5.971 E1.14092
G1 X3.582 Y-6.098 E1.14797
G1 X3.110 Y-6.346 E1.15501
G1 X2.711 Y-6.700 E1.16206
G1 X2.408 Y-7.139 E1.16911
G1 X2.219 Y-7.637 E1.17615
G1 X2.162 Y-8.104 E1.18237
G1 X2.528 Y-8.363 F7800.000
G1 X2.099 Y-6.679
G1 X2.869 Y-5.997 F540.000 E1.19596
G1 X3.432 Y-5.701 E1.20436
G1 X4.049 Y-5.549 E1.21275
G1 X4.685 Y-5.549 E1.22115
G1 X5.302 Y-5.701 E1.22955
G1 X5.865 Y-5.997 E1.23795
G1 X6.634 Y-6.679 E1.25154
G1 X6.634 Y-1.799 E1.31602
G1 X2.099 Y-1.799 E1.37595
G1 X2.099 Y-6.615 E1.43959
G1 F1800.000 E0.43959
G92 E0
G1 X6.634 Y-11.534 F7800.000
G1 F1800.000 E1.00000
G1 X6.634 Y-9.655 F540.000 E1.02484
G1 X5.865 Y-10.337 E1.03843
G1 X5.302 Y-10.632 E1.04683
G1 X4.685 Y-10.784 E1.05523
G1 X4.049 Y-10.784 E1.06363
G1 X3.432 Y-10.632 E1.07203
G1 X2.869 Y-10.337 E1.08043
G1 X2.099 Y-9.655 E1.09402
G1 X2.099 Y-11.534 E1.11886
G1 X6.571 Y-11.534 E1.17795
G1 X7.056 Y-11.956 F7800.000
G1 X7.056 Y-1.377 F540.000 E1.31773
G1 X1.677 Y-1.377 E1.38879
G1 X1.677 Y-11.956 E1.52857
G1 X6.993 Y-11.956 E1.59880
G1 X6.845 Y-11.591 F7800.000
G1 X6.240 Y-5.849
G1 X6.329 Y-5.760 F1080.000 E1.60050
G1 X6.329 Y-5.150 E1.60873
G1 X5.840 Y-5.639 E1.61806
G1 X5.441 Y-5.429 E1.62416
G1 X6.329 Y-4.541 E1.64112
G1 X6.329 Y-3.932 E1.64935
G1 X4.959 Y-5.302 E1.67552
G1 X4.408 Y-5.244 E1.68299
G1 X6.329 Y-3.323 E1.71968
G1 X6.329 Y-2.714 E1.72791
G1 X3.729 Y-5.313 E1.77756
G1 X2.686 Y-5.748 E1.79283
G1 X6.329 Y-2.104 E1.86241
G1 X5.720 Y-2.104 E1.87064
G1 X2.404 Y-5.420 E1.93397
G1 X2.404 Y-4.811 E1.94219
G1 X5.111 Y-2.104 E1.99388
G1 X4.501 Y-2.104 E2.00211
G1 X2.404 Y-4.201 E2.04216
G1 X2.404 Y-3.592 E2.05039
G1 X3.892 Y-2.104 E2.07881
G1 X3.283 Y-2.104 E2.08704
G1 X2.404 Y-2.983 E2.10382
G1 X2.404 Y-2.374 E2.11205
G1 X2.674 Y-2.104 E2.11720
G1 X2.060 Y-7.237 F7800.000
G1 X1.968 Y-7.328 F360.000 E2.11815
G1 X2.002 Y-8.944 F7800.000
G1 X1.968 Y-8.978 F360.000 E2.11850
G1 X2.093 Y-9.184 E2.12025
G1 X2.052 Y-9.225 E2.12067
G1 X2.778 Y-10.866 F7800.000
G1 X2.619 Y-11.024 F360.000 E2.12474
G1 X4.161 Y-11.075 F7800.000
G1 X3.992 Y-11.244 F360.000 E2.12649
G1 X4.322 Y-11.244 E2.12890
G1 X4.491 Y-11.075 E2.13064
G1 X4.652 Y-11.244 E2.13234
G1 X4.809 Y-11.087 E2.13396
G1 X6.124 Y-10.796 F7800.000
G1 X5.896 Y-11.024 F360.000 E2.13980
G1 X6.765 Y-9.131 F7800.000
G1 X6.597 Y-9.299 F360.000 E2.14154
G1 X6.748 Y-7.168 F7800.000
G1 X6.675 Y-7.241 F360.000 E2.14230
G1 F1800.000 E1.14230
G92 E0
G1 X4.367 Y3.637 F7800.000
G1 F1800.000 E1.00000
G1 X4.884 Y3.765 F540.000 E1.00705
G1 X5.357 Y4.013 E1.01409
G1 X5.756 Y4.366 E1.02114
G1 X6.059 Y4.805 E1.02819
G1 X6.248 Y5.304 E1.03523
G1 X6.312 Y5.833 E1.04228
G1 X6.248 Y6.363 E1.04933
G1 X6.059 Y6.861 E1.05638
G1 X5.756 Y7.300 E1.06342
G1 X5.357 Y7.654 E1.07047
G1 X4.884 Y7.902 E1.07752
G1 X4.367 Y8.029 E1.08456
G1 X3.833 Y8.029 E1.09161
G1 X3.316 Y7.902 E1.09866
G1 X2.843 Y7.654 E1.10570
G1 X2.444 Y7.300 E1.11275
G1 X2.124 Y6.815 E1.12044
G1 X1.952 Y6.363 E1.12683
G1 X1.888 Y5.833 E1.13387
G1 X1.952 Y5.304 E1.14092
G1 X2.124 Y4.852 E1.14731
G1 X2.444 Y4.366 E1.15500
G1 X2.843 Y4.013 E1.16204
G1 X3.316 Y3.765 E1.16909
G1 X3.833 Y3.637 E1.17614
G1 X4.303 Y3.637 E1.18235
G1 X4.516 Y4.031 F7800.000
G1 F1800.000 E0.18235
G92 E0
G1 X1.832 Y12.201 F7800.000
G1 F1800.000 E1.00000
G1 X1.832 Y7.321 F540.000 E1.06448
G1 X2.602 Y8.003 E1.07807
G1 X3.165 Y8.299 E1.08647
G1 X3.782 Y8.451 E1.09487
G1 X4.418 Y8.451 E1.10327
G1 X5.035 Y8.299 E1.11167
G1 X5.598 Y8.003 E1.12007
G1 X6.368 Y7.321 E1.13366
G1 X6.368 Y12.201 E1.19813
G1 X1.895 Y12.201 E1.25723
G1 X1.832 Y2.466 F7800.000
G1 X6.368 Y2.466 F540.000 E1.31716
G1 X6.368 Y4.345 E1.34200
G1 X5.598 Y3.663 E1.35559
G1 X5.035 Y3.368 E1.36399
G1 X4.418 Y3.216 E1.37239
G1 X3.782 Y3.216 E1.38079
G1 X3.165 Y3.368 E1.38919
G1 X2.602 Y3.663 E1.39759
G1 X1.832 Y4.345 E1.41118
G1 X1.832 Y2.529 E1.43518
G1 X1.411 Y2.044 F7800.000
G1 X6.789 Y2.044 F540.000 E1.50625
G1 X6.789 Y12.623 E1.64602
G1 X1.411 Y12.623 E1.71709
G1 X1.411 Y2.107 E1.85603
G1 X1.776 Y2.255 F7800.000
G1 F1800.000 E0.85603
G92 E0
G1 X5.973 Y8.151 F7800.000
G1 F1800.000 E1.00000
G1 X6.062 Y8.240 F1080.000 E1.00170
G1 X6.062 Y8.850 E1.00993
G1 X5.574 Y8.361 E1.01926
G1 X5.174 Y8.571 E1.02535
G1 X6.062 Y9.459 E1.04232
G1 X6.062 Y10.068 E1.05054
G1 X4.692 Y8.698 E1.07671
G1 X4.141 Y8.756 E1.08419
G1 X6.062 Y10.677 E1.12088
G1 X6.062 Y11.286 E1.12911
G1 X3.463 Y8.687 E1.17876
G1 X2.419 Y8.252 E1.19403
G1 X6.062 Y11.896 E1.26361
G1 X5.453 Y11.896 E1.27184
G1 X2.138 Y8.580 E1.33516
G1 X2.138 Y9.189 E1.34339
G1 X4.844 Y11.896 E1.39508
G1 X4.235 Y11.896 E1.40331
G1 X2.138 Y9.799 E1.44336
G1 X2.138 Y10.408 E1.45159
G1 X3.626 Y11.896 E1.48001
G1 X3.016 Y11.896 E1.48823
G1 X2.138 Y11.017 E1.50502
G1 X2.138 Y11.626 E1.51325
G1 X2.407 Y11.896 E1.51839
G1 X1.793 Y6.763 F7800.000
G1 X1.701 Y6.672 F360.000 E1.51934
G1 X1.735 Y5.056 F7800.000
G1 X1.701 Y5.022 F360.000 E1.51969
G1 X1.826 Y4.816 E1.52145
G1 X1.785 Y4.775 E1.52187
G1 X2.511 Y3.134 F7800.000
G1 X2.353 Y2.976 F360.000 E1.52594
G1 X3.895 Y2.925 F7800.000
G1 X3.726 Y2.756 F360.000 E1.52768
G1 X4.056 Y2.756 E1.53009
G1 X4.225 Y2.925 E1.53184
G1 X4.386 Y2.756 E1.53354
G1 X4.542 Y2.913 E1.53516
G1 X5.857 Y3.204 F7800.000
G1 X5.630 Y2.976 F360.000 E1.54100
G1 X6.499 Y4.869 F7800.000
G1 X6.330 Y4.701 F360.000 E1.54274
G1 X6.482 Y6.832 F7800.000
G1 X6.409 Y6.759 F360.000 E1.54349
G1 F1800.000 E0.54349
G92 E0
G1 X-2.219 Y5.696 F7800.000
G1 F1800.000 E1.00000
G1 X-2.408 Y6.195 F540.000 E1.00705
G1 X-2.711 Y6.634 E1.01409
G1 X-3.110 Y6.987 E1.02114
G1 X-3.582 Y7.235 E1.02819
G1 X-4.100 Y7.363 E1.03523
G1 X-4.633 Y7.363 E1.04228
G1 X-5.151 Y7.235 E1.04933
G1 X-5.623 Y6.987 E1.05637
G1 X-6.023 Y6.634 E1.06342
G1 X-6.326 Y6.195 E1.07047
G1 X-6.515 Y5.696 E1.07752
G1 X-6.579 Y5.167 E1.08456
G1 X-6.515 Y4.637 E1.09161
G1 X-6.326 Y4.139 E1.09866
G1 X-6.023 Y3.700 E1.10570
G1 X-5.623 Y3.346 E1.11275
G1 X-5.151 Y3.098 E1.11980
G1 X-4.682 Y2.982 E1.12619
G1 X-4.100 Y2.971 E1.13387
G1 X-3.582 Y3.098 E1.14092
G1 X-3.110 Y3.346 E1.14797
G1 X-2.711 Y3.700 E1.15501
G1 X-2.408 Y4.139 E1.16206
G1 X-2.219 Y4.637 E1.16911
G1 X-2.154 Y5.167 E1.17615
G1 X-2.211 Y5.633 E1.18237
G1 X-2.628 Y5.797 F7800.000
G1 X-2.099 Y6.655
G1 X-2.099 Y11.534 F540.000 E1.24684
G1 X-6.634 Y11.534 E1.30677
G1 X-6.634 Y6.655 E1.37125
G1 X-5.865 Y7.337 E1.38484
G1 X-5.302 Y7.632 E1.39324
G1 X-4.685 Y7.784 E1.40164
G1 X-4.049 Y7.784 E1.41004
G1 X-3.432 Y7.632 E1.41844
G1 X-2.869 Y7.337 E1.42684
G1 X-2.146 Y6.697 E1.43959
G1 X-2.099 Y1.799 F7800.000
G1 X-2.099 Y3.679 F540.000 E1.46443
G1 X-2.869 Y2.997 E1.47802
G1 X-3.432 Y2.701 E1.48642
G1 X-4.049 Y2.549 E1.49482
G1 X-4.684 Y2.549 E1.50322
G1 X-5.302 Y2.701 E1.51162
G1 X-5.865 Y2.997 E1.52002
G1 X-6.634 Y3.679 E1.53361
G1 X-6.634 Y1.799 E1.55845
G1 X-2.162 Y1.799 E1.61755
G1 X-1.677 Y1.377 F7800.000
G1 X-1.677 Y11.956 F540.000 E1.75732
G1 X-7.056 Y11.956 E1.82839
G1 X-7.056 Y1.377 E1.96816
G1 X-1.741 Y1.377 E2.03840
G1 X-1.888 Y1.742 F7800.000
G1 X-2.493 Y7.485
G1 X-2.404 Y7.574 F1080.000 E2.04010
G1 X-2.404 Y8.183 E2.04833
G1 X-2.893 Y7.694 E2.05766
G1 X-3.292 Y7.904 E2.06375
G1 X-2.404 Y8.792 E2.08071
G1 X-2.404 Y9.401 E2.08894
G1 X-3.774 Y8.031 E2.11511
G1 X-4.325 Y8.090 E2.12259
G1 X-2.404 Y10.011 E2.15928
G1 X-2.404 Y10.620 E2.16750
G1 X-5.004 Y8.020 E2.21715
G1 X-6.048 Y7.586 E2.23242
G1 X-2.404 Y11.229 E2.30201
G1 X-3.013 Y11.229 E2.31024
G1 X-6.329 Y7.913 E2.37356
G1 X-6.329 Y8.523 E2.38179
G1 X-3.623 Y11.229 E2.43348
G1 X-4.232 Y11.229 E2.44170
G1 X-6.329 Y9.132 E2.48176
G1 X-6.329 Y9.741 E2.48999
G1 X-4.841 Y11.229 E2.51840
G1 X-5.450 Y11.229 E2.52663
G1 X-6.329 Y10.350 E2.54342
G1 X-6.329 Y10.959 E2.55164
G1 X-6.059 Y11.229 E2.55679
G1 X-6.674 Y6.097 F7800.000
G1 X-6.765 Y6.005 F360.000 E2.55774
G1 X-6.731 Y4.389 F7800.000
G1 X-6.765 Y4.355 F360.000 E2.55809
G1 X-6.641 Y4.150 E2.55985
G1 X-6.682 Y4.109 E2.56027
G1 X-5.956 Y2.468 F7800.000
G1 X-6.114 Y2.309 F360.000 E2.56434
G1 X-4.572 Y2.258 F7800.000
G1 X-4.741 Y2.089 F360.000 E2.56608
G1 X-4.411 Y2.089 E2.56849
G1 X-4.242 Y2.258 E2.57024
G1 X-4.081 Y2.089 E2.57194
G1 X-3.924 Y2.246 E2.57356
G1 X-2.609 Y2.537 F7800.000
G1 X-2.837 Y2.309 F360.000 E2.57939
G1 X-1.968 Y4.203 F7800.000
G1 X-2.137 Y4.034 F360.000 E2.58113
G1 X-1.985 Y6.165 F7800.000
G1 X-2.058 Y6.092 F360.000 E2.58189
M104 S200 ; set temperature
M140 S50 ; set bed temperature
G1 F1800.000 E1.58189
G92 E0
G1 Z0.400 F7800.000
G1 X-5.789 Y-6.111
G1 F1800.000 E1.00000
G1 X-5.242 Y-5.823 F953.645 E1.01565
G1 X-4.488 Y-5.637 E1.03529
G1 X-3.712 Y-5.637 E1.05493
G1 X-2.958 Y-5.823 E1.07457
G1 X-2.411 Y-6.111 E1.09022
G1 X-2.411 Y-3.044 E1.16781
G1 X-5.789 Y-3.044 E1.25330
G1 X-5.789 Y-5.989 E1.32783
G1 X-5.467 Y-6.853 F7800.000
G1 X-4.953 Y-6.583 F953.645 E1.34251
G1 X-4.390 Y-6.444 E1.35719
G1 X-3.810 Y-6.444 E1.37187
G1 X-3.247 Y-6.583 E1.38655
G1 X-2.733 Y-6.853 E1.40123
G1 X-2.299 Y-7.238 E1.41591
G1 X-1.718 Y-8.078 E1.44176
G1 X-1.604 Y-8.043 E1.44480
G1 X-1.604 Y-2.237 E1.59170
G1 X-6.596 Y-2.237 E1.71803
G1 X-6.596 Y-8.043 E1.86493
G1 X-6.482 Y-8.078 E1.86797
G1 X-5.901 Y-7.238 E1.89383
G1 X-5.558 Y-6.933 E1.90544
G1 X-5.490 Y-6.273 F7800.000
G1 X-6.482 Y-9.588
G1 X-6.596 Y-9.624 F953.645 E1.90848
G1 X-6.596 Y-12.430 E1.97947
G1 X-1.604 Y-12.430 E2.10581
G1 X-1.604 Y-9.624 E2.17680
G1 X-1.718 Y-9.588 E2.17984
G1 X-2.299 Y-10.429 E2.20569
G1 X-2.733 Y-10.814 E2.22037
G1 X-3.247 Y-11.083 E2.23505
G1 X-3.810 Y-11.222 E2.24973
G1 X-4.390 Y-11.222 E2.26441
G1 X-4.508 Y-11.193 E2.26748
G1 X-4.953 Y-11.083 E2.27909
G1 X-5.467 Y-10.814 E2.29377
G1 X-5.901 Y-10.429 E2.30845
G1 X-6.413 Y-9.688 E2.33123
G1 X-6.554 Y-9.684 F7800.000
G1 X-6.499 Y-8.833
G1 X-6.134 Y-8.191 F953.645 E2.34993
G1 X-6.676 Y-8.833 F7800.000
G1 X-6.413 Y-8.993 F953.645 E2.35770
G1 X-6.413 Y-8.993 F7800.000
G1 X-6.134 Y-9.476 F953.645 E2.37182
G1 F1800.000 E1.37182
G92 E0
G1 X-2.066 Y-9.476 F7800.000
G1 F1800.000 E1.00000
G1 X-1.737 Y-8.900 F953.645 E1.01678
G1 X-1.812 Y-8.677 E1.02273
G1 X-1.812 Y-8.677 F7800.000
G1 X-1.959 Y-8.452 F953.645 E1.02954
G1 X-1.959 Y-8.452 F7800.000
G1 X-2.111 Y-8.208 F953.645 E1.03681
G1 X-2.996 Y-3.770 F7800.000
G1 X-3.137 Y-3.629 F1907.289 E1.04208
G1 X-4.325 Y-3.629 E1.07336
G1 X-2.996 Y-4.958 E1.12287
G1 X-4.090 Y-5.052 E1.15179
G1 X-5.204 Y-3.938 E1.19330
G1 F1800.000 E0.19330
