; generated by Slic3r 0.9.10b on 2013-12-22 at 12:39:11

; layer_height = 0.2
; perimeters = 2
; top_solid_layers = 3
; bottom_solid_layers = 3
; fill_density = 0.4
; perimeter_speed = 30
; infill_speed = 60
; travel_speed = 130
; nozzle_diameter = 0.5
; filament_diameter = 2.85
; extrusion_multiplier = 1
; perimeters extrusion width = 0.85mm
; infill extrusion width = 1.02mm
; solid infill extrusion width = 0.85mm
; top infill extrusion width = 0.85mm
; first layer extrusion width = 0.40mm

G21 ; set units to millimeters
M107
M104 S0
M83
M140 S70
G28
G1Y98F9000
M190 S70
G1X5Y98Z150F9000
M104 S210
G1X5Y98Z1F9000
G1Z0.05
M109 S210
G1Z5
G1X15
;G1E5F50
G90 ; use absolute coordinates
G92 E0
M82 ; use absolute distances for extrusion
G1 F1800.000 E-1.00000
G92 E0
G1 Z0.200 F7800.000
G1 X25.880 Y9.160
G1 F1800.000 E1.00000
G1 X14.080 Y26.160 F540.000 E1.27343
G1 X13.050 Y27.310 E1.29383
G1 X11.780 Y28.190 E1.31425
G1 X10.330 Y28.740 E1.33474
G1 X8.800 Y28.920 E1.35509
G1 X-8.800 Y28.920 E1.58765
G1 X-10.330 Y28.740 E1.60800
G1 X-11.780 Y28.190 E1.62849
G1 X-13.050 Y27.310 E1.64891
G1 X-14.080 Y26.160 E1.66931
G1 X-25.880 Y9.160 E1.94274
G1 X-26.500 Y8.030 E1.95977
G1 X-26.890 Y6.790 E1.97695
G1 X-27.020 Y5.500 E1.99408
G1 X-27.020 Y-5.500 E2.13942
G1 X-26.890 Y-6.790 E2.15655
G1 X-26.500 Y-8.030 E2.17373
G1 X-25.880 Y-9.160 E2.19076
G1 X-14.080 Y-26.160 E2.46419
G1 X-13.050 Y-27.310 E2.48459
G1 X-11.780 Y-28.190 E2.50501
G1 X-10.330 Y-28.740 E2.52550
G1 X-8.800 Y-28.920 E2.54585
G1 X8.800 Y-28.920 E2.77840
G1 X10.330 Y-28.740 E2.79876
G1 X11.780 Y-28.190 E2.81925
G1 X13.050 Y-27.310 E2.83967
G1 X14.080 Y-26.160 E2.86007
G1 X25.880 Y-9.160 E3.13350
G1 X26.500 Y-8.030 E3.15053
G1 X26.890 Y-6.790 E3.16770
G1 X27.020 Y-5.500 E3.18484
G1 X27.020 Y5.500 E3.33018
G1 X26.890 Y6.790 E3.34731
G1 X26.500 Y8.030 E3.36449
G1 X25.910 Y9.105 E3.38068
G1 F1800.000 E2.38068
G92 E0
G1 X7.859 Y-0.472 F7800.000
G1 F1800.000 E1.00000
G1 X7.556 Y-0.033 F540.000 E1.00705
G1 X7.157 Y0.321 E1.01409
G1 X6.684 Y0.569 E1.02114
G1 X6.167 Y0.696 E1.02819
G1 X5.633 Y0.696 E1.03523
G1 X5.116 Y0.569 E1.04228
G1 X4.643 Y0.321 E1.04933
G1 X4.244 Y-0.033 E1.05637
G1 X3.941 Y-0.472 E1.06342
G1 X3.752 Y-0.971 E1.07047
G1 X3.688 Y-1.500 E1.07752
G1 X3.752 Y-2.029 E1.08456
G1 X3.941 Y-2.528 E1.09161
G1 X4.244 Y-2.967 E1.09866
G1 X4.606 Y-3.288 E1.10505
G1 X5.116 Y-3.569 E1.11273
G1 X5.633 Y-3.696 E1.11978
G1 X6.167 Y-3.696 E1.12683
G1 X6.684 Y-3.569 E1.13387
G1 X7.157 Y-3.321 E1.14092
G1 X7.556 Y-2.967 E1.14797
G1 X7.859 Y-2.528 E1.15501
G1 X8.048 Y-2.029 E1.16206
G1 X8.112 Y-1.500 E1.16911
G1 X8.048 Y-0.971 E1.17615
G1 X7.881 Y-0.531 E1.18237
G1 X7.437 Y-0.472 F7800.000
G1 F1800.000 E0.18237
G92 E0
G1 X3.632 Y-0.012 F7800.000
G1 F1800.000 E1.00000
G1 X4.402 Y0.670 F540.000 E1.01359
G1 X4.965 Y0.965 E1.02199
G1 X5.582 Y1.118 E1.03039
G1 X6.218 Y1.118 E1.03879
G1 X6.835 Y0.965 E1.04719
G1 X7.398 Y0.670 E1.05559
G1 X8.168 Y-0.012 E1.06918
G1 X8.168 Y4.868 E1.13366
G1 X3.632 Y4.868 E1.19359
G1 X3.632 Y0.051 E1.25723
G1 X3.632 Y-4.868 F7800.000
G1 X8.168 Y-4.868 F540.000 E1.31716
G1 X8.168 Y-2.988 E1.34200
G1 X7.398 Y-3.670 E1.35559
G1 X6.835 Y-3.965 E1.36399
G1 X6.218 Y-4.118 E1.37239
G1 X5.582 Y-4.118 E1.38079
G1 X4.965 Y-3.965 E1.38919
G1 X4.402 Y-3.670 E1.39759
G1 X3.632 Y-2.988 E1.41118
G1 X3.632 Y-4.805 E1.43518
G1 X3.211 Y-5.289 F7800.000
G1 X8.589 Y-5.289 F540.000 E1.50625
G1 X8.589 Y5.289 E1.64602
G1 X3.211 Y5.289 E1.71709
G1 X3.211 Y-5.226 E1.85603
G1 X3.576 Y-5.079 F7800.000
G1 F1800.000 E0.85603
G92 E0
G1 X7.773 Y0.818 F7800.000
G1 F1800.000 E1.00000
G1 X7.862 Y0.907 F1080.000 E1.00170
G1 X7.862 Y1.516 E1.00993
G1 X7.374 Y1.028 E1.01926
G1 X6.974 Y1.237 E1.02535
G1 X7.862 Y2.126 E1.04232
G1 X7.862 Y2.735 E1.05054
G1 X6.492 Y1.365 E1.07671
G1 X5.941 Y1.423 E1.08419
G1 X7.862 Y3.344 E1.12088
G1 X7.862 Y3.953 E1.12911
G1 X5.263 Y1.353 E1.17876
G1 X4.219 Y0.919 E1.19403
G1 X7.862 Y4.562 E1.26361
G1 X7.253 Y4.562 E1.27184
G1 X3.938 Y1.247 E1.33516
G1 X3.938 Y1.856 E1.34339
G1 X6.644 Y4.562 E1.39508
G1 X6.035 Y4.562 E1.40331
G1 X3.938 Y2.465 E1.44336
G1 X3.938 Y3.074 E1.45159
G1 X5.426 Y4.562 E1.48001
G1 X4.816 Y4.562 E1.48823
G1 X3.938 Y3.684 E1.50502
G1 X3.938 Y4.293 E1.51325
G1 X4.207 Y4.562 E1.51839
G1 X3.593 Y-0.570 F7800.000
G1 X3.501 Y-0.662 F360.000 E1.51934
G1 X3.535 Y-2.278 F7800.000
G1 X3.501 Y-2.312 F360.000 E1.51969
G1 X3.626 Y-2.517 E1.52145
G1 X3.585 Y-2.558 E1.52187
G1 X4.311 Y-4.199 F7800.000
G1 X4.153 Y-4.357 F360.000 E1.52594
G1 X5.695 Y-4.408 F7800.000
G1 X5.526 Y-4.577 F360.000 E1.52768
G1 X5.856 Y-4.577 E1.53009
G1 X6.025 Y-4.408 E1.53184
G1 X6.186 Y-4.577 E1.53354
G1 X6.342 Y-4.421 E1.53516
G1 X7.657 Y-4.130 F7800.000
G1 X7.430 Y-4.357 F360.000 E1.54100
G1 X8.299 Y-2.464 F7800.000
G1 X8.130 Y-2.633 F360.000 E1.54274
G1 X8.282 Y-0.501 F7800.000
G1 X8.209 Y-0.574 F360.000 E1.54349
G1 F1800.000 E0.54349
G92 E0
G1 X-3.688 Y-1.500 F7800.000
G1 F1800.000 E1.00000
G1 X-3.752 Y-0.971 F540.000 E1.00705
G1 X-3.941 Y-0.472 E1.01409
G1 X-4.244 Y-0.033 E1.02114
G1 X-4.643 Y0.321 E1.02819
G1 X-5.116 Y0.569 E1.03523
G1 X-5.633 Y0.696 E1.04228
G1 X-6.167 Y0.696 E1.04933
G1 X-6.684 Y0.569 E1.05637
G1 X-7.157 Y0.321 E1.06342
G1 X-7.556 Y-0.033 E1.07047
G1 X-7.859 Y-0.472 E1.07752
G1 X-8.048 Y-0.971 E1.08456
G1 X-8.112 Y-1.500 E1.09161
G1 X-8.048 Y-2.029 E1.09866
G1 X-7.876 Y-2.482 E1.10505
G1 X-7.556 Y-2.967 E1.11273
G1 X-7.157 Y-3.321 E1.11978
G1 X-6.684 Y-3.569 E1.12683
G1 X-6.167 Y-3.696 E1.13387
G1 X-5.633 Y-3.696 E1.14092
G1 X-5.116 Y-3.569 E1.14797
G1 X-4.643 Y-3.321 E1.15501
G1 X-4.244 Y-2.967 E1.16206
G1 X-3.941 Y-2.528 E1.16911
G1 X-3.752 Y-2.029 E1.17615
G1 X-3.695 Y-1.563 E1.18237
G1 X-4.061 Y-1.304 F7800.000
G1 F1800.000 E0.18237
G92 E0
G1 X-8.168 Y4.868 F7800.000
G1 F1800.000 E1.00000
G1 X-8.168 Y-0.012 F540.000 E1.06448
G1 X-7.398 Y0.670 E1.07807
G1 X-6.835 Y0.965 E1.08647
G1 X-6.218 Y1.118 E1.09487
G1 X-5.582 Y1.118 E1.10327
G1 X-4.965 Y0.965 E1.11167
G1 X-4.402 Y0.670 E1.12007
G1 X-3.632 Y-0.012 E1.13366
G1 X-3.632 Y4.868 E1.19813
G1 X-8.105 Y4.868 E1.25723
G1 F1800.000 E0.25723
G92 E0
G1 X-3.632 Y-4.868 F7800.000
G1 F1800.000 E1.00000
G1 X-3.632 Y-2.988 F540.000 E1.02484
G1 X-4.402 Y-3.670 E1.03843
G1 X-4.965 Y-3.965 E1.04683
G1 X-5.582 Y-4.118 E1.05523
G1 X-6.218 Y-4.118 E1.06363
G1 X-6.835 Y-3.965 E1.07203
G1 X-7.398 Y-3.670 E1.08043
G1 X-8.168 Y-2.988 E1.09402
G1 X-8.168 Y-4.868 E1.11886
G1 X-3.695 Y-4.868 E1.17795
G1 X-3.211 Y-5.289 F7800.000
G1 X-3.211 Y5.289 F540.000 E1.31773
G1 X-8.589 Y5.289 E1.38879
G1 X-8.589 Y-5.289 E1.52857
G1 X-3.274 Y-5.289 E1.59880
G1 X-3.421 Y-4.924 F7800.000
G1 X-4.027 Y0.818
G1 X-3.938 Y0.907 F1080.000 E1.60050
G1 X-3.938 Y1.516 E1.60873
G1 X-4.426 Y1.028 E1.61806
G1 X-4.826 Y1.237 E1.62416
G1 X-3.938 Y2.126 E1.64112
G1 X-3.938 Y2.735 E1.64935
G1 X-5.308 Y1.365 E1.67552
G1 X-5.859 Y1.423 E1.68299
G1 X-3.938 Y3.344 E1.71968
G1 X-3.938 Y3.953 E1.72791
G1 X-6.537 Y1.353 E1.77756
G1 X-7.581 Y0.919 E1.79283
G1 X-3.938 Y4.562 E1.86241
G1 X-4.547 Y4.562 E1.87064
G1 X-7.862 Y1.247 E1.93397
G1 X-7.862 Y1.856 E1.94219
G1 X-5.156 Y4.562 E1.99388
G1 X-5.765 Y4.562 E2.00211
G1 X-7.862 Y2.465 E2.04216
G1 X-7.862 Y3.074 E2.05039
G1 X-6.374 Y4.562 E2.07881
G1 X-6.984 Y4.562 E2.08704
G1 X-7.862 Y3.684 E2.10382
G1 X-7.862 Y4.293 E2.11205
G1 X-7.593 Y4.562 E2.11720
G1 X-8.207 Y-0.570 F7800.000
G1 X-8.299 Y-0.662 F360.000 E2.11815
G1 X-8.265 Y-2.278 F7800.000
G1 X-8.299 Y-2.312 F360.000 E2.11850
G1 X-8.174 Y-2.517 E2.12025
G1 X-8.215 Y-2.558 E2.12067
G1 X-7.489 Y-4.199 F7800.000
G1 X-7.647 Y-4.357 F360.000 E2.12474
G1 X-6.105 Y-4.408 F7800.000
G1 X-6.274 Y-4.577 F360.000 E2.12649
G1 X-5.944 Y-4.577 E2.12890
G1 X-5.775 Y-4.408 E2.13064
G1 X-5.614 Y-4.577 E2.13234
G1 X-5.458 Y-4.421 E2.13396
G1 X-4.143 Y-4.130 F7800.000
G1 X-4.370 Y-4.357 F360.000 E2.13980
G1 X-3.501 Y-2.464 F7800.000
G1 X-3.670 Y-2.633 F360.000 E2.14154
G1 X-3.518 Y-0.501 F7800.000
G1 X-3.591 Y-0.574 F360.000 E2.14230
G1 F1800.000 E1.14230
G92 E0
G1 X-15.488 Y-1.500 F7800.000
G1 F1800.000 E1.00000
G1 X-15.552 Y-0.971 F540.000 E1.00705
G1 X-15.741 Y-0.472 E1.01409
G1 X-16.044 Y-0.033 E1.02114
G1 X-16.443 Y0.321 E1.02819
G1 X-16.916 Y0.569 E1.03523
G1 X-17.433 Y0.696 E1.04228
G1 X-17.967 Y0.696 E1.04933
G1 X-18.484 Y0.569 E1.05637
G1 X-18.957 Y0.321 E1.06342
G1 X-19.356 Y-0.033 E1.07047
G1 X-19.659 Y-0.472 E1.07752
G1 X-19.848 Y-0.971 E1.08456
G1 X-19.912 Y-1.500 E1.09161
G1 X-19.848 Y-2.029 E1.09866
G1 X-19.676 Y-2.482 E1.10505
G1 X-19.356 Y-2.967 E1.11273
G1 X-18.957 Y-3.321 E1.11978
G1 X-18.484 Y-3.569 E1.12683
G1 X-17.967 Y-3.696 E1.13387
G1 X-17.433 Y-3.696 E1.14092
G1 X-16.916 Y-3.569 E1.14797
G1 X-16.443 Y-3.321 E1.15501
G1 X-16.044 Y-2.967 E1.16206
G1 X-15.741 Y-2.528 E1.16911
G1 X-15.552 Y-2.029 E1.17615
G1 X-15.495 Y-1.563 E1.18237
G1 X-15.861 Y-1.304 F7800.000
G1 F1800.000 E0.18237
G92 E0
G1 X-15.432 Y4.868 F7800.000
G1 F1800.000 E1.00000
G1 X-19.968 Y4.868 F540.000 E1.05993
G1 X-19.968 Y-0.012 E1.12441
G1 X-19.198 Y0.670 E1.13800
G1 X-18.635 Y0.965 E1.14640
G1 X-18.018 Y1.118 E1.15480
G1 X-17.382 Y1.118 E1.16320
G1 X-16.765 Y0.965 E1.17160
G1 X-16.202 Y0.670 E1.18000
G1 X-15.432 Y-0.012 E1.19359
G1 X-15.432 Y4.805 E1.25723
G1 F1800.000 E0.25723
G92 E0
G1 X-19.968 Y-2.988 F7800.000
G1 F1800.000 E1.00000
G1 X-19.968 Y-4.868 F540.000 E1.02484
G1 X-15.432 Y-4.868 E1.08477
G1 X-15.432 Y-2.988 E1.10961
G1 X-16.202 Y-3.670 E1.12320
G1 X-16.765 Y-3.965 E1.13160
G1 X-17.382 Y-4.118 E1.14000
G1 X-18.018 Y-4.118 E1.14840
G1 X-18.635 Y-3.965 E1.15680
G1 X-19.198 Y-3.670 E1.16519
G1 X-19.920 Y-3.030 E1.17795
G1 X-20.389 Y-5.289 F7800.000
G1 X-15.011 Y-5.289 F540.000 E1.24902
G1 X-15.011 Y5.289 E1.38879
G1 X-20.389 Y5.289 E1.45986
G1 X-20.389 Y-5.226 E1.59880
G1 X-20.024 Y-5.079 F7800.000
G1 F1800.000 E0.59880
G92 E0
G1 X-15.827 Y0.818 F7800.000
G1 F1800.000 E1.00000
G1 X-15.738 Y0.907 F1080.000 E1.00170
G1 X-15.738 Y1.516 E1.00993
G1 X-16.226 Y1.028 E1.01926
G1 X-16.626 Y1.237 E1.02535
G1 X-15.738 Y2.126 E1.04232
G1 X-15.738 Y2.735 E1.05054
G1 X-17.108 Y1.365 E1.07671
G1 X-17.659 Y1.423 E1.08419
G1 X-15.738 Y3.344 E1.12088
G1 X-15.738 Y3.953 E1.12911
G1 X-18.337 Y1.353 E1.17876
G1 X-19.381 Y0.919 E1.19403
G1 X-15.738 Y4.562 E1.26361
G1 X-16.347 Y4.562 E1.27184
G1 X-19.662 Y1.247 E1.33516
G1 X-19.662 Y1.856 E1.34339
G1 X-16.956 Y4.562 E1.39508
G1 X-17.565 Y4.562 E1.40331
G1 X-19.662 Y2.465 E1.44336
G1 X-19.662 Y3.074 E1.45159
G1 X-18.174 Y4.562 E1.48001
G1 X-18.784 Y4.562 E1.48823
G1 X-19.662 Y3.684 E1.50502
G1 X-19.662 Y4.293 E1.51325
G1 X-19.393 Y4.562 E1.51839
G1 X-20.007 Y-0.570 F7800.000
G1 X-20.099 Y-0.662 F360.000 E1.51934
G1 X-20.065 Y-2.278 F7800.000
G1 X-20.099 Y-2.312 F360.000 E1.51969
G1 X-19.974 Y-2.517 E1.52145
G1 X-20.015 Y-2.558 E1.52187
G1 X-19.289 Y-4.199 F7800.000
G1 X-19.447 Y-4.357 F360.000 E1.52594
G1 X-17.905 Y-4.408 F7800.000
G1 X-18.074 Y-4.577 F360.000 E1.52768
G1 X-17.744 Y-4.577 E1.53009
G1 X-17.575 Y-4.408 E1.53184
G1 X-17.414 Y-4.577 E1.53354
G1 X-17.258 Y-4.421 E1.53516
G1 X-15.943 Y-4.130 F7800.000
G1 X-16.170 Y-4.357 F360.000 E1.54100
G1 X-15.301 Y-2.464 F7800.000
G1 X-15.470 Y-2.633 F360.000 E1.54274
G1 X-15.318 Y-0.501 F7800.000
G1 X-15.391 Y-0.574 F360.000 E1.54349
G1 F1800.000 E0.54349
G92 E0
G1 X-7.157 Y-16.679 F7800.000
G1 F1800.000 E1.00000
G1 X-7.556 Y-17.033 F540.000 E1.00705
G1 X-7.859 Y-17.472 E1.01409
G1 X-8.048 Y-17.971 E1.02114
G1 X-8.112 Y-18.500 E1.02819
G1 X-8.048 Y-19.029 E1.03523
G1 X-7.859 Y-19.528 E1.04228
G1 X-7.556 Y-19.967 E1.04933
G1 X-7.157 Y-20.321 E1.05637
G1 X-6.684 Y-20.569 E1.06342
G1 X-6.215 Y-20.684 E1.06981
G1 X-5.633 Y-20.696 E1.07750
G1 X-5.116 Y-20.569 E1.08454
G1 X-4.643 Y-20.321 E1.09159
G1 X-4.244 Y-19.967 E1.09864
G1 X-3.969 Y-19.569 E1.10503
G1 X-3.752 Y-19.029 E1.11271
G1 X-3.688 Y-18.500 E1.11976
G1 X-3.752 Y-17.971 E1.12681
G1 X-3.941 Y-17.472 E1.13386
G1 X-4.244 Y-17.033 E1.14090
G1 X-4.643 Y-16.679 E1.14795
G1 X-5.116 Y-16.431 E1.15500
G1 X-5.633 Y-16.304 E1.16204
G1 X-6.167 Y-16.304 E1.16909
G1 X-6.684 Y-16.431 E1.17614
G1 X-7.101 Y-16.650 E1.18235
G1 X-7.106 Y-17.098 F7800.000
G1 F1800.000 E0.18235
G92 E0
G1 X-8.168 Y-12.132 F7800.000
G1 F1800.000 E1.00000
G1 X-8.168 Y-17.012 F540.000 E1.06448
G1 X-7.398 Y-16.330 E1.07807
G1 X-6.835 Y-16.035 E1.08647
G1 X-6.218 Y-15.882 E1.09487
G1 X-5.582 Y-15.882 E1.10327
G1 X-4.965 Y-16.035 E1.11167
G1 X-4.402 Y-16.330 E1.12007
G1 X-3.632 Y-17.012 E1.13366
G1 X-3.632 Y-12.132 E1.19813
G1 X-8.105 Y-12.132 E1.25723
G1 F1800.000 E0.25723
G92 E0
G1 X-3.632 Y-19.988 F7800.000
G1 F1800.000 E1.00000
G1 X-4.402 Y-20.670 F540.000 E1.01359
G1 X-4.965 Y-20.965 E1.02199
G1 X-5.582 Y-21.118 E1.03039
G1 X-6.218 Y-21.118 E1.03879
G1 X-6.835 Y-20.965 E1.04719
G1 X-7.398 Y-20.670 E1.05559
G1 X-8.168 Y-19.988 E1.06918
G1 X-8.168 Y-21.868 E1.09402
G1 X-3.632 Y-21.868 E1.15395
G1 X-3.632 Y-20.051 E1.17795
G1 X-3.211 Y-22.289 F7800.000
G1 X-3.211 Y-11.711 F540.000 E1.31773
G1 X-8.589 Y-11.711 E1.38879
G1 X-8.589 Y-22.289 E1.52857
G1 X-3.274 Y-22.289 E1.59880
G1 X-3.421 Y-21.924 F7800.000
G1 X-4.027 Y-16.182
G1 X-3.938 Y-16.093 F1080.000 E1.60050
G1 X-3.938 Y-15.484 E1.60873
G1 X-4.426 Y-15.972 E1.61806
G1 X-4.826 Y-15.763 E1.62416
G1 X-3.938 Y-14.874 E1.64112
G1 X-3.938 Y-14.265 E1.64935
G1 X-5.308 Y-15.635 E1.67552
G1 X-5.859 Y-15.577 E1.68299
G1 X-3.938 Y-13.656 E1.71968
G1 X-3.938 Y-13.047 E1.72791
G1 X-6.537 Y-15.647 E1.77756
G1 X-7.581 Y-16.081 E1.79283
G1 X-3.938 Y-12.438 E1.86241
G1 X-4.547 Y-12.438 E1.87064
G1 X-7.862 Y-15.753 E1.93397
G1 X-7.862 Y-15.144 E1.94219
G1 X-5.156 Y-12.438 E1.99388
G1 X-5.765 Y-12.438 E2.00211
G1 X-7.862 Y-14.535 E2.04216
G1 X-7.862 Y-13.926 E2.05039
G1 X-6.374 Y-12.438 E2.07881
G1 X-6.984 Y-12.438 E2.08704
G1 X-7.862 Y-13.316 E2.10382
G1 X-7.862 Y-12.707 E2.11205
G1 X-7.593 Y-12.438 E2.11720
G1 X-8.207 Y-17.570 F7800.000
G1 X-8.299 Y-17.662 F360.000 E2.11815
G1 X-8.265 Y-19.278 F7800.000
G1 X-8.299 Y-19.312 F360.000 E2.11850
G1 X-8.174 Y-19.517 E2.12025
G1 X-8.215 Y-19.558 E2.12067
G1 X-7.489 Y-21.199 F7800.000
G1 X-7.647 Y-21.357 F360.000 E2.12474
G1 X-6.105 Y-21.408 F7800.000
G1 X-6.274 Y-21.577 F360.000 E2.12649
G1 X-5.944 Y-21.577 E2.12890
G1 X-5.775 Y-21.408 E2.13064
G1 X-5.614 Y-21.577 E2.13234
G1 X-5.458 Y-21.421 E2.13396
G1 X-4.143 Y-21.130 F7800.000
G1 X-4.370 Y-21.357 F360.000 E2.13980
G1 X-3.501 Y-19.464 F7800.000
G1 X-3.670 Y-19.633 F360.000 E2.14154
G1 X-3.518 Y-17.501 F7800.000
G1 X-3.591 Y-17.574 F360.000 E2.14230
G1 F1800.000 E1.14230
G92 E0
G1 X3.688 Y-18.500 F7800.000
G1 F1800.000 E1.00000
G1 X3.752 Y-19.029 F540.000 E1.00705
G1 X3.924 Y-19.482 E1.01344
G1 X4.244 Y-19.967 E1.02112
G1 X4.643 Y-20.321 E1.02817
G1 X5.116 Y-20.569 E1.03522
G1 X5.633 Y-20.696 E1.04226
G1 X6.167 Y-20.696 E1.04931
G1 X6.684 Y-20.569 E1.05636
G1 X7.157 Y-20.321 E1.06340
G1 X7.556 Y-19.967 E1.07045
G1 X7.859 Y-19.528 E1.07750
G1 X8.048 Y-19.029 E1.08454
G1 X8.112 Y-18.500 E1.09159
G1 X8.048 Y-17.971 E1.09864
G1 X7.859 Y-17.472 E1.10569
G1 X7.556 Y-17.033 E1.11273
G1 X7.157 Y-16.679 E1.11978
G1 X6.684 Y-16.431 E1.12683
G1 X6.167 Y-16.304 E1.13387
G1 X5.633 Y-16.304 E1.14092
G1 X5.116 Y-16.431 E1.14797
G1 X4.643 Y-16.679 E1.15501
G1 X4.244 Y-17.033 E1.16206
G1 X3.941 Y-17.472 E1.16911
G1 X3.752 Y-17.971 E1.17615
G1 X3.695 Y-18.437 E1.18237
G1 X4.061 Y-18.696 F7800.000
G1 F1800.000 E0.18237
G92 E0
G1 X8.168 Y-12.132 F7800.000
G1 F1800.000 E1.00000
G1 X3.632 Y-12.132 F540.000 E1.05993
G1 X3.632 Y-17.012 E1.12441
G1 X4.402 Y-16.330 E1.13800
G1 X4.965 Y-16.035 E1.14640
G1 X5.582 Y-15.882 E1.15480
G1 X6.218 Y-15.882 E1.16320
G1 X6.835 Y-16.035 E1.17160
G1 X7.398 Y-16.330 E1.18000
G1 X8.168 Y-17.012 E1.19359
G1 X8.168 Y-12.195 E1.25723
G1 X8.168 Y-21.868 F7800.000
G1 X8.168 Y-19.988 F540.000 E1.28207
G1 X7.398 Y-20.670 E1.29566
G1 X6.835 Y-20.965 E1.30406
G1 X6.218 Y-21.118 E1.31246
G1 X5.582 Y-21.118 E1.32086
G1 X4.965 Y-20.965 E1.32926
G1 X4.402 Y-20.670 E1.33766
G1 X3.632 Y-19.988 E1.35125
G1 X3.632 Y-21.868 E1.37609
G1 X8.105 Y-21.868 E1.43518
G1 X8.589 Y-22.289 F7800.000
G1 X8.589 Y-11.711 F540.000 E1.57496
