; generated by Slic3r 0.9.10b on 2013-12-22 at 13:24:30

; layer_height = 0.2
; perimeters = 2
; top_solid_layers = 3
; bottom_solid_layers = 3
; fill_density = 0.4
; perimeter_speed = 30
; infill_speed = 60
; travel_speed = 130
; nozzle_diameter = 0.5
; filament_diameter = 2.85
; extrusion_multiplier = 1
; perimeters extrusion width = 0.85mm
; infill extrusion width = 1.02mm
; solid infill extrusion width = 0.85mm
; top infill extrusion width = 0.85mm
; first layer extrusion width = 0.40mm

G21 ; set units to millimeters
M107
M104 S0
M83
M140 S70
G28
G1Y98F9000
M190 S70
G1X5Y98Z150F9000
M104 S210
G1X5Y98Z1F9000
G1Z0.05
M109 S210
G1Z5
G1X15
;G1E5F50
G90 ; use absolute coordinates
G92 E0
M82 ; use absolute distances for extrusion
G1 F1800.000 E-1.00000
G92 E0
G1 Z0.200 F7800.000
G1 X-8.800 Y-11.920
G1 F1800.000 E1.00000
G1 X8.800 Y-11.920 F540.000 E1.23255
G1 X10.050 Y-11.800 E1.24914
G1 X11.260 Y-11.430 E1.26586
G1 X12.370 Y-10.840 E1.28247
G1 X13.340 Y-10.040 E1.29909
G1 X14.140 Y-9.070 E1.31570
G1 X14.730 Y-7.960 E1.33231
G1 X15.100 Y-6.750 E1.34903
G1 X15.220 Y-5.500 E1.36562
G1 X15.220 Y5.500 E1.51097
G1 X15.100 Y6.750 E1.52756
G1 X14.730 Y7.960 E1.54428
G1 X14.140 Y9.070 E1.56089
G1 X13.340 Y10.040 E1.57750
G1 X12.370 Y10.840 E1.59411
G1 X11.260 Y11.430 E1.61072
G1 X10.050 Y11.800 E1.62744
G1 X8.800 Y11.920 E1.64403
G1 X-8.800 Y11.920 E1.87659
G1 X-10.050 Y11.800 E1.89318
G1 X-11.260 Y11.430 E1.90990
G1 X-12.370 Y10.840 E1.92651
G1 X-13.340 Y10.040 E1.94312
G1 X-14.140 Y9.070 E1.95973
G1 X-14.730 Y7.960 E1.97634
G1 X-15.100 Y6.750 E1.99306
G1 X-15.220 Y5.500 E2.00965
G1 X-15.220 Y-5.500 E2.15500
G1 X-15.100 Y-6.750 E2.17159
G1 X-14.730 Y-7.960 E2.18831
G1 X-14.140 Y-9.070 E2.20492
G1 X-13.340 Y-10.040 E2.22153
G1 X-12.370 Y-10.840 E2.23815
G1 X-11.260 Y-11.430 E2.25476
G1 X-10.050 Y-11.800 E2.27147
G1 X-8.863 Y-11.914 E2.28723
G1 F1800.000 E1.28723
G92 E0
G1 X4.214 Y-2.924 F7800.000
G1 F1800.000 E1.00000
G1 X4.643 Y-3.321 F540.000 E1.00772
G1 X5.116 Y-3.569 E1.01477
G1 X5.633 Y-3.696 E1.02181
G1 X6.167 Y-3.696 E1.02886
G1 X6.684 Y-3.569 E1.03591
G1 X7.157 Y-3.321 E1.04295
G1 X7.556 Y-2.967 E1.05000
G1 X7.859 Y-2.528 E1.05705
G1 X8.048 Y-2.029 E1.06410
G1 X8.112 Y-1.500 E1.07114
G1 X8.048 Y-0.971 E1.07819
G1 X7.859 Y-0.472 E1.08524
G1 X7.556 Y-0.033 E1.09228
G1 X7.157 Y0.321 E1.09933
G1 X6.684 Y0.569 E1.10638
G1 X6.167 Y0.696 E1.11342
G1 X5.633 Y0.696 E1.12047
G1 X5.116 Y0.569 E1.12752
G1 X4.643 Y0.321 E1.13456
G1 X4.244 Y-0.033 E1.14161
G1 X3.941 Y-0.472 E1.14866
G1 X3.752 Y-0.971 E1.15570
G1 X3.688 Y-1.500 E1.16275
G1 X3.752 Y-2.029 E1.16980
G1 X3.941 Y-2.528 E1.17685
G1 X4.178 Y-2.872 E1.18236
G1 X4.625 Y-2.829 F7800.000
G1 F1800.000 E0.18236
G92 E0
G1 X3.632 Y-0.012 F7800.000
G1 F1800.000 E1.00000
G1 X4.402 Y0.670 F540.000 E1.01359
G1 X4.965 Y0.965 E1.02199
G1 X5.582 Y1.118 E1.03039
G1 X6.218 Y1.118 E1.03879
G1 X6.835 Y0.965 E1.04719
G1 X7.398 Y0.670 E1.05559
G1 X8.168 Y-0.012 E1.06918
G1 X8.168 Y4.868 E1.13366
G1 X3.632 Y4.868 E1.19359
G1 X3.632 Y0.051 E1.25723
G1 F1800.000 E0.25723
G92 E0
G1 X8.168 Y-4.868 F7800.000
G1 F1800.000 E1.00000
G1 X8.168 Y-2.988 F540.000 E1.02484
G1 X7.398 Y-3.670 E1.03843
G1 X6.835 Y-3.965 E1.04683
G1 X6.218 Y-4.118 E1.05523
G1 X5.582 Y-4.118 E1.06363
G1 X4.965 Y-3.965 E1.07203
G1 X4.402 Y-3.670 E1.08043
G1 X3.632 Y-2.988 E1.09402
G1 X3.632 Y-4.868 E1.11886
G1 X8.105 Y-4.868 E1.17795
G1 X8.589 Y-5.289 F7800.000
G1 X8.589 Y5.289 F540.000 E1.31773
G1 X3.211 Y5.289 E1.38879
G1 X3.211 Y-5.289 E1.52857
G1 X8.526 Y-5.289 E1.59880
G1 X8.379 Y-4.924 F7800.000
G1 X7.773 Y0.818
G1 X7.862 Y0.907 F1080.000 E1.60050
G1 X7.862 Y1.516 E1.60873
G1 X7.374 Y1.028 E1.61806
G1 X6.974 Y1.237 E1.62416
G1 X7.862 Y2.126 E1.64112
G1 X7.862 Y2.735 E1.64935
G1 X6.492 Y1.365 E1.67552
G1 X5.941 Y1.423 E1.68299
G1 X7.862 Y3.344 E1.71968
G1 X7.862 Y3.953 E1.72791
G1 X5.263 Y1.353 E1.77756
G1 X4.219 Y0.919 E1.79283
G1 X7.862 Y4.562 E1.86241
G1 X7.253 Y4.562 E1.87064
G1 X3.938 Y1.247 E1.93396
G1 X3.938 Y1.856 E1.94219
G1 X6.644 Y4.562 E1.99388
G1 X6.035 Y4.562 E2.00211
G1 X3.938 Y2.465 E2.04216
G1 X3.938 Y3.074 E2.05039
G1 X5.426 Y4.562 E2.07881
G1 X4.816 Y4.562 E2.08704
G1 X3.938 Y3.684 E2.10382
G1 X3.938 Y4.293 E2.11205
G1 X4.207 Y4.562 E2.11720
G1 X3.593 Y-0.570 F7800.000
G1 X3.501 Y-0.662 F360.000 E2.11815
G1 X3.535 Y-2.278 F7800.000
G1 X3.501 Y-2.312 F360.000 E2.11850
G1 X3.626 Y-2.517 E2.12025
G1 X3.585 Y-2.558 E2.12067
G1 X4.311 Y-4.199 F7800.000
G1 X4.153 Y-4.357 F360.000 E2.12473
G1 X5.695 Y-4.408 F7800.000
G1 X5.526 Y-4.577 F360.000 E2.12648
G1 X5.856 Y-4.577 E2.12889
G1 X6.025 Y-4.408 E2.13063
G1 X6.186 Y-4.577 E2.13234
G1 X6.342 Y-4.421 E2.13396
G1 X7.657 Y-4.130 F7800.000
G1 X7.430 Y-4.357 F360.000 E2.13980
G1 X8.299 Y-2.464 F7800.000
G1 X8.130 Y-2.633 F360.000 E2.14154
G1 X8.282 Y-0.501 F7800.000
G1 X8.209 Y-0.574 F360.000 E2.14230
G1 F1800.000 E1.14230
G92 E0
G1 X-3.688 Y-1.500 F7800.000
G1 F1800.000 E1.00000
G1 X-3.752 Y-0.971 F540.000 E1.00705
G1 X-3.941 Y-0.472 E1.01409
G1 X-4.244 Y-0.033 E1.02114
G1 X-4.643 Y0.321 E1.02819
G1 X-5.116 Y0.569 E1.03523
G1 X-5.633 Y0.696 E1.04228
G1 X-6.167 Y0.696 E1.04933
G1 X-6.684 Y0.569 E1.05637
G1 X-7.157 Y0.321 E1.06342
G1 X-7.556 Y-0.033 E1.07047
G1 X-7.859 Y-0.472 E1.07752
G1 X-8.048 Y-0.971 E1.08456
G1 X-8.112 Y-1.500 E1.09161
G1 X-8.048 Y-2.029 E1.09866
G1 X-7.877 Y-2.479 E1.10501
G1 X-7.556 Y-2.967 E1.11273
G1 X-7.157 Y-3.321 E1.11978
G1 X-6.684 Y-3.569 E1.12683
G1 X-6.167 Y-3.696 E1.13387
G1 X-5.633 Y-3.696 E1.14092
G1 X-5.116 Y-3.569 E1.14797
G1 X-4.643 Y-3.321 E1.15501
G1 X-4.244 Y-2.967 E1.16206
G1 X-3.941 Y-2.528 E1.16911
G1 X-3.752 Y-2.029 E1.17615
G1 X-3.695 Y-1.563 E1.18236
G1 X-4.061 Y-1.304 F7800.000
G1 X-3.632 Y-0.012
G1 X-3.632 Y4.868 F540.000 E1.24684
G1 X-8.168 Y4.868 E1.30677
G1 X-8.168 Y-0.012 E1.37125
G1 X-7.398 Y0.670 E1.38484
G1 X-6.835 Y0.965 E1.39324
G1 X-6.218 Y1.118 E1.40164
G1 X-5.582 Y1.118 E1.41004
G1 X-4.965 Y0.965 E1.41844
G1 X-4.402 Y0.670 E1.42684
G1 X-3.680 Y0.030 E1.43959
G1 X-3.632 Y-4.868 F7800.000
G1 X-3.632 Y-2.988 F540.000 E1.46443
G1 X-4.402 Y-3.670 E1.47802
G1 X-4.965 Y-3.965 E1.48642
G1 X-5.582 Y-4.118 E1.49482
G1 X-6.218 Y-4.118 E1.50322
G1 X-6.835 Y-3.965 E1.51162
G1 X-7.398 Y-3.670 E1.52002
G1 X-8.168 Y-2.988 E1.53361
G1 X-8.168 Y-4.868 E1.55845
G1 X-3.695 Y-4.868 E1.61754
G1 X-3.211 Y-5.289 F7800.000
G1 X-3.211 Y5.289 F540.000 E1.75732
G1 X-8.589 Y5.289 E1.82839
G1 X-8.589 Y-5.289 E1.96816
G1 X-3.274 Y-5.289 E2.03840
G1 X-3.421 Y-4.924 F7800.000
G1 X-4.027 Y0.818
G1 X-3.938 Y0.907 F1080.000 E2.04010
G1 X-3.938 Y1.516 E2.04832
G1 X-4.426 Y1.028 E2.05766
G1 X-4.826 Y1.237 E2.06375
G1 X-3.938 Y2.126 E2.08071
G1 X-3.938 Y2.735 E2.08894
G1 X-5.308 Y1.365 E2.11511
G1 X-5.859 Y1.423 E2.12259
G1 X-3.938 Y3.344 E2.15927
G1 X-3.938 Y3.953 E2.16750
G1 X-6.537 Y1.353 E2.21715
G1 X-7.581 Y0.919 E2.23242
G1 X-3.938 Y4.562 E2.30201
G1 X-4.547 Y4.562 E2.31023
G1 X-7.862 Y1.247 E2.37356
G1 X-7.862 Y1.856 E2.38179
G1 X-5.156 Y4.562 E2.43348
G1 X-5.765 Y4.562 E2.44170
G1 X-7.862 Y2.465 E2.48176
G1 X-7.862 Y3.074 E2.48998
G1 X-6.374 Y4.562 E2.51840
G1 X-6.984 Y4.562 E2.52663
G1 X-7.862 Y3.684 E2.54341
G1 X-7.862 Y4.293 E2.55164
G1 X-7.593 Y4.562 E2.55679
G1 X-8.207 Y-0.570 F7800.000
G1 X-8.299 Y-0.662 F360.000 E2.55774
G1 X-8.265 Y-2.278 F7800.000
G1 X-8.299 Y-2.312 F360.000 E2.55809
G1 X-8.174 Y-2.517 E2.55984
G1 X-8.215 Y-2.558 E2.56027
G1 X-7.489 Y-4.199 F7800.000
G1 X-7.647 Y-4.357 F360.000 E2.56433
G1 X-6.105 Y-4.408 F7800.000
G1 X-6.274 Y-4.577 F360.000 E2.56607
G1 X-5.944 Y-4.577 E2.56848
G1 X-5.775 Y-4.408 E2.57023
G1 X-5.614 Y-4.577 E2.57193
G1 X-5.458 Y-4.421 E2.57355
G1 X-4.143 Y-4.130 F7800.000
G1 X-4.370 Y-4.357 F360.000 E2.57939
G1 X-3.501 Y-2.464 F7800.000
G1 X-3.670 Y-2.633 F360.000 E2.58114
G1 X-3.518 Y-0.501 F7800.000
G1 X-3.591 Y-0.574 F360.000 E2.58189
M104 S200 ; set temperature
M140 S50 ; set bed temperature
G1 F1800.000 E1.58189
G92 E0
G1 Z0.400 F7800.000
G1 X4.211 Y1.223
G1 F1800.000 E1.00000
G1 X4.758 Y1.510 F600.000 E1.01565
G1 X5.512 Y1.696 E1.03529
G1 X6.288 Y1.696 E1.05493
G1 X7.042 Y1.510 E1.07457
G1 X7.589 Y1.223 E1.09022
G1 X7.589 Y4.289 E1.16781
G1 X4.211 Y4.289 E1.25330
G1 X4.211 Y1.344 E1.32783
G1 X4.533 Y0.481 F7800.000
G1 X5.047 Y0.750 F600.000 E1.34251
G1 X5.610 Y0.889 E1.35719
G1 X6.190 Y0.889 E1.37187
G1 X6.753 Y0.750 E1.38655
G1 X7.267 Y0.481 E1.40123
G1 X7.701 Y0.096 E1.41591
G1 X8.282 Y-0.745 E1.44176
G1 X8.396 Y-0.709 E1.44480
G1 X8.396 Y5.096 E1.59170
G1 X3.404 Y5.096 E1.71803
G1 X3.404 Y-0.709 E1.86493
G1 X3.518 Y-0.745 E1.86798
G1 X4.099 Y0.096 E1.89383
G1 X4.442 Y0.400 E1.90544
G1 X4.510 Y1.060 F7800.000
G1 X3.518 Y-2.255
G1 X3.404 Y-2.291 F600.000 E1.90848
G1 X3.404 Y-5.096 E1.97947
G1 X8.396 Y-5.096 E2.10581
G1 X8.396 Y-2.291 E2.17680
G1 X8.282 Y-2.255 E2.17984
G1 X7.701 Y-3.096 E2.20569
G1 X7.267 Y-3.481 E2.22037
G1 X6.753 Y-3.750 E2.23505
G1 X6.190 Y-3.889 E2.24973
G1 X5.610 Y-3.889 E2.26441
G1 X5.484 Y-3.858 E2.26768
G1 X5.047 Y-3.750 E2.27909
G1 X4.533 Y-3.481 E2.29377
G1 X4.099 Y-3.096 E2.30845
G1 X3.587 Y-2.355 E2.33123
G1 X3.446 Y-2.351 F7800.000
G1 X3.501 Y-1.500
G1 X3.866 Y-0.857 F600.000 E2.34993
G1 X3.324 Y-1.500 F7800.000
G1 X3.587 Y-1.659 F600.000 E2.35770
G1 X3.587 Y-1.659 F7800.000
G1 X3.866 Y-2.143 F600.000 E2.37182
G1 F1800.000 E1.37182
G92 E0
G1 X7.934 Y-2.143 F7800.000
G1 F1800.000 E1.00000
G1 X8.263 Y-1.567 F600.000 E1.01678
G1 X8.188 Y-1.344 E1.02273
G1 X8.188 Y-1.344 F7800.000
G1 X8.041 Y-1.119 F600.000 E1.02954
G1 X8.041 Y-1.119 F7800.000
G1 X7.889 Y-0.875 F600.000 E1.03681
G1 X7.004 Y3.563 F7800.000
G1 X6.863 Y3.704 F953.645 E1.04208
G1 X5.675 Y3.704 E1.07336
G1 X7.004 Y2.375 E1.12287
G1 X5.910 Y2.281 E1.15179
G1 X4.796 Y3.396 E1.19330
G1 F1800.000 E0.19330
G92 E0
G1 X6.331 Y-4.511 F7800.000
G1 F1800.000 E1.00000
G1 X6.278 Y-4.458 F600.000 E1.00090
G1 X5.803 Y-4.523 E1.00664
G1 X5.742 Y-4.462 E1.00767
G1 F1800.000 E0.00767
G92 E0
G1 X-4.211 Y1.223 F7800.000
G1 F1800.000 E1.00000
G1 X-4.211 Y4.289 F600.000 E1.07759
G1 X-7.589 Y4.289 E1.16308
G1 X-7.589 Y1.223 E1.24068
G1 X-7.042 Y1.510 E1.25633
G1 X-6.288 Y1.696 E1.27597
G1 X-5.512 Y1.696 E1.29560
G1 X-4.758 Y1.510 E1.31524
G1 X-4.318 Y1.279 E1.32783
G1 X-4.647 Y0.541 F7800.000
G1 X-4.533 Y0.481 F600.000 E1.33110
G1 X-4.099 Y0.096 E1.34578
G1 X-3.518 Y-0.745 E1.37163
G1 X-3.404 Y-0.709 E1.37468
G1 X-3.404 Y5.096 E1.52158
G1 X-8.396 Y5.096 E1.64791
G1 X-8.396 Y-0.709 E1.79481
G1 X-8.282 Y-0.745 E1.79785
G1 X-7.701 Y0.096 E1.82370
G1 X-7.267 Y0.481 E1.83838
G1 X-6.753 Y0.750 E1.85306
G1 X-6.190 Y0.889 E1.86774
G1 X-5.610 Y0.889 E1.88242
G1 X-5.047 Y0.750 E1.89710
G1 X-4.755 Y0.597 E1.90544
G1 X-4.538 Y0.610 F7800.000
G1 X-3.518 Y-2.255
G1 X-4.099 Y-3.096 F600.000 E1.93129
G1 X-4.533 Y-3.481 E1.94597
G1 X-5.047 Y-3.750 E1.96065
G1 X-5.610 Y-3.889 E1.97533
G1 X-6.190 Y-3.889 E1.99001
G1 X-6.316 Y-3.858 E1.99328
G1 X-6.753 Y-3.750 E2.00469
G1 X-7.267 Y-3.481 E2.01937
G1 X-7.701 Y-3.096 E2.03405
G1 X-8.282 Y-2.255 E2.05990
G1 X-8.396 Y-2.291 E2.06294
G1 X-8.396 Y-5.096 E2.13393
G1 X-3.404 Y-5.096 E2.26026
G1 X-3.404 Y-2.292 E2.33123
G1 X-3.825 Y-3.002 F7800.000
G1 F1800.000 E1.33123
G92 E0
G1 X-8.299 Y-1.500 F7800.000
G1 F1800.000 E1.00000
G1 X-7.934 Y-0.857 F600.000 E1.01869
G1 X-8.476 Y-1.500 F7800.000
G1 X-8.213 Y-1.659 F600.000 E1.02647
G1 X-8.213 Y-1.659 F7800.000
G1 X-7.934 Y-2.143 F600.000 E1.04058
G1 F1800.000 E0.04058
G92 E0
G1 X-3.866 Y-2.143 F7800.000
G1 F1800.000 E1.00000
G1 X-3.537 Y-1.567 F600.000 E1.01678
G1 X-3.612 Y-1.344 E1.02273
G1 X-3.612 Y-1.344 F7800.000
G1 X-3.759 Y-1.119 F600.000 E1.02954
G1 X-3.759 Y-1.119 F7800.000
G1 X-3.911 Y-0.875 F600.000 E1.03681
G1 X-4.796 Y3.563 F7800.000
G1 X-4.937 Y3.704 F953.645 E1.04208
G1 X-6.125 Y3.704 E1.07336
G1 X-4.796 Y2.375 E1.12287
G1 X-5.890 Y2.281 E1.15179
G1 X-7.004 Y3.396 E1.19330
G1 F1800.000 E0.19330
G92 E0
G1 X-5.469 Y-4.511 F7800.000
G1 F1800.000 E1.00000
G1 X-5.522 Y-4.458 F600.000 E1.00090
G1 X-5.997 Y-4.523 E1.00664
G1 X-6.058 Y-4.462 E1.00767
G1 F1800.000 E0.00767
G92 E0
G1 Z0.600 F7800.000
G1 X7.589 Y4.289
G1 F1800.000 E1.00000
G1 X4.211 Y4.289 F600.000 E1.08549
G1 X4.211 Y1.223 E1.16308
G1 X4.758 Y1.510 E1.17874
G1 X5.512 Y1.696 E1.19837
G1 X6.288 Y1.696 E1.21801
G1 X7.042 Y1.510 E1.23765
G1 X7.589 Y1.223 E1.25330
G1 X7.589 Y4.168 E1.32783
G1 X8.396 Y5.096 F7800.000
G1 X3.404 Y5.096 F600.000 E1.45417
G1 X3.404 Y-0.709 E1.60106
G1 X3.518 Y-0.745 E1.60411
G1 X4.099 Y0.096 E1.62996
G1 X4.533 Y0.481 E1.64464
G1 X5.047 Y0.750 E1.65932
G1 X5.610 Y0.889 E1.67400
G1 X6.190 Y0.889 E1.68867
G1 X6.753 Y0.750 E1.70335
G1 X7.267 Y0.481 E1.71803
G1 X7.701 Y0.096 E1.73271
G1 X8.282 Y-0.745 E1.75856
G1 X8.396 Y-0.709 E1.76161
G1 X8.396 Y4.975 E1.90544
G1 X7.698 Y4.693 F7800.000
G1 X8.282 Y-2.255
G1 X7.701 Y-3.096 F600.000 E1.93129
G1 X7.267 Y-3.481 E1.94597
G1 X6.753 Y-3.750 E1.96065
G1 X6.190 Y-3.889 E1.97533
G1 X5.610 Y-3.889 E1.99001
G1 X5.432 Y-3.845 E1.99464
G1 X5.047 Y-3.750 E2.00469
G1 X4.533 Y-3.481 E2.01937
G1 X4.099 Y-3.096 E2.03405
G1 X3.518 Y-2.255 E2.05990
G1 X3.404 Y-2.291 E2.06294
G1 X3.404 Y-5.096 E2.13393
G1 X8.396 Y-5.096 E2.26026
G1 X8.396 Y-2.292 E2.33123
G1 X7.975 Y-3.002 F7800.000
G1 F1800.000 E1.33123
G92 E0
G1 X3.501 Y-1.500 F7800.000
G1 F1800.000 E1.00000
G1 X3.866 Y-0.857 F600.000 E1.01869
G1 X3.324 Y-1.500 F7800.000
G1 X3.587 Y-1.659 F600.000 E1.02647
G1 X3.587 Y-1.659 F7800.000
G1 X3.866 Y-2.143 F600.000 E1.04058
G1 F1800.000 E0.04058
G92 E0
G1 X7.934 Y-2.143 F7800.000
G1 F1800.000 E1.00000
G1 X8.263 Y-1.567 F600.000 E1.01678
G1 X8.188 Y-1.344 E1.02273
G1 X8.188 Y-1.344 F7800.000
G1 X8.041 Y-1.119 F600.000 E1.02954
G1 X8.041 Y-1.119 F7800.000
G1 X7.889 Y-0.875 F600.000 E1.03681
G1 X5.916 Y2.281 F7800.000
G1 X7.004 Y3.369 F954.649 E1.07734
G1 X6.152 Y3.704 E1.10147
G1 X4.796 Y2.348 E1.15197
G1 X4.796 Y3.536 E1.18325
G1 X4.964 Y3.704 E1.18951
G1 F1800.000 E0.18951
G92 E0
G1 X5.760 Y-4.462 F7800.000
G1 F1800.000 E1.00000
G1 X5.700 Y-4.523 F600.000 E1.00103
G1 X6.240 Y-4.523 E1.00749
G1 X6.314 Y-4.449 E1.00874
G1 F1800.000 E0.00874
G92 E0
G1 X-7.589 Y4.289 F7800.000
G1 F1800.000 E1.00000
G1 X-7.589 Y1.223 F600.000 E1.07759
G1 X-7.042 Y1.510 E1.09324
G1 X-6.288 Y1.696 E1.11288
G1 X-5.512 Y1.696 E1.13252
G1 X-4.758 Y1.510 E1.15216
G1 X-4.211 Y1.223 E1.16781
G1 X-4.211 Y4.289 E1.24540
G1 X-7.468 Y4.289 E1.32783
G1 X-8.396 Y5.096 F7800.000
G1 X-8.396 Y-0.709 F600.000 E1.47473
G1 X-8.282 Y-0.745 E1.47777
G1 X-7.701 Y0.096 E1.50362
G1 X-7.267 Y0.481 E1.51830
G1 X-6.753 Y0.750 E1.53298
G1 X-6.190 Y0.889 E1.54766
G1 X-5.610 Y0.889 E1.56234
G1 X-5.047 Y0.750 E1.57702
G1 X-4.533 Y0.481 E1.59170
G1 X-4.099 Y0.096 E1.60638
G1 X-3.518 Y-0.745 E1.63223
G1 X-3.404 Y-0.709 E1.63527
G1 X-3.404 Y5.096 E1.78217
G1 X-8.275 Y5.096 E1.90544
G1 X-7.993 Y4.398 F7800.000
G1 X-8.282 Y-2.255
G1 X-8.396 Y-2.291 F600.000 E1.90848
G1 X-8.396 Y-5.096 E1.97947
G1 X-3.404 Y-5.096 E2.10581
G1 X-3.404 Y-2.291 E2.17680
G1 X-3.518 Y-2.255 E2.17984
G1 X-4.099 Y-3.096 E2.20569
G1 X-4.533 Y-3.481 E2.22037
G1 X-5.047 Y-3.750 E2.23505
G1 X-5.610 Y-3.889 E2.24973
G1 X-6.190 Y-3.889 E2.26441
G1 X-6.368 Y-3.845 E2.26904
G1 X-6.753 Y-3.750 E2.27909
G1 X-7.267 Y-3.481 E2.29377
G1 X-7.701 Y-3.096 E2.30845
G1 X-8.213 Y-2.355 E2.33123
G1 X-8.354 Y-2.351 F7800.000
G1 X-8.299 Y-1.500
G1 X-7.934 Y-0.857 F600.000 E2.34993
G1 X-8.476 Y-1.500 F7800.000
G1 X-8.213 Y-1.659 F600.000 E2.35770
G1 X-8.213 Y-1.659 F7800.000
G1 X-7.934 Y-2.143 F600.000 E2.37182
G1 F1800.000 E1.37182
G92 E0
G1 X-3.866 Y-2.143 F7800.000
G1 F1800.000 E1.00000
G1 X-3.537 Y-1.567 F600.000 E1.01678
G1 X-3.612 Y-1.344 E1.02273
G1 X-3.612 Y-1.344 F7800.000
G1 X-3.759 Y-1.119 F600.000 E1.02954
G1 X-3.759 Y-1.119 F7800.000
G1 X-3.911 Y-0.875 F600.000 E1.03681
G1 X-5.884 Y2.281 F7800.000
G1 X-4.796 Y3.369 F954.649 E1.07734
G1 X-5.648 Y3.704 E1.10147
G1 X-7.004 Y2.348 E1.15197
G1 X-7.004 Y3.536 E1.18325
G1 X-6.836 Y3.704 E1.18951
G1 F1800.000 E0.18951
G92 E0
G1 X-6.040 Y-4.462 F7800.000
G1 F1800.000 E1.00000
G1 X-6.100 Y-4.523 F600.000 E1.00103
G1 X-5.560 Y-4.523 E1.00749
