; generated by Slic3r 0.9.10b on 2013-12-22 at 08:43:28

; layer_height = 0.2
; perimeters = 2
; top_solid_layers = 3
; bottom_solid_layers = 3
; fill_density = 0.4
; perimeter_speed = 30
; infill_speed = 60
; travel_speed = 130
; nozzle_diameter = 0.5
; filament_diameter = 2.85
; extrusion_multiplier = 1
; perimeters extrusion width = 0.85mm
; infill extrusion width = 1.02mm
; solid infill extrusion width = 0.85mm
; top infill extrusion width = 0.85mm
; first layer extrusion width = 0.40mm

G21 ; set units to millimeters
M107
M104 S0
M83
M140 S70
G28
G1Y98F9000
M190 S70
G1X5Y98Z150F9000
M104 S210
G1X5Y98Z1F9000
G1Z0.05
M109 S210
G1Z5
G1X15
;G1E5F50
G90 ; use absolute coordinates
G92 E0
M82 ; use absolute distances for extrusion
G1 F1800.000 E-1.00000
G92 E0
G1 Z0.200 F7800.000
G1 X14.063 Y1.247
G1 F1800.000 E1.00000
G1 X14.083 Y1.827 F540.000 E1.00767
G1 X14.083 Y12.827 E1.15301
G1 X13.963 Y14.077 E1.16961
G1 X13.593 Y15.287 E1.18632
G1 X13.003 Y16.397 E1.20293
G1 X12.203 Y17.367 E1.21955
G1 X11.233 Y18.167 E1.23616
G1 X10.123 Y18.757 E1.25277
G1 X8.913 Y19.127 E1.26949
G1 X7.663 Y19.247 E1.28608
G1 X-7.067 Y19.247 E1.48071
G1 X-8.457 Y19.097 E1.49918
G1 X-9.787 Y18.647 E1.51774
G1 X-10.987 Y17.917 E1.53630
G1 X-11.997 Y16.947 E1.55480
G1 X-12.767 Y15.777 E1.57331
G1 X-13.277 Y14.477 E1.59176
G1 X-13.487 Y13.087 E1.61033
G1 X-14.087 Y-1.573 E1.80420
G1 X-14.087 Y-12.833 E1.95298
G1 X-13.967 Y-14.083 E1.96957
G1 X-13.597 Y-15.293 E1.98629
G1 X-13.007 Y-16.403 E2.00290
G1 X-12.207 Y-17.373 E2.01951
G1 X-11.237 Y-18.173 E2.03613
G1 X-10.127 Y-18.763 E2.05274
G1 X-8.917 Y-19.133 E2.06946
G1 X-7.667 Y-19.253 E2.08605
G1 X-1.967 Y-19.253 E2.16136
G1 X-1.457 Y-19.233 E2.16811
G1 X6.903 Y-18.573 E2.27891
G1 X8.163 Y-18.343 E2.29584
G1 X9.353 Y-17.873 E2.31274
G1 X10.433 Y-17.173 E2.32975
G1 X11.343 Y-16.263 E2.34675
G1 X12.053 Y-15.203 E2.36361
G1 X12.543 Y-14.013 E2.38061
G1 X12.793 Y-12.753 E2.39759
G1 X14.058 Y1.184 E2.58250
G1 F1800.000 E1.58250
G92 E0
G1 X-2.858 Y-7.805 F7800.000
G1 F1800.000 E1.00000
G1 X-3.161 Y-7.366 F540.000 E1.00705
G1 X-3.560 Y-7.013 E1.01409
G1 X-4.032 Y-6.765 E1.02114
G1 X-4.550 Y-6.637 E1.02819
G1 X-5.083 Y-6.637 E1.03523
G1 X-5.601 Y-6.765 E1.04228
G1 X-6.073 Y-7.013 E1.04933
G1 X-6.473 Y-7.366 E1.05638
G1 X-6.776 Y-7.805 E1.06342
G1 X-6.965 Y-8.304 E1.07047
G1 X-7.029 Y-8.833 E1.07752
G1 X-6.965 Y-9.363 E1.08456
G1 X-6.776 Y-9.861 E1.09161
G1 X-6.473 Y-10.300 E1.09866
G1 X-6.108 Y-10.624 E1.10510
G1 X-5.601 Y-10.902 E1.11273
G1 X-5.083 Y-11.029 E1.11978
G1 X-4.550 Y-11.029 E1.12683
G1 X-4.032 Y-10.902 E1.13387
G1 X-3.560 Y-10.654 E1.14092
G1 X-3.161 Y-10.300 E1.14797
G1 X-2.858 Y-9.861 E1.15501
G1 X-2.669 Y-9.363 E1.16206
G1 X-2.604 Y-8.833 E1.16911
G1 X-2.669 Y-8.304 E1.17616
G1 X-2.835 Y-7.864 E1.18237
G1 X-3.279 Y-7.805 F7800.000
G1 F1800.000 E0.18237
G92 E0
G1 X-7.034 Y-2.466 F7800.000
G1 F1800.000 E1.00000
G1 X-7.034 Y-7.301 F540.000 E1.06389
G1 X-6.315 Y-6.663 E1.07660
G1 X-5.752 Y-6.368 E1.08500
G1 X-5.135 Y-6.216 E1.09340
G1 X-4.499 Y-6.216 E1.10180
G1 X-3.882 Y-6.368 E1.11020
G1 X-3.319 Y-6.663 E1.11860
G1 X-2.599 Y-7.301 E1.13131
G1 X-2.599 Y-2.466 E1.19520
G1 X-6.971 Y-2.466 E1.25297
G1 F1800.000 E0.25297
G92 E0
G1 X-2.599 Y-12.201 F7800.000
G1 F1800.000 E1.00000
G1 X-2.599 Y-10.366 F540.000 E1.02425
G1 X-3.319 Y-11.003 E1.03696
G1 X-3.882 Y-11.299 E1.04536
G1 X-4.499 Y-11.451 E1.05376
G1 X-5.134 Y-11.451 E1.06216
G1 X-5.752 Y-11.299 E1.07056
G1 X-6.315 Y-11.003 E1.07896
G1 X-7.034 Y-10.366 E1.09167
G1 X-7.034 Y-12.201 E1.11592
G1 X-2.662 Y-12.201 E1.17369
G1 X-2.177 Y-12.623 F7800.000
G1 X-2.177 Y-2.044 F540.000 E1.31347
G1 X-7.456 Y-2.044 E1.38322
G1 X-7.456 Y-12.623 E1.52299
G1 X-2.241 Y-12.623 E1.59190
G1 X-2.388 Y-12.258 F7800.000
G1 X-2.965 Y-6.504
G1 X-2.904 Y-6.443 F1080.000 E1.59306
G1 X-2.904 Y-5.837 E1.60119
G1 X-3.362 Y-6.295 E1.60989
G1 X-3.760 Y-6.087 E1.61591
G1 X-2.904 Y-5.232 E1.63215
G1 X-2.904 Y-4.626 E1.64028
G1 X-4.243 Y-5.964 E1.66568
G1 X-4.794 Y-5.910 E1.67312
G1 X-2.904 Y-4.021 E1.70900
G1 X-2.904 Y-3.415 E1.71713
G1 X-5.474 Y-5.985 E1.76592
G1 X-6.522 Y-6.427 E1.78119
G1 X-2.904 Y-2.809 E1.84988
G1 X-3.471 Y-2.771 E1.85751
G1 X-6.729 Y-6.029 E1.91936
G1 X-6.729 Y-5.423 E1.92749
G1 X-4.077 Y-2.771 E1.97784
G1 X-4.683 Y-2.771 E1.98597
G1 X-6.729 Y-4.817 E2.02482
G1 X-6.729 Y-4.212 E2.03295
G1 X-5.288 Y-2.771 E2.06030
G1 X-5.894 Y-2.771 E2.06843
G1 X-6.729 Y-3.606 E2.08429
G1 X-6.729 Y-3.001 E2.09242
G1 X-6.499 Y-2.771 E2.09678
G1 X-2.517 Y-7.762 F7800.000
G1 X-2.551 Y-7.795 F360.000 E2.09713
G1 X-2.468 Y-9.708 F7800.000
G1 X-2.502 Y-9.742 F360.000 E2.09747
G1 X-3.518 Y-11.684 F7800.000
G1 X-3.524 Y-11.691 F360.000 E2.09763
G1 X-4.336 Y-11.909 F7800.000
G1 X-4.338 Y-11.911 F360.000 E2.09764
G1 X-4.670 Y-11.911 F7800.000
G1 X-4.501 Y-11.742 F360.000 E2.09939
G1 X-5.003 Y-11.911 F7800.000
G1 X-4.834 Y-11.742 F360.000 E2.10113
G1 X-5.167 Y-11.742 F7800.000
G1 X-5.285 Y-11.860 F360.000 E2.10236
G1 X-7.048 Y-9.964 F7800.000
G1 X-7.049 Y-9.965 F360.000 E2.10237
G1 X-7.139 Y-9.722 F7800.000
G1 X-7.165 Y-9.749 F360.000 E2.10264
G1 F1800.000 E1.10264
G92 E0
G1 X1.402 Y-8.696 F7800.000
G1 F1800.000 E1.00000
G1 X1.591 Y-9.195 F540.000 E1.00705
G1 X1.894 Y-9.634 E1.01409
G1 X2.293 Y-9.987 E1.02114
G1 X2.766 Y-10.235 E1.02819
G1 X3.239 Y-10.352 E1.03463
G1 X3.817 Y-10.363 E1.04226
G1 X4.334 Y-10.235 E1.04931
G1 X4.807 Y-9.987 E1.05636
G1 X5.206 Y-9.634 E1.06341
G1 X5.483 Y-9.232 E1.06985
G1 X5.698 Y-8.696 E1.07748
G1 X5.762 Y-8.167 E1.08453
G1 X5.698 Y-7.637 E1.09158
G1 X5.483 Y-7.101 E1.09921
G1 X5.206 Y-6.700 E1.10565
G1 X4.807 Y-6.346 E1.11270
G1 X4.334 Y-6.098 E1.11975
G1 X3.817 Y-5.971 E1.12679
G1 X3.283 Y-5.971 E1.13384
G1 X2.766 Y-6.098 E1.14089
G1 X2.293 Y-6.346 E1.14794
G1 X1.894 Y-6.700 E1.15498
G1 X1.591 Y-7.139 E1.16203
G1 X1.402 Y-7.637 E1.16908
G1 X1.338 Y-8.167 E1.17612
G1 X1.394 Y-8.633 E1.18233
G1 X1.811 Y-8.797 F7800.000
G1 F1800.000 E0.18233
G92 E0
G1 X5.768 Y-1.799 F7800.000
G1 F1800.000 E1.00000
G1 X1.332 Y-1.799 F540.000 E1.05861
G1 X1.332 Y-6.634 E1.12250
G1 X2.052 Y-5.997 E1.13521
G1 X2.615 Y-5.701 E1.14361
G1 X3.232 Y-5.549 E1.15201
G1 X3.868 Y-5.549 E1.16041
G1 X4.485 Y-5.701 E1.16881
G1 X5.048 Y-5.997 E1.17721
G1 X5.768 Y-6.634 E1.18991
G1 X5.768 Y-1.862 E1.25297
G1 F1800.000 E0.25297
G92 E0
G1 X1.332 Y-9.699 F7800.000
G1 F1800.000 E1.00000
G1 X1.332 Y-11.534 F540.000 E1.02425
G1 X5.768 Y-11.534 E1.08286
G1 X5.768 Y-9.699 E1.10712
G1 X5.048 Y-10.337 E1.11982
G1 X4.485 Y-10.632 E1.12822
G1 X3.868 Y-10.784 E1.13662
G1 X3.232 Y-10.784 E1.14502
G1 X2.615 Y-10.632 E1.15342
G1 X2.052 Y-10.337 E1.16182
G1 X1.380 Y-9.741 E1.17369
G1 X0.911 Y-11.956 F7800.000
G1 X6.189 Y-11.956 F540.000 E1.24344
G1 X6.189 Y-1.377 E1.38322
G1 X0.911 Y-1.377 E1.45296
G1 X0.911 Y-11.893 E1.59190
G1 X1.276 Y-11.745 F7800.000
G1 F1800.000 E0.59190
G92 E0
G1 X5.401 Y-5.837 F7800.000
G1 F1800.000 E1.00000
G1 X5.462 Y-5.776 F1080.000 E1.00116
G1 X5.462 Y-5.171 E1.00929
G1 X5.004 Y-5.629 E1.01799
G1 X4.607 Y-5.420 E1.02401
G1 X5.462 Y-4.565 E1.04025
G1 X5.462 Y-3.959 E1.04837
G1 X4.124 Y-5.298 E1.07378
G1 X3.573 Y-5.244 E1.08122
G1 X5.462 Y-3.354 E1.11710
G1 X5.462 Y-2.748 E1.12523
G1 X2.892 Y-5.318 E1.17402
G1 X1.844 Y-5.761 E1.18929
G1 X5.462 Y-2.143 E1.25798
G1 X4.895 Y-2.104 E1.26561
G1 X1.638 Y-5.362 E1.32746
G1 X1.638 Y-4.756 E1.33559
G1 X4.290 Y-2.104 E1.38593
G1 X3.684 Y-2.104 E1.39406
G1 X1.638 Y-4.151 E1.43292
G1 X1.638 Y-3.545 E1.44105
G1 X3.078 Y-2.104 E1.46840
G1 X2.473 Y-2.104 E1.47653
G1 X1.638 Y-2.940 E1.49239
G1 X1.638 Y-2.334 E1.50052
G1 X1.867 Y-2.104 E1.50488
G1 X5.849 Y-7.095 F7800.000
G1 X5.816 Y-7.129 F360.000 E1.50523
G1 X5.899 Y-9.042 F7800.000
G1 X5.865 Y-9.075 F360.000 E1.50557
G1 X4.849 Y-11.018 F7800.000
G1 X4.843 Y-11.024 F360.000 E1.50573
G1 X4.030 Y-11.242 F7800.000
G1 X4.029 Y-11.244 F360.000 E1.50574
G1 X3.696 Y-11.244 F7800.000
G1 X3.865 Y-11.075 F360.000 E1.50749
G1 X3.364 Y-11.244 F7800.000
G1 X3.533 Y-11.075 F360.000 E1.50923
G1 X3.200 Y-11.075 F7800.000
G1 X3.082 Y-11.193 F360.000 E1.51046
G1 X1.319 Y-9.297 F7800.000
G1 X1.318 Y-9.298 F360.000 E1.51047
G1 X1.228 Y-9.056 F7800.000
G1 X1.201 Y-9.082 F360.000 E1.51074
G1 F1800.000 E0.51074
G92 E0
G1 X4.506 Y3.648 F7800.000
G1 F1800.000 E1.00000
G1 X5.083 Y3.637 F540.000 E1.00763
G1 X5.601 Y3.765 E1.01468
G1 X6.073 Y4.013 E1.02173
G1 X6.473 Y4.366 E1.02877
G1 X6.750 Y4.768 E1.03522
G1 X6.965 Y5.304 E1.04285
G1 X7.029 Y5.833 E1.04990
G1 X6.965 Y6.363 E1.05695
G1 X6.750 Y6.899 E1.06458
G1 X6.473 Y7.300 E1.07102
G1 X6.073 Y7.654 E1.07807
G1 X5.601 Y7.902 E1.08512
G1 X5.083 Y8.029 E1.09216
G1 X4.550 Y8.029 E1.09921
G1 X4.032 Y7.902 E1.10626
G1 X3.560 Y7.654 E1.11330
G1 X3.161 Y7.300 E1.12035
G1 X2.858 Y6.861 E1.12740
G1 X2.669 Y6.363 E1.13445
G1 X2.604 Y5.833 E1.14149
G1 X2.669 Y5.304 E1.14854
G1 X2.858 Y4.805 E1.15559
G1 X3.161 Y4.366 E1.16263
G1 X3.560 Y4.013 E1.16968
G1 X4.032 Y3.765 E1.17673
G1 X4.444 Y3.663 E1.18233
G1 X4.749 Y3.992 F7800.000
G1 F1800.000 E0.18233
G92 E0
G1 X7.034 Y12.201 F7800.000
G1 F1800.000 E1.00000
G1 X2.599 Y12.201 F540.000 E1.05861
G1 X2.599 Y7.366 E1.12250
G1 X3.319 Y8.003 E1.13521
G1 X3.882 Y8.299 E1.14361
G1 X4.499 Y8.451 E1.15201
G1 X5.135 Y8.451 E1.16041
G1 X5.752 Y8.299 E1.16881
G1 X6.315 Y8.003 E1.17721
G1 X7.034 Y7.366 E1.18991
G1 X7.034 Y12.138 E1.25297
G1 F1800.000 E0.25297
G92 E0
G1 X2.599 Y4.301 F7800.000
G1 F1800.000 E1.00000
G1 X2.599 Y2.466 F540.000 E1.02425
G1 X7.034 Y2.466 E1.08286
G1 X7.034 Y4.301 E1.10712
G1 X6.315 Y3.663 E1.11982
G1 X5.752 Y3.368 E1.12822
G1 X5.135 Y3.216 E1.13662
G1 X4.499 Y3.216 E1.14502
G1 X3.882 Y3.368 E1.15342
G1 X3.319 Y3.663 E1.16182
G1 X2.646 Y4.259 E1.17369
G1 X2.177 Y2.044 F7800.000
G1 X7.456 Y2.044 F540.000 E1.24344
G1 X7.456 Y12.623 E1.38322
G1 X2.177 Y12.623 E1.45296
G1 X2.177 Y2.107 E1.59190
G1 X2.542 Y2.255 F7800.000
G1 F1800.000 E0.59190
G92 E0
G1 X6.668 Y8.163 F7800.000
G1 F1800.000 E1.00000
G1 X6.729 Y8.224 F1080.000 E1.00116
G1 X6.729 Y8.829 E1.00929
G1 X6.271 Y8.371 E1.01799
G1 X5.874 Y8.580 E1.02401
G1 X6.729 Y9.435 E1.04025
G1 X6.729 Y10.041 E1.04837
G1 X5.391 Y8.702 E1.07378
G1 X4.839 Y8.756 E1.08122
G1 X6.729 Y10.646 E1.11710
G1 X6.729 Y11.252 E1.12523
G1 X4.159 Y8.682 E1.17402
G1 X3.111 Y8.239 E1.18929
G1 X6.729 Y11.857 E1.25798
G1 X6.162 Y11.896 E1.26561
G1 X2.904 Y8.638 E1.32746
G1 X2.904 Y9.244 E1.33559
G1 X5.556 Y11.896 E1.38593
G1 X4.951 Y11.896 E1.39406
G1 X2.904 Y9.849 E1.43292
G1 X2.904 Y10.455 E1.44105
G1 X4.345 Y11.896 E1.46840
G1 X3.740 Y11.896 E1.47653
G1 X2.904 Y11.060 E1.49239
G1 X2.904 Y11.666 E1.50052
G1 X3.134 Y11.896 E1.50488
G1 X7.116 Y6.905 F7800.000
G1 X7.083 Y6.871 F360.000 E1.50523
G1 X7.165 Y4.958 F7800.000
G1 X7.132 Y4.925 F360.000 E1.50557
G1 X6.116 Y2.982 F7800.000
G1 X6.110 Y2.976 F360.000 E1.50573
G1 X5.297 Y2.758 F7800.000
G1 X5.296 Y2.756 F360.000 E1.50574
G1 X4.963 Y2.756 F7800.000
G1 X5.132 Y2.925 F360.000 E1.50749
G1 X4.630 Y2.756 F7800.000
G1 X4.799 Y2.925 F360.000 E1.50923
G1 X4.467 Y2.925 F7800.000
G1 X4.348 Y2.807 F360.000 E1.51046
G1 X2.586 Y4.703 F7800.000
G1 X2.585 Y4.702 F360.000 E1.51047
G1 X2.494 Y4.944 F7800.000
G1 X2.468 Y4.918 F360.000 E1.51074
G1 F1800.000 E0.51074
G92 E0
G1 X-2.069 Y5.304 F7800.000
G1 F1800.000 E1.00000
G1 X-2.004 Y5.833 F540.000 E1.00705
G1 X-2.069 Y6.363 E1.01409
G1 X-2.284 Y6.899 E1.02173
G1 X-2.561 Y7.300 E1.02817
G1 X-2.960 Y7.654 E1.03522
G1 X-3.432 Y7.902 E1.04227
G1 X-3.950 Y8.029 E1.04931
G1 X-4.483 Y8.029 E1.05636
G1 X-5.001 Y7.902 E1.06341
G1 X-5.473 Y7.654 E1.07045
G1 X-5.873 Y7.300 E1.07750
G1 X-6.176 Y6.861 E1.08455
G1 X-6.365 Y6.363 E1.09159
G1 X-6.429 Y5.833 E1.09864
G1 X-6.365 Y5.304 E1.10569
G1 X-6.176 Y4.805 E1.11273
G1 X-5.873 Y4.366 E1.11978
G1 X-5.508 Y4.043 E1.12622
G1 X-5.001 Y3.765 E1.13386
G1 X-4.483 Y3.637 E1.14091
G1 X-3.950 Y3.637 E1.14795
G1 X-3.432 Y3.765 E1.15500
G1 X-2.960 Y4.013 E1.16205
G1 X-2.561 Y4.366 E1.16909
G1 X-2.258 Y4.805 E1.17614
G1 X-2.091 Y5.245 E1.18235
G1 X-2.384 Y5.583 F7800.000
G1 F1800.000 E0.18235
G92 E0
G1 X-6.434 Y7.366 F7800.000
G1 F1800.000 E1.00000
G1 X-5.715 Y8.003 F540.000 E1.01271
G1 X-5.152 Y8.299 E1.02111
G1 X-4.535 Y8.451 E1.02951
G1 X-3.899 Y8.451 E1.03791
G1 X-3.282 Y8.299 E1.04631
G1 X-2.719 Y8.003 E1.05470
G1 X-1.999 Y7.366 E1.06741
G1 X-1.999 Y12.201 E1.13131
G1 X-6.434 Y12.201 E1.18991
G1 X-6.434 Y7.429 E1.25297
G1 F1800.000 E0.25297
G92 E0
G1 X-1.999 Y4.301 F7800.000
G1 F1800.000 E1.00000
G1 X-2.719 Y3.663 F540.000 E1.01271
G1 X-3.282 Y3.368 E1.02111
G1 X-3.899 Y3.216 E1.02951
G1 X-4.534 Y3.216 E1.03791
G1 X-5.152 Y3.368 E1.04631
G1 X-5.715 Y3.663 E1.05470
G1 X-6.434 Y4.301 E1.06741
G1 X-6.434 Y2.466 E1.09167
G1 X-1.999 Y2.466 E1.15028
G1 X-1.999 Y4.238 E1.17369
G1 X-1.577 Y2.044 F7800.000
G1 X-1.577 Y12.623 F540.000 E1.31347
G1 X-6.856 Y12.623 E1.38322
G1 X-6.856 Y2.044 E1.52299
G1 X-1.641 Y2.044 E1.59190
G1 X-1.788 Y2.409 F7800.000
G1 X-2.365 Y8.163
G1 X-2.304 Y8.224 F1080.000 E1.59306
G1 X-2.304 Y8.829 E1.60119
G1 X-2.762 Y8.371 E1.60989
G1 X-3.160 Y8.580 E1.61591
G1 X-2.304 Y9.435 E1.63215
G1 X-2.304 Y10.041 E1.64028
G1 X-3.643 Y8.702 E1.66568
G1 X-4.194 Y8.756 E1.67312
G1 X-2.304 Y10.646 E1.70900
G1 X-2.304 Y11.252 E1.71713
G1 X-4.874 Y8.682 E1.76592
G1 X-5.922 Y8.239 E1.78119
G1 X-2.304 Y11.857 E1.84988
G1 X-2.871 Y11.896 E1.85751
G1 X-6.129 Y8.638 E1.91936
G1 X-6.129 Y9.244 E1.92749
G1 X-3.477 Y11.896 E1.97784
G1 X-4.083 Y11.896 E1.98597
G1 X-6.129 Y9.849 E2.02482
G1 X-6.129 Y10.455 E2.03295
G1 X-4.688 Y11.896 E2.06030
G1 X-5.294 Y11.896 E2.06843
G1 X-6.129 Y11.060 E2.08429
G1 X-6.129 Y11.666 E2.09242
G1 X-5.899 Y11.896 E2.09678
G1 X-1.917 Y6.905 F7800.000
G1 X-1.951 Y6.871 F360.000 E2.09713
G1 X-1.868 Y4.958 F7800.000
G1 X-1.902 Y4.925 F360.000 E2.09747
G1 X-2.918 Y2.982 F7800.000
G1 X-2.924 Y2.976 F360.000 E2.09763
G1 X-3.736 Y2.758 F7800.000
G1 X-3.738 Y2.756 F360.000 E2.09764
G1 X-4.070 Y2.756 F7800.000
G1 X-3.901 Y2.925 F360.000 E2.09939
G1 X-4.403 Y2.756 F7800.000
G1 X-4.234 Y2.925 F360.000 E2.10113
G1 X-4.567 Y2.925 F7800.000
G1 X-4.685 Y2.807 F360.000 E2.10236
G1 X-6.448 Y4.703 F7800.000
G1 X-6.449 Y4.702 F360.000 E2.10237
G1 X-6.539 Y4.944 F7800.000
G1 X-6.565 Y4.918 F360.000 E2.10264
M104 S200 ; set temperature
M140 S50 ; set bed temperature
G1 F1800.000 E1.10264
G92 E0
G1 Z0.400 F7800.000
G1 X-6.456 Y-5.946
G1 F1800.000 E1.00000
G1 X-5.205 Y-5.637 F1054.793 E1.03261
G1 X-4.429 Y-5.637 E1.05225
G1 X-3.177 Y-5.946 E1.08486
G1 X-3.177 Y-3.044 E1.15828
G1 X-6.456 Y-3.044 E1.24124
G1 X-6.456 Y-5.825 E1.31160
G1 X-5.767 Y-6.634 F7800.000
G1 X-5.670 Y-6.583 F1054.793 E1.31437
G1 X-5.107 Y-6.444 E1.32904
G1 X-4.527 Y-6.444 E1.34372
G1 X-3.963 Y-6.583 E1.35840
G1 X-3.450 Y-6.853 E1.37308
G1 X-3.015 Y-7.238 E1.38776
G1 X-2.485 Y-8.006 E1.41138
G1 X-2.370 Y-7.970 E1.41443
G1 X-2.370 Y-2.237 E1.55949
G1 X-7.263 Y-2.237 E1.68330
G1 X-7.263 Y-7.970 E1.82836
G1 X-7.148 Y-8.006 E1.83141
G1 X-6.618 Y-7.238 E1.85503
G1 X-6.184 Y-6.853 E1.86971
G1 X-5.874 Y-6.690 E1.87856
G1 X-5.762 Y-6.525 F7800.000
G1 F1800.000 E0.87856
G92 E0
G1 X-7.148 Y-9.661 F7800.000
G1 F1800.000 E1.00000
G1 X-7.263 Y-9.697 F1054.793 E1.00304
G1 X-7.263 Y-12.430 E1.07220
G1 X-2.370 Y-12.430 E1.19600
G1 X-2.370 Y-9.697 E1.26516
G1 X-2.485 Y-9.661 E1.26821
G1 X-3.015 Y-10.429 E1.29183
G1 X-3.450 Y-10.814 E1.30651
G1 X-3.963 Y-11.083 E1.32119
G1 X-4.527 Y-11.222 E1.33587
G1 X-5.107 Y-11.222 E1.35055
G1 X-5.213 Y-11.196 E1.35331
G1 X-5.670 Y-11.083 E1.36522
G1 X-6.184 Y-10.814 E1.37990
G1 X-6.618 Y-10.429 E1.39458
G1 X-7.080 Y-9.760 E1.41514
G1 X-7.221 Y-9.757 F7800.000
G1 X-7.223 Y-8.833
G1 X-6.864 Y-8.186 F1054.793 E1.43387
G1 X-7.312 Y-8.833 F7800.000
G1 X-7.122 Y-8.992 F1054.793 E1.44013
G1 X-7.122 Y-8.992 F7800.000
G1 X-6.864 Y-9.481 F1054.793 E1.45412
G1 F1800.000 E0.45412
G92 E0
G1 X-2.769 Y-9.481 F7800.000
G1 F1800.000 E1.00000
G1 X-2.475 Y-8.935 F1054.793 E1.01568
G1 X-2.554 Y-8.680 E1.02244
G1 X-2.554 Y-8.680 F7800.000
G1 X-2.697 Y-8.455 F1054.793 E1.02920
G1 X-2.697 Y-8.455 F7800.000
G1 X-2.846 Y-8.215 F1054.793 E1.03634
G1 X-3.762 Y-3.748 F7800.000
