; generated by Slic3r 0.9.10b on 2013-12-23 at 12:14:01

; layer_height = 0.3
; perimeters = 2
; top_solid_layers = 3
; bottom_solid_layers = 3
; fill_density = 0.4
; perimeter_speed = 30
; infill_speed = 60
; travel_speed = 130
; nozzle_diameter = 0.5
; filament_diameter = 2.85
; extrusion_multiplier = 1
; perimeters extrusion width = 0.70mm
; infill extrusion width = 0.70mm
; solid infill extrusion width = 0.70mm
; top infill extrusion width = 0.70mm
; first layer extrusion width = 0.60mm

G21 ; set units to millimeters
M107
M104 S0
M83
M140 S70
G28
G1Y98F9000
M190 S70
G1X5Y98Z150F9000
M104 S210
G1X5Y98Z1F9000
G1Z0.05
M109 S210
G1Z5
G1X15
;G1E5F50
G90 ; use absolute coordinates
G92 E0
M82 ; use absolute distances for extrusion
G1 F1800.000 E-1.00000
G92 E0
G1 Z0.300 F7800.000
G1 X10.490 Y7.070
G1 F1800.000 E1.00000
G1 X-10.510 Y7.070 F540.000 E1.57134
G1 X-26.590 Y6.340 E2.00927
G1 X-27.180 Y6.290 E2.02538
G1 X-27.770 Y6.180 E2.04171
G1 X-28.650 Y5.930 E2.06660
G1 X-29.520 Y5.540 E2.09254
G1 X-30.230 Y5.130 E2.11485
G1 X-30.880 Y4.630 E2.13716
G1 X-31.400 Y4.180 E2.15587
G1 X-31.880 Y3.730 E2.17377
G1 X-32.410 Y3.090 E2.19637
G1 X-32.850 Y2.450 E2.21750
G1 X-33.290 Y1.570 E2.24427
G1 X-33.570 Y0.810 E2.26631
G1 X-33.760 Y0.030 E2.28815
G1 X-33.890 Y-1.000 E2.31639
G1 X-33.880 Y-1.800 E2.33816
G1 X-33.770 Y-2.780 E2.36499
G1 X-33.610 Y-3.470 E2.38426
G1 X-33.300 Y-4.410 E2.41119
G1 X-32.910 Y-5.240 E2.43614
G1 X-32.360 Y-6.110 E2.46414
G1 X-31.880 Y-6.730 E2.48548
G1 X-25.990 Y-13.550 E2.73065
G1 X-24.960 Y-14.510 E2.76895
G1 X-23.750 Y-15.230 E2.80726
G1 X-22.410 Y-15.680 E2.84572
G1 X-21.010 Y-15.830 E2.88403
G1 X20.990 Y-15.830 E4.02670
G1 X22.390 Y-15.680 E4.06501
G1 X23.730 Y-15.230 E4.10347
G1 X24.940 Y-14.510 E4.14178
G1 X25.970 Y-13.550 E4.18008
G1 X31.870 Y-6.730 E4.42543
G1 X32.440 Y-5.970 E4.45128
G1 X32.970 Y-5.090 E4.47923
G1 X33.090 Y-4.850 E4.48653
G1 X33.360 Y-4.230 E4.50492
G1 X33.570 Y-3.590 E4.52325
G1 X33.810 Y-2.540 E4.55255
G1 X33.880 Y-1.540 E4.57983
G1 X33.860 Y-0.690 E4.60296
G1 X33.720 Y0.160 E4.62640
G1 X33.500 Y0.990 E4.64976
G1 X33.190 Y1.770 E4.67259
G1 X32.830 Y2.470 E4.69401
G1 X32.390 Y3.110 E4.71514
G1 X31.820 Y3.790 E4.73928
G1 X31.280 Y4.290 E4.75930
G1 X30.750 Y4.730 E4.77804
G1 X30.000 Y5.270 E4.80319
G1 X29.190 Y5.700 E4.82814
G1 X29.030 Y5.770 E4.83289
G1 X27.940 Y6.140 E4.86420
G1 X27.240 Y6.280 E4.88363
G1 X26.540 Y6.350 E4.90277
G1 X10.577 Y7.067 E5.33751
G1 F1800.000 E4.33751
G92 E0
G1 X10.735 Y1.362 F7800.000
G1 F1800.000 E1.00000
G1 X7.265 Y1.362 F540.000 E1.09440
G1 X7.052 Y1.274 E1.10066
G1 X6.720 Y0.942 E1.11344
G1 X6.632 Y0.729 E1.11971
G1 X6.632 Y-5.382 E1.28598
G1 X-6.632 Y-5.382 E1.64686
G1 X-6.632 Y0.729 E1.81313
G1 X-6.720 Y0.942 E1.81939
G1 X-7.052 Y1.274 E1.83217
G1 X-7.265 Y1.362 E1.83844
G1 X-10.735 Y1.362 E1.93284
G1 X-10.948 Y1.274 E1.93910
G1 X-11.280 Y0.942 E1.95188
G1 X-11.368 Y0.729 E1.95814
G1 X-11.368 Y-5.382 E2.12441
G1 X-19.891 Y-5.382 E2.35631
G1 X-24.527 Y-0.033 E2.54888
G1 X-25.048 Y0.357 E2.56660
G1 X-25.355 Y0.504 E2.57585
G1 X-25.680 Y0.605 E2.58512
G1 X-26.082 Y0.654 E2.59614
G1 X-26.446 Y0.628 E2.60605
G1 X-26.732 Y0.549 E2.61414
G1 X-27.075 Y0.375 E2.62460
G1 X-27.685 Y-0.142 E2.64634
G1 X-27.936 Y-0.460 E2.65738
G1 X-28.097 Y-0.819 E2.66808
G1 X-28.178 Y-1.243 E2.67982
G1 X-28.160 Y-1.695 E2.69214
G1 X-28.136 Y-1.826 E2.69576
G1 X-27.975 Y-2.327 E2.71007
G1 X-27.788 Y-2.673 E2.72077
G1 X-27.556 Y-2.987 E2.73139
G1 X-21.575 Y-9.912 E2.98034
G1 X-21.475 Y-9.987 E2.98373
G1 X-21.247 Y-10.091 E2.99055
G1 X-21.125 Y-10.118 E2.99395
G1 X21.125 Y-10.118 E4.14345
G1 X21.247 Y-10.091 E4.14684
G1 X21.475 Y-9.987 E4.15366
G1 X21.575 Y-9.912 E4.15705
G1 X27.557 Y-2.985 E4.40606
G1 X27.826 Y-2.612 E4.41858
G1 X28.004 Y-2.258 E4.42935
G1 X28.155 Y-1.729 E4.44431
G1 X28.178 Y-1.252 E4.45731
G1 X28.101 Y-0.834 E4.46889
G1 X27.945 Y-0.476 E4.47951
G1 X27.683 Y-0.139 E4.49113
G1 X27.047 Y0.394 E4.51371
G1 X26.683 Y0.567 E4.52467
G1 X26.286 Y0.647 E4.53567
G1 X25.995 Y0.651 E4.54361
G1 X25.664 Y0.601 E4.55272
G1 X25.333 Y0.495 E4.56218
G1 X25.009 Y0.333 E4.57202
G1 X24.481 Y-0.077 E4.59022
G1 X19.891 Y-5.382 E4.78107
G1 X11.368 Y-5.382 E5.01296
G1 X11.368 Y0.729 E5.17923
G1 X11.280 Y0.942 E5.18549
G1 X10.948 Y1.274 E5.19827
G1 X10.815 Y1.329 E5.20217
G1 X10.450 Y0.784 F7800.000
G1 X7.550 Y0.784 F540.000 E5.28109
G1 X7.211 Y0.445 E5.29413
G1 X7.211 Y-5.961 E5.46840
G1 X-7.211 Y-5.961 E5.86076
G1 X-7.211 Y0.445 E6.03503
G1 X-7.550 Y0.784 E6.04807
G1 X-10.450 Y0.784 E6.12699
G1 X-10.789 Y0.445 E6.14003
G1 X-10.789 Y-5.961 E6.31430
G1 X-20.155 Y-5.961 E6.56913
G1 X-24.921 Y-0.458 E6.76717
G1 X-25.300 Y-0.169 E6.78013
G1 X-25.605 Y-0.021 E6.78937
G1 X-25.804 Y0.039 E6.79501
G1 X-26.024 Y0.073 E6.80107
G1 X-26.358 Y0.054 E6.81018
G1 X-26.536 Y0.004 E6.81522
G1 X-26.696 Y-0.071 E6.82001
G1 X-27.284 Y-0.560 E6.84082
G1 X-27.432 Y-0.748 E6.84732
G1 X-27.559 Y-1.048 E6.85618
G1 X-27.602 Y-1.341 E6.86425
G1 X-27.572 Y-1.692 E6.87382
G1 X-27.470 Y-2.032 E6.88349
G1 X-27.321 Y-2.328 E6.89252
G1 X-27.111 Y-2.617 E6.90223
G1 X-21.223 Y-9.434 E7.14730
G1 X-20.994 Y-9.539 E7.15416
G1 X20.994 Y-9.539 E8.29650
G1 X21.223 Y-9.434 E8.30336
G1 X27.111 Y-2.617 E8.54843
G1 X27.328 Y-2.315 E8.55855
G1 X27.472 Y-2.030 E8.56725
G1 X27.591 Y-1.578 E8.57996
G1 X27.594 Y-1.234 E8.58932
G1 X27.550 Y-1.014 E8.59543
G1 X27.450 Y-0.778 E8.60239
G1 X27.266 Y-0.542 E8.61053
G1 X26.670 Y-0.057 E8.63144
G1 X26.506 Y0.014 E8.63630
G1 X26.303 Y0.063 E8.64199
G1 X25.985 Y0.069 E8.65065
G1 X25.760 Y0.028 E8.65686
G1 X25.557 Y-0.040 E8.66268
G1 X25.298 Y-0.169 E8.67055
G1 X24.882 Y-0.497 E8.68498
G1 X20.155 Y-5.961 E8.88153
G1 X10.789 Y-5.961 E9.13635
G1 X10.789 Y0.445 E9.31062
G1 X10.512 Y0.722 E9.32130
G1 X10.211 Y0.205 F7800.000
G1 X7.789 Y0.205 F540.000 E9.38718
G1 X7.789 Y-6.539 E9.57067
G1 X-7.789 Y-6.539 E9.99451
G1 X-7.789 Y0.205 E10.17800
G1 X-10.211 Y0.205 E10.24388
G1 X-10.211 Y-6.539 E10.42738
G1 X-20.420 Y-6.539 E10.70514
G1 X-25.217 Y-0.985 E10.90482
G1 X-25.430 Y-0.779 E10.91286
G1 X-25.706 Y-0.605 E10.92175
G1 X-25.948 Y-0.521 E10.92871
G1 X-26.190 Y-0.505 E10.93531
G1 X-26.356 Y-0.546 E10.93995
G1 X-26.477 Y-0.622 E10.94384
G1 X-26.907 Y-1.003 E10.95947
G1 X-26.997 Y-1.179 E10.96485
G1 X-27.025 Y-1.406 E10.97108
G1 X-26.992 Y-1.645 E10.97764
G1 X-26.927 Y-1.835 E10.98310
G1 X-26.819 Y-2.041 E10.98943
G1 X-26.669 Y-2.243 E10.99628
G1 X-20.868 Y-8.961 E11.23776
G1 X20.868 Y-8.961 E12.37324
G1 X26.701 Y-2.205 E12.61608
G1 X26.843 Y-2.001 E12.62286
G1 X26.942 Y-1.798 E12.62899
G1 X27.000 Y-1.611 E12.63431
G1 X27.023 Y-1.450 E12.63873
G1 X27.005 Y-1.208 E12.64534
G1 X26.919 Y-1.020 E12.65097
G1 X26.475 Y-0.620 E12.66721
G1 X26.377 Y-0.555 E12.67043
G1 X26.221 Y-0.509 E12.67485
G1 X25.992 Y-0.513 E12.68108
G1 X25.760 Y-0.581 E12.68766
G1 X25.488 Y-0.735 E12.69617
G1 X25.215 Y-0.987 E12.70626
G1 X20.420 Y-6.539 E12.90586
G1 X10.211 Y-6.539 E13.18362
G1 X10.211 Y0.118 E13.36476
G1 X9.710 Y-0.084 F7800.000
G1 F1800.000 E12.36476
G92 E0
G1 X26.474 Y-1.384 F7800.000
G1 F1800.000 E1.00000
G1 X26.089 Y-1.051 F540.000 E1.01384
G1 X25.884 Y-1.167 E1.02025
G1 X25.712 Y-1.302 E1.02620
G1 X20.685 Y-7.118 E1.23535
G1 X9.632 Y-7.118 E1.53605
G1 X9.632 Y-0.373 E1.71954
G1 X8.368 Y-0.373 E1.75394
G1 X8.368 Y-7.118 E1.93743
G1 X-8.368 Y-7.118 E2.39275
G1 X-8.368 Y-0.373 E2.57624
G1 X-9.632 Y-0.373 E2.61064
G1 X-9.632 Y-7.118 E2.79413
G1 X-20.685 Y-7.118 E3.09484
G1 X-25.733 Y-1.282 E3.30478
G1 X-25.849 Y-1.189 E3.30882
G1 X-26.094 Y-1.055 E3.31640
G1 X-26.479 Y-1.388 E3.33024
G1 X-26.366 Y-1.668 E3.33846
G1 X-26.224 Y-1.873 E3.34526
G1 X-20.603 Y-8.382 E3.57924
G1 X20.603 Y-8.382 E4.70030
G1 X26.231 Y-1.866 E4.93457
G1 X26.344 Y-1.708 E4.93983
G1 X26.445 Y-1.466 E4.94699
G1 F1800.000 E3.94699
G92 E0
G1 X-19.832 Y-7.707 F7800.000
G1 F1800.000 E1.00000
G1 X-19.918 Y-7.793 F360.000 E1.00332
G1 X-19.097 Y-7.793 E1.02572
G1 X-19.011 Y-7.707 E1.02904
G1 X-18.276 Y-7.793 E1.04922
G1 X-18.190 Y-7.707 E1.05254
G1 X-17.456 Y-7.793 E1.07273
G1 X-17.370 Y-7.707 E1.07605
G1 X-16.635 Y-7.793 E1.09623
G1 X-16.549 Y-7.707 E1.09955
G1 X-15.814 Y-7.793 E1.11973
G1 X-15.728 Y-7.707 E1.12306
G1 X-14.994 Y-7.793 E1.14324
G1 X-14.908 Y-7.707 E1.14656
G1 X-14.173 Y-7.793 E1.16674
G1 X-14.087 Y-7.707 E1.17006
G1 X-13.352 Y-7.793 E1.19025
G1 X-13.266 Y-7.707 E1.19357
G1 X-12.532 Y-7.793 E1.21375
G1 X-12.446 Y-7.707 E1.21707
G1 X-11.711 Y-7.793 E1.23726
G1 X-11.625 Y-7.707 E1.24058
G1 X-10.890 Y-7.793 E1.26076
G1 X-10.804 Y-7.707 E1.26408
G1 X-10.070 Y-7.793 E1.28427
G1 X-9.984 Y-7.707 E1.28759
G1 X-9.249 Y-7.793 E1.30777
G1 X-9.163 Y-7.707 E1.31109
G1 X-9.043 Y-7.587 F7800.000
G1 X-8.957 Y-7.501 F360.000 E1.31441
G1 X-8.428 Y-7.793 E1.33089
G1 X-8.342 Y-7.707 E1.33421
G1 X-7.608 Y-7.793 E1.35440
G1 X-7.522 Y-7.707 E1.35772
G1 X-6.787 Y-7.793 E1.37790
G1 X-6.701 Y-7.707 E1.38122
G1 X-5.967 Y-7.793 E1.40141
G1 X-5.880 Y-7.707 E1.40473
G1 X-5.146 Y-7.793 E1.42491
G1 X-5.060 Y-7.707 E1.42823
G1 X-4.325 Y-7.793 E1.44842
G1 X-4.239 Y-7.707 E1.45174
G1 X-3.505 Y-7.793 E1.47192
G1 X-3.418 Y-7.707 E1.47524
G1 X-2.684 Y-7.793 E1.49542
G1 X-2.598 Y-7.707 E1.49875
G1 X-1.863 Y-7.793 E1.51893
G1 X-1.777 Y-7.707 E1.52225
G1 X-1.043 Y-7.793 E1.54243
G1 X-0.957 Y-7.707 E1.54575
G1 X-0.222 Y-7.793 E1.56594
G1 X-0.136 Y-7.707 E1.56926
G1 X0.599 Y-7.793 E1.58944
G1 X0.685 Y-7.707 E1.59276
G1 X1.419 Y-7.793 E1.61295
G1 X1.505 Y-7.707 E1.61627
G1 X2.240 Y-7.793 E1.63645
G1 X2.326 Y-7.707 E1.63977
G1 X3.061 Y-7.793 E1.65996
G1 X3.147 Y-7.707 E1.66328
G1 X3.881 Y-7.793 E1.68346
G1 X3.967 Y-7.707 E1.68678
G1 X4.702 Y-7.793 E1.70697
G1 X4.788 Y-7.707 E1.71029
G1 X5.523 Y-7.793 E1.73047
G1 X5.609 Y-7.707 E1.73379
G1 X6.343 Y-7.793 E1.75398
G1 X6.429 Y-7.707 E1.75730
G1 X7.164 Y-7.793 E1.77748
G1 X7.250 Y-7.707 E1.78080
G1 X7.985 Y-7.793 E1.80099
G1 X8.071 Y-7.707 E1.80431
G1 X8.805 Y-7.793 E1.82449
G1 X8.891 Y-7.707 E1.82781
G1 F1800.000 E0.82781
G92 E0
G1 X-8.957 Y-1.756 F7800.000
G1 F1800.000 E1.00000
G1 X-9.043 Y-1.842 F360.000 E1.00332
G1 X-8.957 Y-2.577 E1.02350
G1 X-9.043 Y-2.663 E1.02683
G1 X-8.957 Y-3.398 E1.04701
G1 X-9.043 Y-3.484 E1.05033
G1 X-8.957 Y-4.218 E1.07051
G1 X-9.043 Y-4.304 E1.07383
G1 X-8.957 Y-5.039 E1.09402
G1 X-9.043 Y-5.125 E1.09734
G1 X-8.957 Y-5.860 E1.11752
G1 X-9.043 Y-5.946 E1.12084
G1 X-8.957 Y-6.680 E1.14103
G1 X-9.043 Y-6.766 E1.14435
G1 X-9.043 Y-1.022 F7800.000
G1 X-8.984 Y-0.963 F360.000 E1.14663
G1 F1800.000 E0.14663
G92 E0
G1 X9.043 Y-6.735 F7800.000
G1 F1800.000 E1.00000
G1 X8.957 Y-6.821 F360.000 E1.00332
G1 X8.957 Y-6.000 E1.02572
G1 X9.043 Y-5.914 E1.02904
G1 X8.957 Y-5.179 E1.04922
G1 X9.043 Y-5.093 E1.05254
G1 X8.957 Y-4.359 E1.07273
G1 X9.043 Y-4.273 E1.07605
G1 X8.957 Y-3.538 E1.09623
G1 X9.043 Y-3.452 E1.09955
G1 X8.957 Y-2.717 E1.11973
G1 X9.043 Y-2.631 E1.12306
G1 X8.957 Y-1.897 E1.14324
G1 X9.043 Y-1.811 E1.14656
G1 X8.957 Y-1.076 E1.16674
G1 X9.043 Y-0.990 E1.17006
G1 X8.957 Y-7.641 F7800.000
G1 X9.043 Y-7.555 F360.000 E1.17339
G1 X9.626 Y-7.793 E1.19057
G1 X9.712 Y-7.707 E1.19389
G1 X10.447 Y-7.793 E1.21407
G1 X10.533 Y-7.707 E1.21739
G1 X11.267 Y-7.793 E1.23757
G1 X11.353 Y-7.707 E1.24090
G1 X12.088 Y-7.793 E1.26108
G1 X12.174 Y-7.707 E1.26440
G1 X12.909 Y-7.793 E1.28458
G1 X12.995 Y-7.707 E1.28790
G1 X13.729 Y-7.793 E1.30809
G1 X13.815 Y-7.707 E1.31141
G1 X14.550 Y-7.793 E1.33159
G1 X14.636 Y-7.707 E1.33491
G1 X15.371 Y-7.793 E1.35510
G1 X15.457 Y-7.707 E1.35842
G1 X16.191 Y-7.793 E1.37860
G1 X16.277 Y-7.707 E1.38192
G1 X17.012 Y-7.793 E1.40211
G1 X17.098 Y-7.707 E1.40543
G1 X17.833 Y-7.793 E1.42561
G1 X17.919 Y-7.707 E1.42893
G1 X18.653 Y-7.793 E1.44912
G1 X18.739 Y-7.707 E1.45244
G1 X19.474 Y-7.793 E1.47262
G1 X19.560 Y-7.707 E1.47594
G1 X20.295 Y-7.793 E1.49613
G1 X20.381 Y-7.707 E1.49945
M104 S200 ; set temperature
M140 S50 ; set bed temperature
G1 F1800.000 E0.49945
G92 E0
G1 Z0.600 F7800.000
G1 X-9.518 Y-0.487
G1 F1800.000 E1.00000
G1 X-9.518 Y-7.232 F1446.599 E1.20758
G1 X-21.446 Y-7.232 E1.57470
G1 X-20.551 Y-8.268 E1.61685
G1 X20.551 Y-8.268 E2.88190
G1 X21.446 Y-7.232 E2.92405
G1 X9.518 Y-7.232 E3.29117
G1 X9.518 Y-0.487 E3.49875
G1 X8.482 Y-0.487 E3.53065
G1 X8.482 Y-7.232 E3.73823
G1 X-8.482 Y-7.232 E4.26035
G1 X-8.482 Y-0.487 E4.46793
G1 X-9.420 Y-0.487 E4.49681
G1 X-10.173 Y0.167 F7800.000
G1 X-10.173 Y-6.577 F1446.599 E4.70439
G1 X-20.437 Y-6.577 E5.02033
G1 X-25.246 Y-1.010 E5.24675
G1 X-25.454 Y-0.809 E5.25565
G1 X-25.635 Y-0.685 E5.26239
G1 X-25.884 Y-0.577 E5.27075
G1 X-26.137 Y-0.540 E5.27864
G1 X-26.341 Y-0.581 E5.28502
G1 X-26.452 Y-0.651 E5.28909
G1 X-26.896 Y-1.053 E5.30752
G1 X-26.972 Y-1.235 E5.31359
G1 X-26.983 Y-1.475 E5.32099
G1 X-26.955 Y-1.635 E5.32600
G1 X-26.892 Y-1.820 E5.33199
G1 X-26.787 Y-2.021 E5.33897
G1 X-26.640 Y-2.219 E5.34656
G1 X-20.850 Y-8.923 E5.61920
G1 X20.850 Y-8.923 E6.90268
G1 X26.672 Y-2.181 E7.17683
G1 X26.810 Y-1.981 E7.18432
G1 X26.907 Y-1.784 E7.19109
G1 X26.963 Y-1.603 E7.19692
G1 X26.985 Y-1.448 E7.20175
G1 X26.968 Y-1.217 E7.20886
G1 X26.889 Y-1.043 E7.21475
G1 X26.450 Y-0.649 E7.23290
G1 X26.360 Y-0.590 E7.23622
G1 X26.169 Y-0.541 E7.24230
G1 X25.930 Y-0.565 E7.24969
G1 X25.690 Y-0.656 E7.25759
G1 X25.510 Y-0.766 E7.26408
G1 X25.244 Y-1.012 E7.27524
G1 X20.437 Y-6.577 E7.50157
G1 X10.173 Y-6.577 E7.81750
G1 X10.173 Y0.167 E8.02508
G1 X7.827 Y0.167 E8.09727
G1 X7.827 Y-6.577 E8.30486
G1 X-7.827 Y-6.577 E8.78668
G1 X-7.827 Y0.167 E8.99426
G1 X-10.075 Y0.167 E9.06343
G1 X-9.846 Y-0.400 F7800.000
G1 F1800.000 E8.06343
G92 E0
G1 X25.888 Y-1.789 F7800.000
G1 F1800.000 E1.00000
G1 X25.785 Y-1.686 F964.399 E1.00676
G1 X25.141 Y-2.430 E1.05218
G1 X25.245 Y-2.534 E1.05895
G1 X24.602 Y-3.279 E1.10437
G1 X24.498 Y-3.175 E1.11113
G1 X23.855 Y-3.920 E1.15655
G1 X23.959 Y-4.024 E1.16332
G1 X23.315 Y-4.768 E1.20874
G1 X23.212 Y-4.665 E1.21550
G1 X22.569 Y-5.410 E1.26092
G1 X22.672 Y-5.513 E1.26769
G1 X22.029 Y-6.258 E1.31311
G1 X21.925 Y-6.154 E1.31987
G1 X20.334 Y-7.802 F7800.000
G1 X20.230 Y-7.698 F964.399 E1.32212
G1 X19.871 Y-7.802 E1.32788
G1 X19.768 Y-7.698 E1.33013
G1 X19.408 Y-7.802 E1.33588
G1 X19.305 Y-7.698 E1.33813
G1 X18.946 Y-7.802 E1.34388
G1 X18.842 Y-7.698 E1.34613
G1 X18.483 Y-7.802 E1.35188
G1 X18.380 Y-7.698 E1.35414
G1 X18.020 Y-7.802 E1.35989
G1 X17.917 Y-7.698 E1.36214
G1 X17.558 Y-7.802 E1.36789
G1 X17.454 Y-7.698 E1.37014
G1 X17.095 Y-7.802 E1.37589
G1 X16.992 Y-7.698 E1.37815
G1 X16.632 Y-7.802 E1.38390
G1 X16.529 Y-7.698 E1.38615
G1 X16.170 Y-7.802 E1.39190
G1 X16.066 Y-7.698 E1.39415
G1 X15.707 Y-7.802 E1.39990
G1 X15.604 Y-7.698 E1.40216
G1 X15.244 Y-7.802 E1.40791
G1 X15.141 Y-7.698 E1.41016
G1 X14.782 Y-7.802 E1.41591
G1 X14.678 Y-7.698 E1.41816
G1 X14.319 Y-7.802 E1.42391
G1 X14.216 Y-7.698 E1.42616
G1 X13.856 Y-7.802 E1.43192
G1 X13.753 Y-7.698 E1.43417
G1 X13.394 Y-7.802 E1.43992
G1 X13.290 Y-7.698 E1.44217
G1 X12.931 Y-7.802 E1.44792
G1 X12.828 Y-7.698 E1.45017
G1 X12.468 Y-7.802 E1.45592
G1 X12.365 Y-7.698 E1.45818
G1 X12.006 Y-7.802 E1.46393
G1 X11.902 Y-7.698 E1.46618
G1 X11.543 Y-7.802 E1.47193
G1 X11.439 Y-7.698 E1.47418
G1 X11.080 Y-7.802 E1.47993
G1 X10.977 Y-7.698 E1.48219
G1 X10.618 Y-7.802 E1.48794
G1 X10.514 Y-7.698 E1.49019
G1 X10.155 Y-7.802 E1.49594
G1 X10.051 Y-7.698 E1.49819
G1 X9.692 Y-7.802 E1.50394
G1 X9.589 Y-7.698 E1.50620
G1 X9.230 Y-7.802 E1.51195
G1 X9.126 Y-7.698 E1.51420
G1 X9.052 Y-7.624 F7800.000
G1 X8.948 Y-7.520 F964.399 E1.51645
G1 X8.767 Y-7.802 E1.52160
G1 X8.663 Y-7.698 E1.52385
G1 X8.304 Y-7.802 E1.52960
G1 X8.201 Y-7.698 E1.53186
G1 X7.842 Y-7.802 E1.53761
G1 X7.738 Y-7.698 E1.53986
G1 X7.379 Y-7.802 E1.54561
G1 X7.275 Y-7.698 E1.54786
G1 X6.916 Y-7.802 E1.55361
G1 X6.813 Y-7.698 E1.55587
G1 X6.454 Y-7.802 E1.56162
G1 X6.350 Y-7.698 E1.56387
G1 X5.991 Y-7.802 E1.56962
G1 X5.887 Y-7.698 E1.57187
G1 X5.528 Y-7.802 E1.57762
G1 X5.425 Y-7.698 E1.57987
G1 X5.066 Y-7.802 E1.58563
G1 X4.962 Y-7.698 E1.58788
G1 X4.603 Y-7.802 E1.59363
G1 X4.499 Y-7.698 E1.59588
G1 X4.140 Y-7.802 E1.60163
G1 X4.037 Y-7.698 E1.60388
G1 X3.678 Y-7.802 E1.60963
G1 X3.574 Y-7.698 E1.61189
