; generated by Slic3r 0.9.10b on 2013-12-23 at 12:27:03

; layer_height = 0.3
; perimeters = 2
; top_solid_layers = 3
; bottom_solid_layers = 3
; fill_density = 0.4
; perimeter_speed = 30
; infill_speed = 60
; travel_speed = 130
; nozzle_diameter = 0.5
; filament_diameter = 2.85
; extrusion_multiplier = 1
; perimeters extrusion width = 0.70mm
; infill extrusion width = 0.70mm
; solid infill extrusion width = 0.70mm
; top infill extrusion width = 0.70mm
; first layer extrusion width = 0.60mm

G21 ; set units to millimeters
M107
M104 S0
M83
M140 S70
G28
G1Y98F9000
M190 S70
G1X5Y98Z150F9000
M104 S210
G1X5Y98Z1F9000
G1Z0.05
M109 S210
G1Z5
G1X15
;G1E5F50
G90 ; use absolute coordinates
G92 E0
M82 ; use absolute distances for extrusion
G1 F1800.000 E-1.00000
G92 E0
G1 Z0.300 F7800.000
G1 X21.490 Y-15.927
G1 F1800.000 E1.00000
G1 X22.950 Y-15.757 F540.000 E1.03999
G1 X24.340 Y-15.277 E1.08000
G1 X25.590 Y-14.487 E1.12023
G1 X26.630 Y-13.447 E1.16024
G1 X34.580 Y-3.487 E1.50696
G1 X34.870 Y-3.097 E1.52018
G1 X35.150 Y-2.687 E1.53369
G1 X35.550 Y-2.027 E1.55469
G1 X36.010 Y-1.097 E1.58292
G1 X36.370 Y-0.207 E1.60904
G1 X36.530 Y0.263 E1.62254
G1 X36.710 Y0.913 E1.64089
G1 X36.820 Y1.393 E1.65429
G1 X36.940 Y2.063 E1.67281
G1 X37.040 Y3.083 E1.70069
G1 X37.060 Y4.103 E1.72845
G1 X37.000 Y5.143 E1.75679
G1 X36.940 Y5.633 E1.77022
G1 X36.820 Y6.303 E1.78874
G1 X36.710 Y6.783 E1.80214
G1 X36.530 Y7.433 E1.82049
G1 X36.200 Y8.343 E1.84682
G1 X35.780 Y9.283 E1.87483
G1 X35.550 Y9.723 E1.88834
G1 X35.150 Y10.383 E1.90934
G1 X34.870 Y10.793 E1.92285
G1 X34.300 Y11.543 E1.94848
G1 X33.580 Y12.343 E1.97776
G1 X33.110 Y12.793 E1.99546
G1 X32.730 Y13.123 E2.00915
G1 X32.280 Y13.483 E2.02483
G1 X31.880 Y13.773 E2.03827
G1 X30.960 Y14.343 E2.06772
G1 X30.430 Y14.633 E2.08416
G1 X29.990 Y14.843 E2.09742
G1 X29.040 Y15.223 E2.12526
G1 X28.440 Y15.423 E2.14247
G1 X27.410 Y15.683 E2.17137
G1 X26.270 Y15.863 E2.20277
G1 X25.240 Y15.923 E2.23084
G1 X-25.250 Y15.923 E3.60450
G1 X-26.280 Y15.863 E3.63257
G1 X-26.930 Y15.773 E3.65042
G1 X-27.980 Y15.553 E3.67961
G1 X-28.450 Y15.423 E3.69288
G1 X-29.520 Y15.043 E3.72377
G1 X-30.000 Y14.843 E3.73792
G1 X-30.440 Y14.633 E3.75118
G1 X-30.970 Y14.343 E3.76762
G1 X-31.890 Y13.773 E3.79706
G1 X-32.290 Y13.483 E3.81051
G1 X-33.120 Y12.793 E3.83987
G1 X-33.590 Y12.343 E3.85757
G1 X-34.310 Y11.543 E3.88686
G1 X-34.610 Y11.163 E3.90003
G1 X-35.160 Y10.383 E3.92600
G1 X-35.560 Y9.723 E3.94699
G1 X-36.020 Y8.793 E3.97522
G1 X-36.420 Y7.783 E4.00478
G1 X-36.580 Y7.283 E4.01906
G1 X-36.810 Y6.393 E4.04407
G1 X-36.950 Y5.633 E4.06509
G1 X-37.010 Y5.143 E4.07852
G1 X-37.070 Y4.103 E4.10687
G1 X-37.070 Y3.573 E4.12128
G1 X-37.010 Y2.553 E4.14908
G1 X-36.950 Y2.063 E4.16251
G1 X-36.830 Y1.393 E4.18103
G1 X-36.720 Y0.913 E4.19443
G1 X-36.540 Y0.263 E4.21278
G1 X-36.380 Y-0.207 E4.22629
G1 X-36.020 Y-1.097 E4.25241
G1 X-35.790 Y-1.587 E4.26713
G1 X-35.560 Y-2.027 E4.28064
G1 X-35.160 Y-2.687 E4.30164
G1 X-34.590 Y-3.487 E4.32836
G1 X-26.650 Y-13.447 E4.67491
G1 X-25.610 Y-14.487 E4.71493
G1 X-24.360 Y-15.277 E4.75516
G1 X-22.970 Y-15.757 E4.79516
G1 X-21.510 Y-15.927 E4.83515
G1 X21.403 Y-15.927 E6.00268
G1 F1800.000 E5.00268
G92 E0
G1 X21.631 Y-10.215 F7800.000
G1 F1800.000 E1.00000
G1 X21.758 Y-10.186 F540.000 E1.00355
G1 X21.995 Y-10.072 E1.01069
G1 X22.097 Y-9.991 E1.01423
G1 X30.136 Y0.089 E1.36502
G1 X30.460 Y0.576 E1.38092
G1 X30.732 Y1.078 E1.39646
G1 X30.966 Y1.627 E1.41271
G1 X31.142 Y2.171 E1.42826
G1 X31.268 Y2.728 E1.44380
G1 X31.343 Y3.295 E1.45935
G1 X31.368 Y3.866 E1.47489
G1 X31.340 Y4.449 E1.49079
G1 X31.268 Y4.977 E1.50528
G1 X31.145 Y5.522 E1.52047
G1 X30.971 Y6.066 E1.53602
G1 X30.743 Y6.604 E1.55192
G1 X30.480 Y7.096 E1.56710
G1 X30.159 Y7.585 E1.58300
G1 X29.804 Y8.033 E1.59855
G1 X29.410 Y8.446 E1.61410
G1 X28.960 Y8.839 E1.63035
G1 X28.497 Y9.174 E1.64589
G1 X28.006 Y9.466 E1.66144
G1 X27.491 Y9.713 E1.67698
G1 X26.943 Y9.917 E1.69288
G1 X26.430 Y10.058 E1.70737
G1 X25.880 Y10.159 E1.72256
G1 X25.299 Y10.214 E1.73845
G1 X22.461 Y10.215 E1.81566
G1 X22.343 Y10.190 E1.81893
G1 X22.122 Y10.093 E1.82552
G1 X22.024 Y10.023 E1.82879
G1 X20.497 Y8.356 E1.89029
G1 X18.632 Y6.648 E1.95909
G1 X16.626 Y5.108 E2.02789
G1 X14.493 Y3.750 E2.09669
G1 X12.250 Y2.582 E2.16549
G1 X9.914 Y1.614 E2.23429
G1 X7.502 Y0.854 E2.30309
G1 X5.033 Y0.306 E2.37189
G1 X2.526 Y-0.024 E2.44069
G1 X-0.000 Y-0.134 E2.50949
G1 X-2.526 Y-0.024 E2.57829
G1 X-5.033 Y0.306 E2.64708
G1 X-7.502 Y0.854 E2.71588
G1 X-9.914 Y1.614 E2.78468
G1 X-12.250 Y2.582 E2.85348
G1 X-14.493 Y3.750 E2.92228
G1 X-16.626 Y5.108 E2.99108
G1 X-18.632 Y6.648 E3.05988
G1 X-20.497 Y8.356 E3.12868
G1 X-22.024 Y10.023 E3.19018
G1 X-22.122 Y10.093 E3.19346
G1 X-22.343 Y10.190 E3.20004
G1 X-22.461 Y10.215 E3.20331
G1 X-25.260 Y10.215 E3.27946
G1 X-25.868 Y10.161 E3.29606
G1 X-26.430 Y10.058 E3.31161
G1 X-26.980 Y9.905 E3.32715
G1 X-27.515 Y9.703 E3.34270
G1 X-28.029 Y9.454 E3.35824
G1 X-28.519 Y9.160 E3.37379
G1 X-28.990 Y8.815 E3.38969
G1 X-29.410 Y8.446 E3.40488
G1 X-29.778 Y8.062 E3.41936
G1 X-30.136 Y7.616 E3.43491
G1 X-30.460 Y7.130 E3.45081
G1 X-30.732 Y6.627 E3.46635
G1 X-30.958 Y6.101 E3.48193
G1 X-31.138 Y5.545 E3.49785
G1 X-31.268 Y4.977 E3.51369
G1 X-31.343 Y4.411 E3.52924
G1 X-31.368 Y3.840 E3.54478
G1 X-31.340 Y3.256 E3.56068
G1 X-31.268 Y2.728 E3.57517
G1 X-31.145 Y2.184 E3.59036
G1 X-30.971 Y1.640 E3.60591
G1 X-30.743 Y1.101 E3.62181
G1 X-30.473 Y0.598 E3.63735
G1 X-30.136 Y0.089 E3.65395
G1 X-22.097 Y-9.991 E4.00474
G1 X-21.995 Y-10.072 E4.00828
G1 X-21.758 Y-10.186 E4.01542
G1 X-21.631 Y-10.215 E4.01897
G1 X21.544 Y-10.215 E5.19363
G1 X21.493 Y-9.637 F7800.000
G1 X21.731 Y-9.522 F540.000 E5.20082
G1 X29.676 Y0.440 E5.54748
G1 X29.963 Y0.872 E5.56162
G1 X30.210 Y1.329 E5.57575
G1 X30.415 Y1.806 E5.58988
G1 X30.577 Y2.300 E5.60401
G1 X30.694 Y2.806 E5.61814
G1 X30.765 Y3.321 E5.63228
G1 X30.789 Y3.840 E5.64641
G1 X30.765 Y4.385 E5.66125
G1 X30.698 Y4.874 E5.67468
G1 X30.584 Y5.380 E5.68881
G1 X30.424 Y5.875 E5.70294
G1 X30.221 Y6.353 E5.71707
G1 X29.976 Y6.811 E5.73120
G1 X29.691 Y7.245 E5.74534
G1 X29.368 Y7.652 E5.75947
G1 X29.010 Y8.028 E5.77360
G1 X28.599 Y8.387 E5.78844
G1 X28.178 Y8.691 E5.80257
G1 X27.732 Y8.957 E5.81670
G1 X27.263 Y9.181 E5.83084
G1 X26.777 Y9.362 E5.84497
G1 X26.276 Y9.499 E5.85910
G1 X25.790 Y9.588 E5.87253
G1 X25.273 Y9.635 E5.88666
G1 X22.588 Y9.637 E5.95971
G1 X22.365 Y9.539 E5.96633
G1 X20.906 Y7.947 E6.02508
G1 X19.004 Y6.204 E6.09525
G1 X16.958 Y4.634 E6.16542
G1 X14.783 Y3.248 E6.23560
G1 X12.495 Y2.057 E6.30577
G1 X10.112 Y1.070 E6.37594
G1 X7.652 Y0.294 E6.44612
G1 X5.134 Y-0.264 E6.51629
G1 X2.577 Y-0.601 E6.58646
G1 X-0.000 Y-0.713 E6.65664
G1 X-2.577 Y-0.601 E6.72681
G1 X-5.134 Y-0.264 E6.79698
G1 X-7.652 Y0.294 E6.86716
G1 X-10.112 Y1.070 E6.93733
G1 X-12.495 Y2.057 E7.00751
G1 X-14.783 Y3.248 E7.07768
G1 X-16.958 Y4.634 E7.14785
G1 X-19.004 Y6.204 E7.21803
G1 X-20.906 Y7.947 E7.28820
G1 X-22.365 Y9.539 E7.34695
G1 X-22.588 Y9.637 E7.35357
G1 X-25.247 Y9.637 E7.42591
G1 X-25.764 Y9.591 E7.44004
G1 X-26.276 Y9.499 E7.45418
G1 X-26.777 Y9.362 E7.46831
G1 X-27.263 Y9.181 E7.48244
G1 X-27.732 Y8.957 E7.49657
G1 X-28.200 Y8.677 E7.51141
G1 X-28.620 Y8.371 E7.52554
G1 X-29.010 Y8.028 E7.53967
G1 X-29.351 Y7.671 E7.55310
G1 X-29.676 Y7.266 E7.56724
G1 X-29.963 Y6.833 E7.58137
G1 X-30.221 Y6.353 E7.59620
G1 X-30.425 Y5.874 E7.61037
G1 X-30.583 Y5.380 E7.62447
G1 X-30.698 Y4.874 E7.63860
G1 X-30.767 Y4.359 E7.65273
G1 X-30.789 Y3.866 E7.66616
G1 X-30.767 Y3.347 E7.68029
G1 X-30.698 Y2.832 E7.69442
G1 X-30.584 Y2.325 E7.70856
G1 X-30.424 Y1.831 E7.72269
G1 X-30.210 Y1.329 E7.73753
G1 X-29.963 Y0.872 E7.75166
G1 X-29.676 Y0.440 E7.76579
G1 X-21.731 Y-9.522 E8.11245
G1 X-21.493 Y-9.637 E8.11964
G1 X21.406 Y-9.637 E9.28677
G1 X21.361 Y-9.058 F7800.000
G1 X29.215 Y0.790 F540.000 E9.62949
G1 X29.473 Y1.180 E9.64221
G1 X29.694 Y1.592 E9.65493
G1 X29.878 Y2.022 E9.66765
G1 X30.023 Y2.467 E9.68037
G1 X30.127 Y2.922 E9.69309
G1 X30.190 Y3.386 E9.70581
G1 X30.210 Y3.853 E9.71853
G1 X30.190 Y4.320 E9.73125
G1 X30.127 Y4.783 E9.74397
G1 X30.023 Y5.239 E9.75669
G1 X29.878 Y5.684 E9.76941
G1 X29.694 Y6.113 E9.78213
G1 X29.473 Y6.525 E9.79484
G1 X29.215 Y6.915 E9.80757
G1 X28.924 Y7.281 E9.82029
G1 X28.601 Y7.619 E9.83301
G1 X28.249 Y7.926 E9.84573
G1 X27.870 Y8.201 E9.85845
G1 X27.469 Y8.441 E9.87117
G1 X27.048 Y8.644 E9.88389
G1 X26.610 Y8.808 E9.89661
G1 X26.159 Y8.933 E9.90933
G1 X25.699 Y9.016 E9.92205
G1 X25.234 Y9.058 E9.93477
G1 X22.709 Y9.058 E10.00345
G1 X21.316 Y7.537 E10.05957
G1 X19.377 Y5.760 E10.13112
G1 X17.290 Y4.159 E10.20267
G1 X15.072 Y2.746 E10.27422
G1 X12.740 Y1.532 E10.34576
G1 X10.310 Y0.526 E10.41731
G1 X7.802 Y-0.265 E10.48886
G1 X5.235 Y-0.834 E10.56041
G1 X2.627 Y-1.177 E10.63196
G1 X-0.000 Y-1.292 E10.70350
G1 X-2.627 Y-1.177 E10.77505
G1 X-5.235 Y-0.834 E10.84660
G1 X-7.802 Y-0.265 E10.91815
G1 X-10.310 Y0.526 E10.98970
G1 X-12.740 Y1.532 E11.06124
G1 X-15.072 Y2.746 E11.13279
G1 X-17.290 Y4.159 E11.20434
G1 X-19.377 Y5.760 E11.27589
G1 X-21.316 Y7.537 E11.34744
G1 X-22.709 Y9.058 E11.40356
G1 X-25.234 Y9.058 E11.47224
G1 X-25.699 Y9.016 E11.48496
G1 X-26.159 Y8.933 E11.49768
G1 X-26.610 Y8.808 E11.51040
G1 X-27.048 Y8.644 E11.52312
G1 X-27.469 Y8.441 E11.53584
G1 X-27.870 Y8.201 E11.54856
G1 X-28.249 Y7.926 E11.56128
G1 X-28.601 Y7.619 E11.57400
G1 X-28.888 Y7.326 E11.58515
G1 X-29.215 Y6.915 E11.59945
G1 X-29.473 Y6.525 E11.61217
G1 X-29.694 Y6.114 E11.62489
G1 X-29.878 Y5.684 E11.63761
G1 X-30.023 Y5.239 E11.65033
G1 X-30.127 Y4.783 E11.66305
G1 X-30.190 Y4.320 E11.67577
G1 X-30.210 Y3.853 E11.68849
G1 X-30.190 Y3.386 E11.70121
G1 X-30.127 Y2.922 E11.71393
G1 X-30.023 Y2.467 E11.72665
G1 X-29.878 Y2.022 E11.73937
G1 X-29.694 Y1.592 E11.75209
G1 X-29.473 Y1.180 E11.76481
G1 X-29.215 Y0.790 E11.77753
G1 X-21.361 Y-9.058 E12.12025
G1 X21.274 Y-9.058 E13.28019
G1 X21.317 Y-8.481 F7800.000
G1 F1800.000 E12.28019
G92 E0
G1 X-26.431 Y8.257 F7800.000
G1 F1800.000 E1.00000
G1 X-26.820 Y8.111 F540.000 E1.01131
G1 X-27.195 Y7.931 E1.02261
G1 X-27.551 Y7.718 E1.03392
G1 X-27.888 Y7.474 E1.04522
G1 X-28.201 Y7.200 E1.05653
G1 X-28.488 Y6.900 E1.06784
G1 X-28.747 Y6.575 E1.07914
G1 X-28.976 Y6.228 E1.09045
G1 X-29.173 Y5.862 E1.10176
G1 X-29.336 Y5.480 E1.11306
G1 X-29.464 Y5.085 E1.12437
G1 X-29.557 Y4.680 E1.13567
G1 X-29.613 Y4.268 E1.14698
G1 X-29.631 Y3.853 E1.15829
G1 X-29.613 Y3.438 E1.16959
G1 X-29.557 Y3.026 E1.18090
G1 X-29.464 Y2.621 E1.19221
G1 X-29.336 Y2.225 E1.20351
G1 X-29.173 Y1.843 E1.21482
G1 X-28.976 Y1.477 E1.22612
G1 X-28.747 Y1.131 E1.23743
G1 X-21.082 Y-8.479 E1.57186
G1 X21.082 Y-8.479 E2.71901
G1 X28.747 Y1.131 E3.05344
G1 X28.976 Y1.477 E3.06475
G1 X29.173 Y1.843 E3.07605
G1 X29.336 Y2.225 E3.08736
G1 X29.464 Y2.621 E3.09866
G1 X29.557 Y3.026 E3.10997
G1 X29.613 Y3.438 E3.12128
G1 X29.631 Y3.853 E3.13258
G1 X29.613 Y4.268 E3.14389
G1 X29.557 Y4.680 E3.15519
G1 X29.464 Y5.085 E3.16650
G1 X29.336 Y5.480 E3.17781
G1 X29.173 Y5.862 E3.18911
G1 X28.976 Y6.228 E3.20042
G1 X28.747 Y6.575 E3.21173
G1 X28.488 Y6.900 E3.22303
G1 X28.200 Y7.200 E3.23434
G1 X27.888 Y7.474 E3.24564
G1 X27.551 Y7.718 E3.25695
G1 X27.195 Y7.931 E3.26825
G1 X26.820 Y8.111 E3.27956
G1 X26.431 Y8.257 E3.29087
G1 X26.031 Y8.368 E3.30217
G1 X25.622 Y8.442 E3.31348
G1 X25.208 Y8.479 E3.32479
G1 X22.964 Y8.479 E3.38584
G1 X21.725 Y7.128 E3.43572
G1 X19.749 Y5.317 E3.50864
G1 X17.623 Y3.685 E3.58157
G1 X15.362 Y2.245 E3.65449
G1 X12.984 Y1.007 E3.72741
G1 X10.508 Y-0.018 E3.80033
G1 X7.952 Y-0.824 E3.87326
G1 X5.335 Y-1.404 E3.94618
G1 X2.678 Y-1.754 E4.01910
G1 X-0.000 Y-1.871 E4.09202
G1 X-2.678 Y-1.754 E4.16495
G1 X-5.335 Y-1.404 E4.23787
G1 X-7.952 Y-0.824 E4.31079
G1 X-10.508 Y-0.018 E4.38371
G1 X-12.984 Y1.007 E4.45664
G1 X-15.362 Y2.245 E4.52956
G1 X-17.623 Y3.685 E4.60248
G1 X-19.749 Y5.317 E4.67540
G1 X-21.725 Y7.128 E4.74833
G1 X-22.964 Y8.479 E4.79821
G1 X-25.208 Y8.479 E4.85926
G1 X-25.622 Y8.442 E4.87057
G1 X-26.031 Y8.368 E4.88187
G1 X-26.347 Y8.280 E4.89082
G1 X-26.375 Y6.233 F7800.000
G1 X-27.583 Y4.793 F540.000 E4.94198
G1 X-27.583 Y2.913 E4.99314
G1 X-26.375 Y1.472 E5.04430
G1 X-24.523 Y1.145 E5.09546
G1 X-22.894 Y2.086 E5.14662
G1 X-22.251 Y3.853 E5.19778
G1 X-22.894 Y5.620 E5.24894
G1 X-24.523 Y6.560 E5.30010
G1 X-26.289 Y6.249 E5.34890
G1 X-26.307 Y5.659 F7800.000
G1 X-26.682 Y6.767
G1 X-28.162 Y5.004 F540.000 E5.41152
G1 X-28.162 Y2.702 E5.47414
G1 X-26.682 Y0.939 E5.53676
G1 X-24.416 Y0.539 E5.59938
G1 X-22.422 Y1.690 E5.66199
G1 X-21.635 Y3.853 E5.72461
G1 X-22.422 Y6.016 E5.78723
G1 X-24.416 Y7.166 E5.84985
G1 X-26.597 Y6.782 E5.91011
G1 F1800.000 E4.91011
G92 E0
G1 X22.417 Y4.793 F7800.000
G1 F1800.000 E1.00000
G1 X22.417 Y2.913 F540.000 E1.05116
G1 X23.625 Y1.472 E1.10232
G1 X25.477 Y1.145 E1.15348
G1 X27.106 Y2.086 E1.20464
G1 X27.749 Y3.853 E1.25580
G1 X27.106 Y5.620 E1.30696
G1 X25.477 Y6.560 E1.35813
G1 X23.625 Y6.233 E1.40929
G1 X22.473 Y4.859 E1.45809
G1 X22.838 Y4.396 F7800.000
G1 X21.838 Y5.004
G1 X21.838 Y2.702 F540.000 E1.52070
G1 X23.318 Y0.939 E1.58332
G1 X25.584 Y0.539 E1.64594
G1 X27.578 Y1.690 E1.70856
G1 X28.365 Y3.853 E1.77118
G1 X27.578 Y6.016 E1.83380
G1 X25.584 Y7.166 E1.89642
G1 X23.318 Y6.767 E1.95903
G1 X21.894 Y5.070 E2.01929
G1 X21.419 Y4.842 F7800.000
G1 X8.517 Y-8.060 F1080.000 E2.51842
G1 X9.340 Y-8.060 E2.54093
G1 X21.419 Y4.019 E3.00824
G1 X21.419 Y3.196 E3.03074
G1 X10.162 Y-8.060 E3.46622
G1 X10.985 Y-8.060 E3.48873
G1 X21.499 Y2.454 E3.89548
G1 X21.874 Y2.007 E3.91145
G1 X11.808 Y-8.060 E4.30090
G1 X12.630 Y-8.060 E4.32341
G1 X22.250 Y1.559 E4.69555
G1 X22.625 Y1.112 E4.71152
G1 X13.453 Y-8.060 E5.06636
G1 X14.276 Y-8.060 E5.08887
G1 X23.000 Y0.665 E5.42640
G1 X23.619 Y0.460 E5.44421
G1 X15.098 Y-8.060 E5.77383
G1 X15.921 Y-8.060 E5.79633
G1 X24.318 Y0.337 E6.12118
G1 X25.017 Y0.213 E6.14061
G1 X16.744 Y-8.060 E6.46069
G1 X17.566 Y-8.060 E6.48319
G1 X25.814 Y0.188 E6.80228
G1 X27.455 Y0.183 F7800.000
G1 X19.212 Y-8.060 F1080.000 E7.12117
G1 X18.389 Y-8.060 E7.14368
G1 X27.761 Y1.311 E7.50623
G1 X24.213 Y-3.881 F7800.000
G1 X20.034 Y-8.060 F1080.000 E7.66790
G1 X20.857 Y-8.060 E7.69040
G1 X20.972 Y-7.946 E7.69483
G1 X19.625 Y4.693 F7800.000
G1 X6.872 Y-8.060 F1080.000 E8.18822
G1 X6.049 Y-8.060 E8.21072
G1 X16.726 Y2.617 E8.62377
G1 X14.730 Y1.443 E8.68712
G1 X5.226 Y-8.060 E9.05477
G1 X4.404 Y-8.060 E9.07727
G1 X13.041 Y0.577 E9.41141
G1 X11.636 Y-0.005 E9.45299
G1 X3.581 Y-8.060 E9.76462
G1 X2.758 Y-8.060 E9.78713
G1 X10.293 Y-0.526 E10.07860
G1 X9.091 Y-0.905 E10.11306
G1 X1.936 Y-8.060 E10.38988
G1 X1.113 Y-8.060 E10.41239
G1 X7.910 Y-1.263 E10.67534
G1 X6.853 Y-1.497 E10.70496
G1 X0.290 Y-8.060 E10.95885
G1 X-0.532 Y-8.060 E10.98136
G1 X5.796 Y-1.732 E11.22618
G1 X4.808 Y-1.897 E11.25357
G1 X-1.355 Y-8.060 E11.49201
G1 X-2.178 Y-8.060 E11.51452
G1 X3.861 Y-2.021 E11.74813
G1 X2.914 Y-2.146 E11.77427
G1 X-3.000 Y-8.060 E12.00307
G1 X-3.823 Y-8.060 E12.02557
G1 X2.035 Y-2.202 E12.25220
G1 X1.175 Y-2.240 E12.27576
G1 X-4.646 Y-8.060 E12.50093
G1 X-5.468 Y-8.060 E12.52344
G1 X0.315 Y-2.277 E12.74716
G1 X-0.500 Y-2.269 E12.76945
G1 X-6.291 Y-8.060 E12.99349
G1 X-7.114 Y-8.060 E13.01599
G1 X-1.288 Y-2.235 E13.24136
G1 X-2.076 Y-2.200 E13.26294
G1 X-7.936 Y-8.060 E13.48964
G1 X-8.759 Y-8.060 E13.51215
G1 X-2.853 Y-2.154 E13.74063
G1 X-3.580 Y-2.058 E13.76069
G1 X-9.582 Y-8.060 E13.99288
G1 X-10.404 Y-8.060 E14.01538
G1 X-4.307 Y-1.963 E14.25127
G1 X-5.034 Y-1.867 E14.27133
G1 X-11.227 Y-8.060 E14.51092
G1 X-12.050 Y-8.060 E14.53342
G1 X-5.735 Y-1.745 E14.77772
G1 X-6.408 Y-1.596 E14.79659
G1 X-12.872 Y-8.060 E15.04666
G1 X-13.695 Y-8.060 E15.06917
G1 X-7.082 Y-1.447 E15.32502
G1 X-7.755 Y-1.297 E15.34389
G1 X-14.518 Y-8.060 E15.60551
G1 X-15.340 Y-8.060 E15.62802
G1 X-8.402 Y-1.122 E15.89643
G1 X-9.028 Y-0.925 E15.91437
G1 X-16.163 Y-8.060 E16.19042
G1 X-16.986 Y-8.060 E16.21292
G1 X-9.653 Y-0.728 E16.49659
G1 X-10.279 Y-0.530 E16.51454
G1 X-17.808 Y-8.060 E16.80584
G1 X-18.631 Y-8.060 E16.82834
G1 X-10.886 Y-0.316 E17.12796
