; generated by Slic3r 0.9.10b on 2013-12-15 at 20:28:19

; layer_height = 0.3
; perimeters = 2
; top_solid_layers = 3
; bottom_solid_layers = 3
; fill_density = 0.4
; perimeter_speed = 30
; infill_speed = 60
; travel_speed = 130
; nozzle_diameter = 0.5
; filament_diameter = 2.85
; extrusion_multiplier = 1
; perimeters extrusion width = 0.70mm
; infill extrusion width = 0.70mm
; solid infill extrusion width = 0.70mm
; top infill extrusion width = 0.70mm
; first layer extrusion width = 0.60mm

G21 ; set units to millimeters
M107
M104 S0
M83
M140 S70
G28
G1Y98F9000
M190 S70
G1X5Y98Z150F9000
M104 S210
G1X5Y98Z1F9000
G1Z0.05
M109 S210
G1Z5
G1X15
;G1E5F50
G90 ; use absolute coordinates
G92 E0
M82 ; use absolute distances for extrusion
G1 F1800.000 E-1.00000
G92 E0
G1 Z0.300 F7800.000
G1 X27.730 Y24.565
G1 F1800.000 E1.00000
G1 X27.690 Y25.455 F540.000 E1.02424
G1 X27.570 Y26.475 E1.05218
G1 X27.400 Y27.285 E1.07470
G1 X27.270 Y27.765 E1.08823
G1 X27.110 Y28.285 E1.10303
G1 X26.940 Y28.755 E1.11663
G1 X26.500 Y29.745 E1.14610
G1 X26.130 Y30.425 E1.16716
G1 X25.870 Y30.845 E1.18060
G1 X25.480 Y31.415 E1.19939
G1 X24.820 Y32.235 E1.22803
G1 X24.490 Y32.595 E1.24132
G1 X23.950 Y33.115 E1.26171
G1 X23.570 Y33.445 E1.27541
G1 X23.120 Y33.805 E1.29109
G1 X22.720 Y34.095 E1.30453
G1 X22.170 Y34.455 E1.32241
G1 X21.740 Y34.705 E1.33594
G1 X20.700 Y35.205 E1.36734
G1 X20.090 Y35.455 E1.38528
G1 X19.620 Y35.615 E1.39878
G1 X18.940 Y35.805 E1.41799
G1 X18.450 Y35.915 E1.43166
G1 X17.810 Y36.025 E1.44932
G1 X16.880 Y36.125 E1.47477
G1 X16.150 Y36.155 E1.49465
G1 X-16.280 Y36.145 E2.37696
G1 X-17.170 Y36.105 E2.40120
G1 X-17.970 Y36.005 E2.42313
G1 X-18.460 Y35.915 E2.43669
G1 X-19.110 Y35.765 E2.45484
G1 X-19.590 Y35.625 E2.46844
G1 X-20.610 Y35.255 E2.49796
G1 X-21.650 Y34.755 E2.52935
G1 X-22.280 Y34.385 E2.54923
G1 X-22.690 Y34.115 E2.56259
G1 X-23.550 Y33.465 E2.59192
G1 X-24.340 Y32.755 E2.62082
G1 X-24.910 Y32.145 E2.64353
G1 X-25.230 Y31.755 E2.65725
G1 X-25.850 Y30.885 E2.68632
G1 X-26.200 Y30.325 E2.70429
G1 X-26.440 Y29.885 E2.71792
G1 X-26.740 Y29.245 E2.73715
G1 X-27.120 Y28.275 E2.76550
G1 X-27.270 Y27.805 E2.77892
G1 X-27.450 Y27.125 E2.79806
G1 X-27.550 Y26.635 E2.81166
G1 X-27.650 Y25.965 E2.83009
G1 X-27.700 Y25.465 E2.84376
G1 X-27.730 Y24.815 E2.86147
G1 X-27.730 Y-24.825 E4.21200
G1 X-27.700 Y-25.475 E4.22971
G1 X-27.650 Y-25.975 E4.24338
G1 X-27.550 Y-26.645 E4.26181
G1 X-27.450 Y-27.135 E4.27542
G1 X-27.130 Y-28.255 E4.30711
G1 X-26.910 Y-28.855 E4.32449
G1 X-26.720 Y-29.305 E4.33778
G1 X-26.440 Y-29.895 E4.35555
G1 X-26.200 Y-30.335 E4.36919
G1 X-25.570 Y-31.305 E4.40065
G1 X-25.230 Y-31.765 E4.41622
G1 X-24.910 Y-32.155 E4.42994
G1 X-24.340 Y-32.765 E4.45266
G1 X-23.980 Y-33.105 E4.46613
G1 X-23.240 Y-33.735 E4.49257
G1 X-22.690 Y-34.135 E4.51107
G1 X-22.280 Y-34.405 E4.52443
G1 X-21.550 Y-34.825 E4.54734
G1 X-20.720 Y-35.215 E4.57229
G1 X-20.260 Y-35.405 E4.58583
G1 X-19.470 Y-35.675 E4.60855
G1 X-18.990 Y-35.805 E4.62208
G1 X-17.970 Y-36.015 E4.65041
G1 X-17.090 Y-36.115 E4.67450
G1 X-16.150 Y-36.155 E4.70010
G1 X16.330 Y-36.155 E5.58377
G1 X17.320 Y-36.095 E5.61076
G1 X17.810 Y-36.035 E5.62419
G1 X18.450 Y-35.925 E5.64186
G1 X18.940 Y-35.815 E5.65552
G1 X19.620 Y-35.625 E5.67473
G1 X20.090 Y-35.465 E5.68824
G1 X21.160 Y-35.005 E5.71992
G1 X22.070 Y-34.525 E5.74791
G1 X22.810 Y-34.045 E5.77191
G1 X23.210 Y-33.745 E5.78551
G1 X23.950 Y-33.125 E5.81178
G1 X24.490 Y-32.605 E5.83218
G1 X24.820 Y-32.245 E5.84546
G1 X25.480 Y-31.425 E5.87410
G1 X25.870 Y-30.855 E5.89289
G1 X26.130 Y-30.435 E5.90633
G1 X26.500 Y-29.755 E5.92739
G1 X26.940 Y-28.765 E5.95687
G1 X27.110 Y-28.295 E5.97046
G1 X27.270 Y-27.775 E5.98527
G1 X27.400 Y-27.295 E5.99880
G1 X27.570 Y-26.485 E6.02131
G1 X27.640 Y-25.985 E6.03505
G1 X27.720 Y-24.985 E6.06234
G1 X27.730 Y24.478 E7.40807
G1 F1800.000 E6.40807
G92 E0
G1 X18.020 Y23.736 F7800.000
G1 F1800.000 E1.00000
G1 X17.965 Y24.487 F540.000 E1.02048
G1 X17.689 Y25.189 E1.04100
G1 X17.219 Y25.778 E1.06150
G1 X16.597 Y26.203 E1.08199
G1 X15.877 Y26.425 E1.10250
G1 X15.123 Y26.425 E1.12300
G1 X14.403 Y26.203 E1.14351
G1 X13.781 Y25.778 E1.16399
G1 X13.403 Y25.305 E1.18047
G1 X13.311 Y25.189 E1.18450
G1 X13.035 Y24.487 E1.20502
G1 X12.980 Y23.736 E1.22550
G1 X13.147 Y23.002 E1.24599
G1 X13.524 Y22.348 E1.26652
G1 X14.077 Y21.837 E1.28700
G1 X14.755 Y21.509 E1.30749
G1 X15.500 Y21.397 E1.32799
G1 X16.245 Y21.509 E1.34849
G1 X16.923 Y21.837 E1.36898
G1 X17.476 Y22.348 E1.38946
G1 X17.853 Y23.002 E1.40999
G1 X18.001 Y23.652 E1.42812
G1 X17.437 Y23.780 F7800.000
G1 X17.394 Y24.357 F540.000 E1.44386
G1 X17.182 Y24.896 E1.45963
G1 X16.821 Y25.349 E1.47539
G1 X16.343 Y25.676 E1.49114
G1 X15.790 Y25.846 E1.50689
G1 X15.210 Y25.846 E1.52265
G1 X14.657 Y25.676 E1.53841
G1 X14.179 Y25.349 E1.55415
G1 X13.856 Y24.944 E1.56826
G1 X13.818 Y24.896 E1.56992
G1 X13.606 Y24.357 E1.58569
G1 X13.563 Y23.780 E1.60142
G1 X13.692 Y23.215 E1.61718
G1 X13.981 Y22.713 E1.63295
G1 X14.406 Y22.320 E1.64869
G1 X14.928 Y22.068 E1.66445
G1 X15.500 Y21.982 E1.68020
G1 X16.072 Y22.068 E1.69594
G1 X16.594 Y22.320 E1.71170
G1 X17.019 Y22.713 E1.72744
G1 X17.308 Y23.215 E1.74321
G1 X17.417 Y23.695 E1.75661
G1 X16.943 Y24.082 F7800.000
G1 F1800.000 E0.75661
G92 E0
G1 X-13.524 Y-5.498 F7800.000
G1 F1800.000 E1.00000
G1 X-14.077 Y-4.987 F540.000 E1.02048
G1 X-14.755 Y-4.659 E1.04097
G1 X-15.500 Y-4.547 E1.06147
G1 X-16.245 Y-4.659 E1.08197
G1 X-16.923 Y-4.987 E1.10246
G1 X-17.476 Y-5.498 E1.12294
G1 X-17.853 Y-6.152 E1.14347
G1 X-18.020 Y-6.886 E1.16396
G1 X-17.965 Y-7.637 E1.18444
G1 X-17.689 Y-8.339 E1.20496
G1 X-17.219 Y-8.928 E1.22547
G1 X-16.597 Y-9.353 E1.24596
G1 X-15.877 Y-9.575 E1.26646
G1 X-15.123 Y-9.575 E1.28696
G1 X-14.403 Y-9.353 E1.30747
G1 X-13.781 Y-8.928 E1.32796
G1 X-13.311 Y-8.339 E1.34846
G1 X-13.035 Y-7.637 E1.36899
G1 X-12.980 Y-6.886 E1.38946
G1 X-13.147 Y-6.152 E1.40995
G1 X-13.481 Y-5.573 E1.42812
G1 X-13.981 Y-5.863 F7800.000
G1 X-14.406 Y-5.470 F540.000 E1.44387
G1 X-14.928 Y-5.218 E1.45963
G1 X-15.500 Y-5.132 E1.47537
G1 X-16.072 Y-5.218 E1.49112
G1 X-16.594 Y-5.470 E1.50687
G1 X-17.019 Y-5.863 E1.52262
G1 X-17.308 Y-6.365 E1.53839
G1 X-17.437 Y-6.930 E1.55414
G1 X-17.394 Y-7.507 E1.56988
G1 X-17.182 Y-8.046 E1.58565
G1 X-16.821 Y-8.499 E1.60141
G1 X-16.343 Y-8.826 E1.61716
G1 X-15.790 Y-8.996 E1.63291
G1 X-15.210 Y-8.996 E1.64867
G1 X-14.657 Y-8.826 E1.66443
G1 X-14.179 Y-8.499 E1.68017
G1 X-13.818 Y-8.046 E1.69594
G1 X-13.606 Y-7.507 E1.71171
G1 X-13.563 Y-6.930 E1.72744
G1 X-13.692 Y-6.365 E1.74320
G1 X-13.938 Y-5.939 E1.75661
G1 X-14.548 Y-5.979 F7800.000
G1 F1800.000 E0.75661
G92 E0
G1 X-11.259 Y-16.579 F7800.000
G1 F1800.000 E1.00000
G1 X-11.909 Y-16.806 F540.000 E1.01873
G1 X-12.492 Y-17.172 E1.03744
G1 X-12.978 Y-17.659 E1.05615
G1 X-13.344 Y-18.241 E1.07487
G1 X-13.571 Y-18.891 E1.09360
G1 X-13.648 Y-19.575 E1.11233
G1 X-13.571 Y-20.259 E1.13107
G1 X-13.344 Y-20.909 E1.14980
G1 X-12.978 Y-21.491 E1.16852
G1 X-12.492 Y-21.978 E1.18723
G1 X-11.909 Y-22.344 E1.20594
G1 X-11.259 Y-22.571 E1.22467
G1 X-10.575 Y-22.648 E1.24341
G1 X-9.891 Y-22.571 E1.26214
G1 X-9.241 Y-22.344 E1.28088
G1 X-8.659 Y-21.978 E1.29959
G1 X-8.172 Y-21.492 E1.31830
G1 X-7.806 Y-20.909 E1.33701
G1 X-7.579 Y-20.259 E1.35574
G1 X-7.502 Y-19.575 E1.37448
G1 X-7.579 Y-18.891 E1.39322
G1 X-7.806 Y-18.241 E1.41195
G1 X-8.172 Y-17.658 E1.43066
G1 X-8.659 Y-17.172 E1.44937
G1 X-9.241 Y-16.806 E1.46808
G1 X-9.891 Y-16.579 E1.48681
G1 X-10.575 Y-16.502 E1.50555
G1 X-11.173 Y-16.569 E1.52193
G1 X-11.130 Y-17.146 F7800.000
G1 X-11.656 Y-17.331 F540.000 E1.53711
G1 X-12.129 Y-17.627 E1.55228
G1 X-12.523 Y-18.022 E1.56744
G1 X-12.819 Y-18.494 E1.58261
G1 X-13.004 Y-19.020 E1.59779
G1 X-13.066 Y-19.575 E1.61298
G1 X-13.004 Y-20.130 E1.62817
G1 X-12.819 Y-20.656 E1.64335
G1 X-12.523 Y-21.128 E1.65852
G1 X-12.129 Y-21.523 E1.67368
G1 X-11.656 Y-21.819 E1.68885
G1 X-11.130 Y-22.004 E1.70403
G1 X-10.575 Y-22.066 E1.71922
G1 X-10.020 Y-22.004 E1.73441
G1 X-9.494 Y-21.819 E1.74959
G1 X-9.022 Y-21.523 E1.76476
G1 X-8.627 Y-21.129 E1.77993
G1 X-8.331 Y-20.656 E1.79510
G1 X-8.146 Y-20.130 E1.81028
G1 X-8.084 Y-19.575 E1.82547
G1 X-8.146 Y-19.020 E1.84065
G1 X-8.331 Y-18.494 E1.85584
G1 X-8.627 Y-18.021 E1.87101
G1 X-9.022 Y-17.627 E1.88617
G1 X-9.494 Y-17.331 E1.90134
G1 X-10.020 Y-17.146 E1.91652
G1 X-10.575 Y-17.084 E1.93171
G1 X-11.044 Y-17.137 E1.94454
G1 X-11.274 Y-17.685 F7800.000
G1 F1800.000 E0.94454
G92 E0
G1 X7.502 Y-19.575 F7800.000
G1 F1800.000 E1.00000
G1 X7.579 Y-20.259 F540.000 E1.01874
G1 X7.806 Y-20.909 E1.03747
G1 X8.172 Y-21.491 E1.05618
G1 X8.254 Y-21.573 E1.05932
G1 X8.658 Y-21.978 E1.07489
G1 X9.241 Y-22.344 E1.09360
G1 X9.891 Y-22.571 E1.11233
G1 X10.575 Y-22.648 E1.13107
G1 X11.259 Y-22.571 E1.14981
G1 X11.909 Y-22.344 E1.16854
G1 X12.491 Y-21.978 E1.18725
G1 X12.978 Y-21.492 E1.20596
G1 X13.344 Y-20.909 E1.22468
G1 X13.571 Y-20.259 E1.24341
G1 X13.648 Y-19.575 E1.26214
G1 X13.571 Y-18.891 E1.28088
G1 X13.344 Y-18.241 E1.29961
G1 X12.978 Y-17.658 E1.31833
G1 X12.491 Y-17.172 E1.33703
G1 X11.909 Y-16.806 E1.35575
G1 X11.259 Y-16.579 E1.37448
G1 X10.575 Y-16.502 E1.39322
G1 X9.891 Y-16.579 E1.41195
G1 X9.241 Y-16.806 E1.43068
G1 X8.658 Y-17.172 E1.44940
G1 X8.172 Y-17.659 E1.46811
G1 X7.806 Y-18.241 E1.48682
G1 X7.579 Y-18.891 E1.50555
G1 X7.511 Y-19.489 E1.52193
G1 X8.084 Y-19.575 F7800.000
G1 X8.146 Y-20.130 F540.000 E1.53712
G1 X8.331 Y-20.656 E1.55230
G1 X8.663 Y-21.164 E1.56880
G1 X9.021 Y-21.523 E1.58260
G1 X9.494 Y-21.819 E1.59777
G1 X10.020 Y-22.004 E1.61295
G1 X10.575 Y-22.066 E1.62814
G1 X11.130 Y-22.004 E1.64333
G1 X11.656 Y-21.819 E1.65851
G1 X12.128 Y-21.523 E1.67368
G1 X12.523 Y-21.129 E1.68884
G1 X12.819 Y-20.656 E1.70401
G1 X13.004 Y-20.130 E1.71919
G1 X13.066 Y-19.575 E1.73438
G1 X13.004 Y-19.020 E1.74957
G1 X12.819 Y-18.494 E1.76475
G1 X12.523 Y-18.021 E1.77992
G1 X12.128 Y-17.627 E1.79508
G1 X11.656 Y-17.331 E1.81025
G1 X11.130 Y-17.146 E1.82543
G1 X10.575 Y-17.084 E1.84062
G1 X10.020 Y-17.146 E1.85581
G1 X9.494 Y-17.331 E1.87099
G1 X9.021 Y-17.627 E1.88616
G1 X8.627 Y-18.022 E1.90133
G1 X8.331 Y-18.494 E1.91650
G1 X8.146 Y-19.020 E1.93168
G1 X8.094 Y-19.489 E1.94451
G1 X8.577 Y-19.836 F7800.000
G1 F1800.000 E0.94451
G92 E0
G1 X14.577 Y-9.428 F7800.000
G1 F1800.000 E1.00000
G1 X15.311 Y-9.595 F540.000 E1.02049
G1 X16.062 Y-9.540 E1.04097
G1 X16.764 Y-9.264 E1.06149
G1 X16.880 Y-9.172 E1.06552
G1 X17.353 Y-8.794 E1.08200
G1 X17.778 Y-8.172 E1.10248
G1 X18.000 Y-7.452 E1.12299
G1 X18.000 Y-6.698 E1.14349
G1 X17.821 Y-6.120 E1.15996
G1 X17.778 Y-5.978 E1.16400
G1 X17.353 Y-5.356 E1.18449
G1 X16.764 Y-4.886 E1.20499
G1 X16.062 Y-4.610 E1.22551
G1 X15.311 Y-4.555 E1.24599
G1 X14.577 Y-4.722 E1.26648
G1 X13.923 Y-5.099 E1.28701
G1 X13.412 Y-5.652 E1.30749
G1 X13.084 Y-6.330 E1.32799
G1 X12.972 Y-7.075 E1.34848
G1 X13.084 Y-7.820 E1.36898
G1 X13.412 Y-8.498 E1.38947
G1 X13.923 Y-9.051 E1.40995
G1 X14.502 Y-9.385 E1.42812
G1 X14.790 Y-8.883 F7800.000
G1 X15.355 Y-9.012 F540.000 E1.44388
G1 X15.932 Y-8.969 E1.45962
G1 X16.471 Y-8.757 E1.47539
G1 X16.519 Y-8.719 E1.47705
G1 X16.924 Y-8.396 E1.49115
G1 X17.251 Y-7.918 E1.50690
G1 X17.421 Y-7.365 E1.52265
G1 X17.421 Y-6.785 E1.53841
G1 X17.251 Y-6.232 E1.55417
G1 X16.924 Y-5.754 E1.56991
G1 X16.471 Y-5.393 E1.58568
G1 X15.932 Y-5.181 E1.60144
G1 X15.355 Y-5.138 E1.61718
G1 X14.790 Y-5.267 E1.63294
G1 X14.288 Y-5.556 E1.64871
G1 X13.895 Y-5.981 E1.66445
G1 X13.643 Y-6.503 E1.68021
G1 X13.557 Y-7.075 E1.69595
G1 X13.643 Y-7.647 E1.71170
G1 X13.895 Y-8.169 E1.72745
G1 X14.288 Y-8.594 E1.74320
G1 X14.715 Y-8.840 E1.75661
G1 X15.224 Y-8.500 F7800.000
G1 F1800.000 E0.75661
G92 E0
G1 X7.811 Y-0.772 F7800.000
G1 F1800.000 E1.00000
G1 X8.534 Y-0.109 F540.000 E1.02669
G1 X9.245 Y0.668 E1.05534
G1 X9.887 Y1.503 E1.08399
G1 X10.451 Y2.391 E1.11262
G1 X10.938 Y3.325 E1.14127
G1 X11.341 Y4.297 E1.16991
G1 X11.657 Y5.301 E1.19855
G1 X11.885 Y6.329 E1.22720
G1 X12.022 Y7.373 E1.25585
G1 X12.069 Y8.425 E1.28449
G1 X12.022 Y9.477 E1.31313
G1 X11.885 Y10.521 E1.34178
G1 X11.657 Y11.549 E1.37043
G1 X11.341 Y12.553 E1.39907
G1 X10.938 Y13.525 E1.42771
G1 X10.451 Y14.459 E1.45636
G1 X9.887 Y15.347 E1.48499
G1 X9.245 Y16.182 E1.51363
G1 X8.534 Y16.959 E1.54229
G1 X7.757 Y17.670 E1.57095
G1 X6.922 Y18.312 E1.59960
G1 X6.034 Y18.876 E1.62822
G1 X5.100 Y19.363 E1.65687
G1 X4.128 Y19.766 E1.68552
G1 X3.124 Y20.082 E1.71416
G1 X2.096 Y20.310 E1.74280
G1 X1.052 Y20.447 E1.77146
G1 X0.000 Y20.494 E1.80009
G1 X-1.052 Y20.447 E1.82873
G1 X-2.096 Y20.310 E1.85739
G1 X-3.124 Y20.082 E1.88603
G1 X-4.128 Y19.766 E1.91467
G1 X-5.100 Y19.363 E1.94332
G1 X-6.034 Y18.876 E1.97197
G1 X-6.922 Y18.312 E2.00059
G1 X-7.757 Y17.670 E2.02924
G1 X-8.534 Y16.959 E2.05790
G1 X-9.245 Y16.182 E2.08656
G1 X-9.887 Y15.347 E2.11520
G1 X-10.451 Y14.459 E2.14383
G1 X-10.938 Y13.525 E2.17248
G1 X-11.341 Y12.553 E2.20112
G1 X-11.657 Y11.549 E2.22976
G1 X-11.885 Y10.521 E2.25841
G1 X-12.022 Y9.477 E2.28706
G1 X-12.069 Y8.425 E2.31570
G1 X-12.022 Y7.373 E2.34434
G1 X-11.885 Y6.329 E2.37299
G1 X-11.657 Y5.301 E2.40164
G1 X-11.341 Y4.297 E2.43028
G1 X-10.938 Y3.325 E2.45892
G1 X-10.451 Y2.391 E2.48757
G1 X-9.887 Y1.503 E2.51620
G1 X-9.245 Y0.668 E2.54484
G1 X-8.534 Y-0.109 E2.57350
G1 X-7.757 Y-0.820 E2.60216
G1 X-6.922 Y-1.462 E2.63081
G1 X-6.034 Y-2.026 E2.65943
G1 X-5.100 Y-2.513 E2.68808
G1 X-4.128 Y-2.916 E2.71673
G1 X-3.124 Y-3.232 E2.74537
G1 X-2.096 Y-3.460 E2.77401
G1 X-1.052 Y-3.597 E2.80267
G1 X0.000 Y-3.644 E2.83131
G1 X1.052 Y-3.597 E2.85994
G1 X2.096 Y-3.460 E2.88860
G1 X3.124 Y-3.232 E2.91724
G1 X4.128 Y-2.916 E2.94588
G1 X5.100 Y-2.513 E2.97453
G1 X6.034 Y-2.026 E3.00318
G1 X6.922 Y-1.462 E3.03180
G1 X7.746 Y-0.829 E3.06006
G1 X7.385 Y-0.377 F7800.000
G1 X8.125 Y0.300 F540.000 E3.08734
G1 X8.802 Y1.040 E3.11462
G1 X9.412 Y1.835 E3.14189
G1 X9.950 Y2.680 E3.16915
G1 X10.413 Y3.570 E3.19643
G1 X10.797 Y4.495 E3.22369
G1 X11.098 Y5.451 E3.25096
G1 X11.315 Y6.430 E3.27823
G1 X11.445 Y7.424 E3.30551
G1 X11.490 Y8.425 E3.33277
G1 X11.445 Y9.426 E3.36004
G1 X11.315 Y10.420 E3.38732
G1 X11.098 Y11.399 E3.41459
G1 X10.797 Y12.355 E3.44186
G1 X10.413 Y13.280 E3.46912
G1 X9.950 Y14.170 E3.49640
G1 X9.412 Y15.015 E3.52365
G1 X8.802 Y15.810 E3.55093
G1 X8.125 Y16.550 E3.57821
G1 X7.385 Y17.227 E3.60549
G1 X6.590 Y17.837 E3.63276
G1 X5.745 Y18.375 E3.66001
G1 X4.855 Y18.838 E3.68730
G1 X3.930 Y19.222 E3.71456
G1 X2.974 Y19.523 E3.74182
G1 X1.995 Y19.740 E3.76910
G1 X1.001 Y19.870 E3.79637
G1 X0.000 Y19.915 E3.82364
G1 X-1.001 Y19.870 E3.85091
G1 X-1.995 Y19.740 E3.87818
G1 X-2.974 Y19.523 E3.90546
G1 X-3.930 Y19.222 E3.93272
G1 X-4.855 Y18.838 E3.95998
G1 X-5.745 Y18.375 E3.98727
G1 X-6.590 Y17.837 E4.01452
G1 X-7.385 Y17.227 E4.04179
G1 X-8.125 Y16.550 E4.06907
G1 X-8.802 Y15.810 E4.09635
G1 X-9.412 Y15.015 E4.12363
G1 X-9.950 Y14.170 E4.15088
G1 X-10.413 Y13.280 E4.17816
G1 X-10.797 Y12.355 E4.20542
G1 X-11.098 Y11.399 E4.23269
G1 X-11.315 Y10.420 E4.25996
G1 X-11.445 Y9.426 E4.28724
G1 X-11.490 Y8.425 E4.31450
G1 X-11.445 Y7.424 E4.34177
G1 X-11.315 Y6.430 E4.36905
G1 X-11.098 Y5.451 E4.39632
G1 X-10.797 Y4.495 E4.42359
G1 X-10.413 Y3.570 E4.45085
G1 X-9.950 Y2.680 E4.47813
G1 X-9.412 Y1.835 E4.50538
G1 X-8.802 Y1.040 E4.53266
G1 X-8.125 Y0.300 E4.55994
G1 X-7.385 Y-0.377 E4.58722
G1 X-6.590 Y-0.987 E4.61449
G1 X-5.745 Y-1.525 E4.64174
G1 X-4.855 Y-1.988 E4.66903
G1 X-3.930 Y-2.372 E4.69629
G1 X-2.974 Y-2.673 E4.72355
G1 X-1.995 Y-2.890 E4.75083
G1 X-1.001 Y-3.020 E4.77810
G1 X0.000 Y-3.065 E4.80537
G1 X1.001 Y-3.020 E4.83264
G1 X1.995 Y-2.890 E4.85991
G1 X2.974 Y-2.673 E4.88719
G1 X3.930 Y-2.372 E4.91445
G1 X4.855 Y-1.988 E4.94171
G1 X5.745 Y-1.525 E4.96900
G1 X6.590 Y-0.987 E4.99625
G1 X7.316 Y-0.430 E5.02116
G1 X7.276 Y0.191 F7800.000
G1 F1800.000 E4.02116
G92 E0
G1 X-13.923 Y21.949 F7800.000
G1 F1800.000 E1.00000
G1 X-13.412 Y22.502 F540.000 E1.02048
G1 X-13.084 Y23.180 E1.04097
G1 X-12.972 Y23.925 E1.06147
G1 X-13.084 Y24.670 E1.08197
G1 X-13.412 Y25.348 E1.10246
G1 X-13.923 Y25.901 E1.12294
