; generated by Slic3r 0.9.10b on 2013-12-20 at 20:36:44

; layer_height = 0.3
; perimeters = 2
; top_solid_layers = 3
; bottom_solid_layers = 3
; fill_density = 0.4
; perimeter_speed = 30
; infill_speed = 60
; travel_speed = 130
; nozzle_diameter = 0.5
; filament_diameter = 2.85
; extrusion_multiplier = 1
; perimeters extrusion width = 0.70mm
; infill extrusion width = 0.70mm
; solid infill extrusion width = 0.70mm
; top infill extrusion width = 0.70mm
; first layer extrusion width = 0.60mm

G21 ; set units to millimeters
M107
M104 S0
M83
M140 S70
G28
G1Y98F9000
M190 S70
G1X5Y98Z150F9000
M104 S210
G1X5Y98Z1F9000
G1Z0.05
M109 S210
G1Z5
G1X15
;G1E5F50
G90 ; use absolute coordinates
G92 E0
M82 ; use absolute distances for extrusion
G1 F1800.000 E-1.00000
G92 E0
G1 Z0.300 F7800.000
G1 X26.613 Y6.545
G1 F1800.000 E1.00000
G1 X26.623 Y9.575 F540.000 E1.08244
G1 X26.603 Y10.045 E1.09524
G1 X25.483 Y25.535 E1.51777
G1 X25.373 Y26.475 E1.54352
G1 X25.203 Y27.285 E1.56603
G1 X24.913 Y28.285 E1.59436
G1 X24.743 Y28.755 E1.60796
G1 X24.303 Y29.745 E1.63743
G1 X23.933 Y30.425 E1.65849
G1 X23.673 Y30.845 E1.67193
G1 X23.283 Y31.415 E1.69072
G1 X22.973 Y31.815 E1.70449
G1 X22.293 Y32.595 E1.73265
G1 X21.753 Y33.115 E1.75304
G1 X20.923 Y33.805 E1.78241
G1 X20.523 Y34.095 E1.79585
G1 X19.973 Y34.455 E1.81373
G1 X19.543 Y34.705 E1.82727
G1 X18.963 Y34.995 E1.84491
G1 X17.893 Y35.455 E1.87660
G1 X17.423 Y35.615 E1.89010
G1 X16.743 Y35.805 E1.90931
G1 X16.253 Y35.915 E1.92298
G1 X15.613 Y36.025 E1.94064
G1 X14.683 Y36.125 E1.96609
G1 X13.953 Y36.155 E1.98597
G1 X-24.077 Y36.145 E3.02064
G1 X-24.967 Y36.105 E3.04488
G1 X-25.767 Y36.005 E3.06681
G1 X-26.257 Y35.915 E3.08036
G1 X-26.907 Y35.765 E3.09851
G1 X-27.387 Y35.625 E3.11212
G1 X-28.407 Y35.255 E3.14164
G1 X-28.997 Y34.985 E3.15929
G1 X-29.447 Y34.755 E3.17304
G1 X-30.077 Y34.385 E3.19292
G1 X-30.957 Y33.775 E3.22205
G1 X-31.777 Y33.095 E3.25103
G1 X-32.137 Y32.755 E3.26450
G1 X-32.707 Y32.145 E3.28722
G1 X-33.027 Y31.755 E3.30094
G1 X-33.647 Y30.885 E3.33001
G1 X-33.997 Y30.325 E3.34797
G1 X-34.237 Y29.885 E3.36161
G1 X-34.537 Y29.245 E3.38084
G1 X-34.917 Y28.275 E3.40918
G1 X-35.067 Y27.805 E3.42261
G1 X-35.247 Y27.125 E3.44174
G1 X-35.347 Y26.635 E3.45535
G1 X-35.447 Y25.965 E3.47378
G1 X-35.497 Y25.465 E3.48745
G1 X-35.527 Y24.815 E3.50515
G1 X-35.527 Y-24.825 E4.85569
G1 X-35.497 Y-25.475 E4.87339
G1 X-35.447 Y-25.975 E4.88707
G1 X-35.347 Y-26.645 E4.90550
G1 X-35.247 Y-27.135 E4.91910
G1 X-35.077 Y-27.775 E4.93712
G1 X-34.927 Y-28.255 E4.95080
G1 X-34.707 Y-28.855 E4.96819
G1 X-34.237 Y-29.895 E4.99924
G1 X-33.997 Y-30.335 E5.01287
G1 X-33.647 Y-30.895 E5.03084
G1 X-33.027 Y-31.765 E5.05991
G1 X-32.707 Y-32.155 E5.07363
G1 X-32.137 Y-32.765 E5.09634
G1 X-31.427 Y-33.415 E5.12253
G1 X-31.037 Y-33.735 E5.13626
G1 X-30.487 Y-34.135 E5.15476
G1 X-30.077 Y-34.405 E5.16812
G1 X-29.347 Y-34.825 E5.19103
G1 X-28.897 Y-35.045 E5.20466
G1 X-28.057 Y-35.405 E5.22952
G1 X-27.267 Y-35.675 E5.25224
G1 X-26.257 Y-35.925 E5.28054
G1 X-25.767 Y-36.015 E5.29410
G1 X-24.887 Y-36.115 E5.31819
G1 X-23.947 Y-36.155 E5.34379
G1 X14.503 Y-36.145 E6.38989
G1 X15.613 Y-36.035 E6.42023
G1 X16.253 Y-35.925 E6.43790
G1 X16.743 Y-35.815 E6.45157
G1 X17.423 Y-35.625 E6.47077
G1 X17.893 Y-35.465 E6.48428
G1 X18.503 Y-35.215 E6.50222
G1 X19.443 Y-34.765 E6.53057
G1 X19.873 Y-34.525 E6.54397
G1 X20.613 Y-34.045 E6.56797
G1 X21.013 Y-33.745 E6.58157
G1 X21.753 Y-33.125 E6.60784
G1 X22.293 Y-32.605 E6.62823
G1 X22.973 Y-31.825 E6.65638
G1 X23.283 Y-31.425 E6.67015
G1 X23.673 Y-30.855 E6.68894
G1 X23.933 Y-30.435 E6.70238
G1 X24.303 Y-29.755 E6.72344
G1 X24.743 Y-28.765 E6.75292
G1 X24.913 Y-28.295 E6.76652
G1 X25.073 Y-27.775 E6.78132
G1 X25.203 Y-27.295 E6.79485
G1 X25.373 Y-26.485 E6.81737
G1 X25.443 Y-25.985 E6.83110
G1 X25.523 Y-24.985 E6.85840
G1 X26.610 Y6.458 E7.71437
G1 F1800.000 E6.71437
G92 E0
G1 X20.918 Y6.540 F7800.000
G1 F1800.000 E1.00000
G1 X20.918 Y9.810 F540.000 E1.08896
G1 X20.830 Y10.023 E1.09522
G1 X20.498 Y10.355 E1.10800
G1 X20.285 Y10.443 E1.11427
G1 X19.821 Y10.443 E1.12690
G1 X19.821 Y24.582 E1.51159
G1 X19.793 Y25.145 E1.52692
G1 X19.708 Y25.723 E1.54282
G1 X19.556 Y26.319 E1.55955
G1 X19.348 Y26.880 E1.57583
G1 X19.100 Y27.393 E1.59134
G1 X18.817 Y27.857 E1.60610
G1 X18.466 Y28.325 E1.62202
G1 X18.060 Y28.765 E1.63832
G1 X17.600 Y29.171 E1.65501
G1 X17.125 Y29.512 E1.67092
G1 X16.604 Y29.809 E1.68723
G1 X16.084 Y30.042 E1.70274
G1 X15.514 Y30.231 E1.71906
G1 X14.943 Y30.358 E1.73498
G1 X14.410 Y30.425 E1.74960
G1 X13.964 Y30.443 E1.76175
G1 X-24.083 Y30.441 E2.79687
G1 X-24.705 Y30.393 E2.81384
G1 X-25.267 Y30.293 E2.82938
G1 X-25.802 Y30.142 E2.84450
G1 X-26.386 Y29.912 E2.86160
G1 X-26.893 Y29.650 E2.87711
G1 X-27.361 Y29.348 E2.89225
G1 X-27.840 Y28.965 E2.90895
G1 X-28.267 Y28.545 E2.92524
G1 X-28.642 Y28.094 E2.94121
G1 X-28.961 Y27.622 E2.95669
G1 X-29.221 Y27.147 E2.97143
G1 X-29.456 Y26.595 E2.98775
G1 X-29.636 Y26.009 E3.00442
G1 X-29.753 Y25.421 E3.02073
G1 X-29.806 Y24.889 E3.03529
G1 X-29.815 Y24.592 E3.04336
G1 X-29.809 Y-24.839 E4.38821
G1 X-29.744 Y-25.478 E4.40570
G1 X-29.629 Y-26.037 E4.42124
G1 X-29.465 Y-26.568 E4.43635
G1 X-29.221 Y-27.147 E4.45344
G1 X-28.961 Y-27.622 E4.46818
G1 X-28.642 Y-28.094 E4.48367
G1 X-28.258 Y-28.556 E4.50003
G1 X-27.808 Y-28.993 E4.51708
G1 X-27.348 Y-29.356 E4.53303
G1 X-26.868 Y-29.664 E4.54853
G1 X-26.386 Y-29.912 E4.56328
G1 X-25.829 Y-30.133 E4.57960
G1 X-25.238 Y-30.299 E4.59629
G1 X-24.655 Y-30.400 E4.61239
G1 X-23.965 Y-30.443 E4.63120
G1 X13.975 Y-30.443 E5.66342
G1 X14.410 Y-30.425 E5.67527
G1 X14.943 Y-30.358 E5.68989
G1 X15.556 Y-30.219 E5.70699
G1 X16.084 Y-30.042 E5.72213
G1 X16.604 Y-29.809 E5.73764
G1 X17.161 Y-29.488 E5.75514
G1 X17.623 Y-29.153 E5.77064
G1 X18.029 Y-28.795 E5.78538
G1 X18.429 Y-28.369 E5.80128
G1 X18.793 Y-27.893 E5.81759
G1 X19.092 Y-27.406 E5.83314
G1 X19.354 Y-26.867 E5.84943
G1 X19.556 Y-26.319 E5.86532
G1 X19.702 Y-25.752 E5.88126
G1 X19.790 Y-25.173 E5.89718
G1 X19.821 Y-24.582 E5.91328
G1 X19.821 Y5.907 E6.74280
G1 X20.285 Y5.907 E6.75543
G1 X20.498 Y5.995 E6.76170
G1 X20.830 Y6.327 E6.77448
G1 X20.885 Y6.460 E6.77838
G1 X20.340 Y6.825 F7800.000
G1 X20.340 Y9.525 F540.000 E6.85186
G1 X20.001 Y9.864 E6.86490
G1 X19.242 Y9.864 E6.88553
G1 X19.242 Y24.575 E7.28576
G1 X19.217 Y25.087 E7.29972
G1 X19.140 Y25.609 E7.31406
G1 X19.011 Y26.120 E7.32841
G1 X18.832 Y26.616 E7.34276
G1 X18.591 Y27.117 E7.35786
G1 X18.315 Y27.567 E7.37223
G1 X17.995 Y27.986 E7.38657
G1 X17.635 Y28.371 E7.40091
G1 X17.261 Y28.701 E7.41448
G1 X16.811 Y29.026 E7.42959
G1 X16.353 Y29.288 E7.44394
G1 X15.872 Y29.503 E7.45827
G1 X15.371 Y29.670 E7.47263
G1 X14.857 Y29.786 E7.48698
G1 X14.363 Y29.848 E7.50052
G1 X13.953 Y29.864 E7.51169
G1 X-24.072 Y29.862 E8.54622
G1 X-24.619 Y29.821 E8.56114
G1 X-25.110 Y29.735 E8.57471
G1 X-25.617 Y29.593 E8.58904
G1 X-26.135 Y29.390 E8.60417
G1 X-26.579 Y29.162 E8.61775
G1 X-27.023 Y28.878 E8.63208
G1 X-27.436 Y28.550 E8.64643
G1 X-27.833 Y28.162 E8.66155
G1 X-28.172 Y27.757 E8.67592
G1 X-28.467 Y27.321 E8.69024
G1 X-28.706 Y26.883 E8.70382
G1 X-28.912 Y26.397 E8.71816
G1 X-29.075 Y25.866 E8.73327
G1 X-29.179 Y25.349 E8.74763
G1 X-29.229 Y24.853 E8.76119
G1 X-29.236 Y24.582 E8.76857
G1 X-29.230 Y-24.824 E10.11274
G1 X-29.174 Y-25.377 E10.12787
G1 X-29.075 Y-25.866 E10.14144
G1 X-28.921 Y-26.370 E10.15578
G1 X-28.706 Y-26.883 E10.17090
G1 X-28.467 Y-27.321 E10.18448
G1 X-28.172 Y-27.757 E10.19879
G1 X-27.833 Y-28.162 E10.21317
G1 X-27.436 Y-28.550 E10.22829
G1 X-27.023 Y-28.878 E10.24264
G1 X-26.579 Y-29.162 E10.25697
G1 X-26.135 Y-29.390 E10.27055
G1 X-25.645 Y-29.584 E10.28490
G1 X-25.110 Y-29.735 E10.30001
G1 X-24.587 Y-29.825 E10.31445
G1 X-23.947 Y-29.864 E10.33189
G1 X13.964 Y-29.864 E11.36332
G1 X14.363 Y-29.848 E11.37419
G1 X14.857 Y-29.786 E11.38773
G1 X15.399 Y-29.662 E11.40286
G1 X15.872 Y-29.503 E11.41644
G1 X16.353 Y-29.288 E11.43078
G1 X16.835 Y-29.010 E11.44592
G1 X17.261 Y-28.701 E11.46024
G1 X17.635 Y-28.371 E11.47381
G1 X17.995 Y-27.986 E11.48814
G1 X18.315 Y-27.567 E11.50248
G1 X18.591 Y-27.117 E11.51685
G1 X18.832 Y-26.616 E11.53196
G1 X19.011 Y-26.120 E11.54631
G1 X19.140 Y-25.609 E11.56066
G1 X19.217 Y-25.087 E11.57500
G1 X19.242 Y-24.575 E11.58896
G1 X19.242 Y6.486 E12.43401
G1 X20.001 Y6.486 E12.45465
G1 X20.278 Y6.763 E12.46533
G1 X19.761 Y7.064 F7800.000
G1 X19.761 Y9.286 F540.000 E12.52576
G1 X18.664 Y9.286 E12.55562
G1 X18.664 Y24.568 E12.97139
G1 X18.640 Y25.044 E12.98437
G1 X18.570 Y25.509 E12.99715
G1 X18.454 Y25.963 E13.00991
G1 X18.293 Y26.404 E13.02269
G1 X18.090 Y26.828 E13.03546
G1 X17.845 Y27.229 E13.04825
G1 X17.561 Y27.603 E13.06102
G1 X17.242 Y27.947 E13.07379
G1 X16.889 Y28.258 E13.08658
G1 X16.509 Y28.532 E13.09933
G1 X16.102 Y28.766 E13.11211
G1 X15.674 Y28.959 E13.12488
G1 X15.229 Y29.109 E13.13767
G1 X14.771 Y29.214 E13.15045
G1 X14.306 Y29.272 E13.16321
G1 X13.742 Y29.286 E13.17855
G1 X-24.065 Y29.283 E14.20713
G1 X-24.533 Y29.249 E14.21992
G1 X-24.996 Y29.168 E14.23269
G1 X-25.447 Y29.040 E14.24544
G1 X-25.884 Y28.869 E14.25821
G1 X-26.302 Y28.654 E14.27101
G1 X-26.697 Y28.400 E14.28378
G1 X-27.063 Y28.107 E14.29654
G1 X-27.400 Y27.779 E14.30933
G1 X-27.702 Y27.419 E14.32211
G1 X-27.966 Y27.031 E14.33488
G1 X-28.191 Y26.618 E14.34767
G1 X-28.373 Y26.186 E14.36043
G1 X-28.511 Y25.737 E14.37321
G1 X-28.605 Y25.277 E14.38600
G1 X-28.652 Y24.809 E14.39877
G1 X-28.652 Y-24.809 E15.74874
G1 X-28.605 Y-25.277 E15.76151
G1 X-28.511 Y-25.737 E15.77430
G1 X-28.373 Y-26.186 E15.78707
G1 X-28.191 Y-26.618 E15.79983
G1 X-27.966 Y-27.031 E15.81263
G1 X-27.702 Y-27.419 E15.82539
G1 X-27.400 Y-27.779 E15.83818
G1 X-27.063 Y-28.107 E15.85096
G1 X-26.697 Y-28.400 E15.86372
G1 X-26.302 Y-28.654 E15.87650
G1 X-25.884 Y-28.869 E15.88929
G1 X-25.447 Y-29.040 E15.90207
G1 X-24.996 Y-29.168 E15.91482
G1 X-24.533 Y-29.249 E15.92759
G1 X-24.065 Y-29.283 E15.94037
G1 X13.742 Y-29.286 E16.96896
G1 X14.306 Y-29.272 E16.98430
G1 X14.771 Y-29.214 E16.99706
G1 X15.229 Y-29.109 E17.00983
G1 X15.674 Y-28.959 E17.02262
G1 X16.102 Y-28.766 E17.03539
G1 X16.509 Y-28.532 E17.04817
G1 X16.889 Y-28.258 E17.06093
G1 X17.242 Y-27.947 E17.07372
G1 X17.561 Y-27.603 E17.08649
G1 X17.845 Y-27.229 E17.09925
G1 X18.090 Y-26.828 E17.11204
G1 X18.293 Y-26.404 E17.12482
G1 X18.454 Y-25.963 E17.13759
G1 X18.570 Y-25.509 E17.15036
G1 X18.640 Y-25.044 E17.16314
G1 X18.664 Y-24.568 E17.17612
G1 X18.664 Y7.064 E18.03672
G1 X19.674 Y7.064 E18.06421
G1 X19.472 Y7.565 F7800.000
G1 X-26.013 Y28.152
G1 X-26.359 Y27.930 F540.000 E18.07541
G1 X-26.680 Y27.673 E18.08659
G1 X-26.975 Y27.385 E18.09782
G1 X-27.240 Y27.070 E18.10902
G1 X-27.471 Y26.729 E18.12022
G1 X-27.669 Y26.367 E18.13144
G1 X-27.828 Y25.988 E18.14263
G1 X-27.950 Y25.594 E18.15384
G1 X-28.032 Y25.190 E18.16506
G1 X-28.073 Y24.780 E18.17626
G1 X-28.073 Y-24.780 E19.52465
G1 X-28.032 Y-25.190 E19.53585
G1 X-27.950 Y-25.594 E19.54707
G1 X-27.828 Y-25.988 E19.55828
G1 X-27.669 Y-26.367 E19.56947
G1 X-27.471 Y-26.729 E19.58069
G1 X-27.240 Y-27.070 E19.59189
G1 X-26.975 Y-27.385 E19.60309
G1 X-26.680 Y-27.673 E19.61432
G1 X-26.359 Y-27.930 E19.62550
G1 X-26.013 Y-28.152 E19.63670
G1 X-25.645 Y-28.341 E19.64793
G1 X-25.262 Y-28.491 E19.65913
G1 X-24.867 Y-28.603 E19.67030
G1 X-24.462 Y-28.674 E19.68150
G1 X-24.050 Y-28.704 E19.69273
G1 X-23.079 Y-28.681 E19.71915
G1 X-23.079 Y-28.707 E19.71986
G1 X13.735 Y-28.707 E20.72144
G1 X14.262 Y-28.694 E20.73580
G1 X14.670 Y-28.643 E20.74698
G1 X15.072 Y-28.552 E20.75818
G1 X15.462 Y-28.420 E20.76940
G1 X15.838 Y-28.251 E20.78061
G1 X16.195 Y-28.045 E20.79181
G1 X16.528 Y-27.805 E20.80299
G1 X16.838 Y-27.532 E20.81422
G1 X17.118 Y-27.230 E20.82542
G1 X17.366 Y-26.903 E20.83661
G1 X17.581 Y-26.551 E20.84782
G1 X17.760 Y-26.179 E20.85904
G1 X17.901 Y-25.792 E20.87024
G1 X18.002 Y-25.394 E20.88143
G1 X18.064 Y-24.987 E20.89264
G1 X18.085 Y-24.553 E20.90444
G1 X18.085 Y7.643 E21.78039
G1 X19.183 Y7.643 E21.81024
G1 X19.183 Y8.707 E21.83920
G1 X18.085 Y8.707 E21.86905
G1 X18.085 Y24.553 E22.30017
G1 X18.064 Y24.987 E22.31198
G1 X18.002 Y25.394 E22.32318
G1 X17.901 Y25.792 E22.33437
G1 X17.760 Y26.179 E22.34557
G1 X17.581 Y26.551 E22.35679
G1 X17.366 Y26.903 E22.36800
G1 X17.118 Y27.230 E22.37919
G1 X16.838 Y27.532 E22.39039
G1 X16.528 Y27.805 E22.40162
G1 X16.195 Y28.045 E22.41280
G1 X15.838 Y28.251 E22.42400
G1 X15.463 Y28.420 E22.43521
G1 X15.072 Y28.552 E22.44643
G1 X14.670 Y28.643 E22.45763
G1 X14.262 Y28.694 E22.46881
G1 X13.735 Y28.707 E22.48317
G1 X-23.079 Y28.707 E23.48475
G1 X-23.079 Y28.681 E23.48546
G1 X-24.050 Y28.704 E23.51189
G1 X-24.462 Y28.674 E23.52311
G1 X-24.867 Y28.603 E23.53431
G1 X-25.262 Y28.491 E23.54548
G1 X-25.645 Y28.341 E23.55668
G1 X-25.935 Y28.192 E23.56555
G1 X-18.919 Y21.128 F7800.000
G1 X-19.216 Y20.656 F540.000 E23.58072
G1 X-19.401 Y20.130 E23.59590
G1 X-19.463 Y19.575 E23.61109
G1 X-19.401 Y19.020 E23.62628
G1 X-19.216 Y18.494 E23.64146
G1 X-18.919 Y18.022 E23.65663
G1 X-18.525 Y17.627 E23.67179
G1 X-18.053 Y17.331 E23.68696
G1 X-17.527 Y17.146 E23.70215
G1 X-16.972 Y17.084 E23.71733
G1 X-16.417 Y17.146 E23.73252
G1 X-15.891 Y17.331 E23.74770
G1 X-15.418 Y17.627 E23.76287
G1 X-15.024 Y18.021 E23.77804
G1 X-14.728 Y18.494 E23.79321
G1 X-14.543 Y19.020 E23.80839
G1 X-14.481 Y19.575 E23.82358
G1 X-14.543 Y20.130 E23.83877
G1 X-14.728 Y20.656 E23.85395
G1 X-15.024 Y21.129 E23.86912
G1 X-15.418 Y21.523 E23.88428
G1 X-15.891 Y21.819 E23.89945
G1 X-16.417 Y22.004 E23.91463
G1 X-16.972 Y22.066 E23.92982
G1 X-17.527 Y22.004 E23.94501
G1 X-18.053 Y21.819 E23.96019
G1 X-18.525 Y21.523 E23.97536
G1 X-18.858 Y21.190 E23.98816
G1 X-18.697 Y20.617 F7800.000
G1 X-19.679 Y21.007
G1 X-19.741 Y20.909 F540.000 E23.99129
G1 X-19.968 Y20.259 E24.01003
G1 X-20.045 Y19.575 E24.02876
G1 X-19.968 Y18.891 E24.04750
G1 X-19.768 Y18.318 E24.06402
G1 X-20.034 Y18.318 E24.07126
G1 X-18.888 Y17.172 E24.11534
G1 X-18.306 Y16.806 E24.13405
G1 X-17.656 Y16.579 E24.15278
G1 X-16.972 Y16.502 E24.17152
G1 X-16.288 Y16.579 E24.19025
G1 X-15.638 Y16.806 E24.20898
G1 X-15.055 Y17.172 E24.22770
G1 X-14.569 Y17.658 E24.24641
G1 X-14.203 Y18.241 E24.26512
G1 X-13.975 Y18.891 E24.28385
G1 X-13.899 Y19.575 E24.30259
G1 X-13.975 Y20.259 E24.32132
G1 X-14.203 Y20.909 E24.34006
G1 X-14.569 Y21.492 E24.35877
G1 X-15.055 Y21.978 E24.37748
G1 X-15.638 Y22.344 E24.39619
G1 X-16.288 Y22.571 E24.41492
G1 X-16.972 Y22.648 E24.43366
G1 X-17.656 Y22.571 E24.45240
G1 X-18.306 Y22.344 E24.47113
G1 X-18.888 Y21.978 E24.48984
G1 X-19.375 Y21.491 E24.50855
G1 X-19.633 Y21.080 E24.52177
G1 X-20.207 Y8.996 F7800.000
G1 X-20.787 Y8.996 F540.000 E24.53753
G1 X-21.340 Y8.826 E24.55328
G1 X-21.818 Y8.499 E24.56903
G1 X-22.179 Y8.046 E24.58479
G1 X-22.391 Y7.507 E24.60056
G1 X-22.434 Y6.930 E24.61630
G1 X-22.305 Y6.365 E24.63206
G1 X-22.015 Y5.863 E24.64782
G1 X-21.591 Y5.470 E24.66357
G1 X-21.069 Y5.218 E24.67932
G1 X-20.497 Y5.132 E24.69507
G1 X-19.925 Y5.218 E24.71082
G1 X-19.403 Y5.470 E24.72657
G1 X-18.978 Y5.863 E24.74232
G1 X-18.689 Y6.365 E24.75808
G1 X-18.560 Y6.930 E24.77384
G1 X-18.603 Y7.507 E24.78958
G1 X-18.815 Y8.046 E24.80535
G1 X-19.176 Y8.499 E24.82111
G1 X-19.654 Y8.826 E24.83686
G1 X-20.124 Y8.971 E24.85025
G1 X-20.545 Y8.527 F7800.000
G1 X-20.874 Y9.575
G1 X-21.594 Y9.353 F540.000 E24.87076
G1 X-22.216 Y8.928 E24.89124
G1 X-22.686 Y8.339 E24.91175
G1 X-22.962 Y7.637 E24.93227
G1 X-23.017 Y6.886 E24.95275
G1 X-22.850 Y6.152 E24.97324
G1 X-22.473 Y5.498 E24.99377
G1 X-21.920 Y4.987 E25.01425
G1 X-21.242 Y4.659 E25.03474
G1 X-20.497 Y4.547 E25.05524
G1 X-19.752 Y4.659 E25.07574
G1 X-19.074 Y4.987 E25.09623
G1 X-18.521 Y5.498 E25.11671
G1 X-18.144 Y6.152 E25.13724
G1 X-17.977 Y6.886 E25.15774
G1 X-18.032 Y7.637 E25.17821
G1 X-18.308 Y8.339 E25.19874
G1 X-18.778 Y8.928 E25.21924
G1 X-19.400 Y9.353 E25.23973
G1 X-20.120 Y9.575 E25.26023
G1 X-20.787 Y9.575 E25.27838
G1 F1800.000 E24.27838
G92 E0
G1 X-12.382 Y0.377 F7800.000
G1 F1800.000 E1.00000
G1 X-13.122 Y-0.300 F540.000 E1.02728
G1 X-13.799 Y-1.040 E1.05456
