; generated by Slic3r 0.9.10b on 2013-12-19 at 20:42:20

; layer_height = 0.3
; perimeters = 2
; top_solid_layers = 3
; bottom_solid_layers = 3
; fill_density = 0.4
; perimeter_speed = 30
; infill_speed = 60
; travel_speed = 130
; nozzle_diameter = 0.5
; filament_diameter = 2.85
; extrusion_multiplier = 1
; perimeters extrusion width = 0.70mm
; infill extrusion width = 0.70mm
; solid infill extrusion width = 0.70mm
; top infill extrusion width = 0.70mm
; first layer extrusion width = 0.60mm

G21 ; set units to millimeters
M107
M104 S0
M83
M140 S70
G28
G1Y98F9000
M190 S70
G1X5Y98Z150F9000
M104 S210
G1X5Y98Z1F9000
G1Z0.05
M109 S210
G1Z5
G1X15
;G1E5F50
G90 ; use absolute coordinates
G92 E0
M82 ; use absolute distances for extrusion
G1 F1800.000 E-1.00000
G92 E0
G1 Z0.300 F7800.000
G1 X39.076 Y9.667
G1 F1800.000 E1.00000
G1 X39.146 Y10.827 F540.000 E1.03162
G1 X39.146 Y49.037 E2.07118
G1 X39.086 Y50.027 E2.09817
G1 X39.026 Y50.517 E2.11160
G1 X38.916 Y51.157 E2.12927
G1 X38.806 Y51.647 E2.14293
G1 X38.616 Y52.327 E2.16214
G1 X38.456 Y52.797 E2.17565
G1 X38.206 Y53.407 E2.19358
G1 X37.706 Y54.447 E2.22498
G1 X37.456 Y54.877 E2.23851
G1 X37.096 Y55.427 E2.25639
G1 X36.806 Y55.827 E2.26983
G1 X36.116 Y56.657 E2.29920
G1 X35.666 Y57.127 E2.31690
G1 X35.306 Y57.467 E2.33038
G1 X34.736 Y57.947 E2.35065
G1 X34.336 Y58.247 E2.36425
G1 X33.786 Y58.617 E2.38229
G1 X33.356 Y58.877 E2.39596
G1 X32.786 Y59.187 E2.41361
G1 X31.756 Y59.647 E2.44430
G1 X31.286 Y59.817 E2.45790
G1 X30.246 Y60.117 E2.48735
G1 X29.486 Y60.267 E2.50842
G1 X28.456 Y60.397 E2.53667
G1 X-3.784 Y61.527 E3.41435
G1 X-6.584 Y61.527 E3.49053
G1 X-7.054 Y61.507 E3.50333
G1 X-22.544 Y60.387 E3.92586
G1 X-23.484 Y60.277 E3.95161
G1 X-24.294 Y60.107 E3.97412
G1 X-25.294 Y59.817 E4.00245
G1 X-25.764 Y59.647 E4.01605
G1 X-26.754 Y59.207 E4.04552
G1 X-27.434 Y58.837 E4.06659
G1 X-28.344 Y58.247 E4.09609
G1 X-28.744 Y57.947 E4.10970
G1 X-29.244 Y57.527 E4.12746
G1 X-29.614 Y57.187 E4.14113
G1 X-30.134 Y56.657 E4.16133
G1 X-30.464 Y56.277 E4.17503
G1 X-30.824 Y55.827 E4.19071
G1 X-31.114 Y55.427 E4.20415
G1 X-31.474 Y54.877 E4.22203
G1 X-31.724 Y54.447 E4.23556
G1 X-32.064 Y53.757 E4.25649
G1 X-32.264 Y53.297 E4.27014
G1 X-32.464 Y52.797 E4.28479
G1 X-32.624 Y52.327 E4.29830
G1 X-32.814 Y51.647 E4.31751
G1 X-32.924 Y51.157 E4.33117
G1 X-33.034 Y50.517 E4.34884
G1 X-33.114 Y49.887 E4.36611
G1 X-39.134 Y-10.233 E6.00996
G1 X-39.164 Y-10.963 E6.02984
G1 X-39.164 Y-48.863 E7.06097
G1 X-39.104 Y-49.903 E7.08931
G1 X-39.014 Y-50.673 E7.11040
G1 X-38.804 Y-51.693 E7.13873
G1 X-38.674 Y-52.173 E7.15226
G1 X-38.424 Y-52.923 E7.17377
G1 X-38.234 Y-53.393 E7.18756
G1 X-37.794 Y-54.303 E7.21506
G1 X-37.444 Y-54.923 E7.23443
G1 X-37.174 Y-55.343 E7.24802
G1 X-36.794 Y-55.873 E7.26576
G1 X-36.054 Y-56.763 E7.29725
G1 X-35.704 Y-57.123 E7.31091
G1 X-34.844 Y-57.883 E7.34214
G1 X-34.254 Y-58.323 E7.36216
G1 X-33.394 Y-58.873 E7.38994
G1 X-32.964 Y-59.113 E7.40333
G1 X-32.264 Y-59.453 E7.42451
G1 X-31.804 Y-59.643 E7.43805
G1 X-30.774 Y-59.993 E7.46764
G1 X-30.004 Y-60.183 E7.48922
G1 X-29.514 Y-60.273 E7.50277
G1 X-28.314 Y-60.413 E7.53564
G1 X-13.064 Y-61.523 E7.95164
G1 X-12.584 Y-61.543 E7.96471
G1 X-9.784 Y-61.543 E8.04089
G1 X22.466 Y-60.403 E8.91885
G1 X23.506 Y-60.273 E8.94737
G1 X23.996 Y-60.183 E8.96092
G1 X24.806 Y-59.983 E8.98362
G1 X25.276 Y-59.833 E8.99704
G1 X26.246 Y-59.453 E9.02539
G1 X26.886 Y-59.153 E9.04462
G1 X27.326 Y-58.913 E9.05825
G1 X27.886 Y-58.563 E9.07622
G1 X28.296 Y-58.283 E9.08973
G1 X28.826 Y-57.883 E9.10779
G1 X29.206 Y-57.563 E9.12131
G1 X29.686 Y-57.123 E9.13903
G1 X30.036 Y-56.763 E9.15269
G1 X30.776 Y-55.873 E9.18418
G1 X31.156 Y-55.343 E9.20192
G1 X31.426 Y-54.923 E9.21550
G1 X31.726 Y-54.413 E9.23160
G1 X31.956 Y-53.973 E9.24511
G1 X32.266 Y-53.273 E9.26594
G1 X32.626 Y-52.293 E9.29434
G1 X32.766 Y-51.813 E9.30795
G1 X32.936 Y-51.033 E9.32966
G1 X33.076 Y-50.143 E9.35418
G1 X39.068 Y9.580 E10.98721
G1 F1800.000 E9.98721
G92 E0
G1 X25.358 Y-6.473 F7800.000
G1 F1800.000 E1.00000
G1 X24.857 Y-6.094 F540.000 E1.01710
G1 X24.368 Y-5.798 E1.03265
G1 X23.841 Y-5.546 E1.04853
G1 X23.319 Y-5.356 E1.06365
G1 X22.766 Y-5.213 E1.07919
G1 X22.131 Y-5.117 E1.09667
G1 X21.582 Y-5.091 E1.11161
G1 X-8.907 Y-5.091 E1.94113
G1 X-8.907 Y-4.626 E1.95376
G1 X-8.995 Y-4.414 E1.96002
G1 X-9.327 Y-4.081 E1.97281
G1 X-9.540 Y-3.993 E1.97907
G1 X-12.810 Y-3.993 E2.06803
G1 X-13.023 Y-4.081 E2.07429
G1 X-13.355 Y-4.414 E2.08707
G1 X-13.443 Y-4.626 E2.09333
G1 X-13.443 Y-5.091 E2.10597
G1 X-27.582 Y-5.091 E2.49065
G1 X-28.173 Y-5.121 E2.50676
G1 X-28.723 Y-5.204 E2.52189
G1 X-29.277 Y-5.343 E2.53743
G1 X-29.841 Y-5.546 E2.55374
G1 X-30.406 Y-5.819 E2.57080
G1 X-30.893 Y-6.119 E2.58635
G1 X-31.336 Y-6.455 E2.60148
G1 X-31.765 Y-6.851 E2.61739
G1 X-32.171 Y-7.311 E2.63407
G1 X-32.512 Y-7.787 E2.64999
G1 X-32.809 Y-8.307 E2.66630
G1 X-33.042 Y-8.828 E2.68181
G1 X-33.231 Y-9.397 E2.69813
G1 X-33.358 Y-9.968 E2.71405
G1 X-33.425 Y-10.501 E2.72867
G1 X-33.443 Y-10.948 E2.74082
G1 X-33.442 Y-48.895 E3.77323
G1 X-33.394 Y-49.614 E3.79285
G1 X-33.293 Y-50.178 E3.80845
G1 X-33.128 Y-50.754 E3.82473
G1 X-32.918 Y-51.285 E3.84026
G1 X-32.650 Y-51.804 E3.85618
G1 X-32.348 Y-52.272 E3.87131
G1 X-31.993 Y-52.719 E3.88685
G1 X-31.577 Y-53.149 E3.90313
G1 X-31.141 Y-53.518 E3.91867
G1 X-30.610 Y-53.879 E3.93614
G1 X-30.107 Y-54.152 E3.95169
G1 X-29.568 Y-54.377 E3.96759
G1 X-29.009 Y-54.548 E3.98349
G1 X-28.464 Y-54.658 E3.99863
G1 X-27.889 Y-54.718 E4.01435
G1 X-27.578 Y-54.726 E4.02281
G1 X-13.443 Y-54.726 E4.40739
G1 X-13.443 Y-55.191 E4.42002
G1 X-13.355 Y-55.403 E4.42629
G1 X-13.023 Y-55.735 E4.43907
G1 X-12.810 Y-55.823 E4.44533
G1 X-9.540 Y-55.823 E4.53429
G1 X-9.327 Y-55.735 E4.54055
G1 X-8.995 Y-55.403 E4.55333
G1 X-8.907 Y-55.191 E4.55959
G1 X-8.907 Y-54.726 E4.57223
G1 X21.882 Y-54.718 E5.40991
G1 X22.436 Y-54.663 E5.42504
G1 X22.995 Y-54.551 E5.44057
G1 X23.595 Y-54.367 E5.45763
G1 X24.107 Y-54.152 E5.47275
G1 X24.610 Y-53.879 E5.48831
G1 X25.141 Y-53.518 E5.50578
G1 X25.587 Y-53.139 E5.52171
G1 X25.965 Y-52.752 E5.53644
G1 X26.322 Y-52.308 E5.55193
G1 X26.650 Y-51.804 E5.56827
G1 X26.912 Y-51.298 E5.58379
G1 X27.133 Y-50.740 E5.60010
G1 X27.293 Y-50.178 E5.61600
G1 X27.395 Y-49.602 E5.63194
G1 X27.441 Y-48.994 E5.64851
G1 X27.443 Y-10.953 E6.68349
G1 X27.428 Y-10.539 E6.69475
G1 X27.356 Y-9.954 E6.71080
G1 X27.227 Y-9.383 E6.72671
G1 X27.042 Y-8.828 E6.74265
G1 X26.803 Y-8.294 E6.75855
G1 X26.512 Y-7.787 E6.77446
G1 X26.171 Y-7.311 E6.79038
G1 X25.785 Y-6.872 E6.80629
G1 X25.422 Y-6.532 E6.81983
G1 X24.986 Y-6.916 F7800.000
G1 X24.543 Y-6.580 F540.000 E6.83496
G1 X24.091 Y-6.307 E6.84932
G1 X23.616 Y-6.080 E6.86364
G1 X23.120 Y-5.900 E6.87799
G1 X22.637 Y-5.777 E6.89155
G1 X22.116 Y-5.697 E6.90590
G1 X21.590 Y-5.669 E6.92025
G1 X-9.486 Y-5.669 E7.76570
G1 X-9.486 Y-4.911 E7.78633
G1 X-9.825 Y-4.572 E7.79937
G1 X-12.525 Y-4.572 E7.87285
G1 X-12.864 Y-4.911 E7.88589
G1 X-12.864 Y-5.669 E7.90652
G1 X-27.575 Y-5.669 E8.30675
G1 X-28.116 Y-5.697 E8.32149
G1 X-28.609 Y-5.771 E8.33505
G1 X-29.120 Y-5.900 E8.34940
G1 X-29.616 Y-6.080 E8.36375
G1 X-30.117 Y-6.320 E8.37886
G1 X-30.543 Y-6.580 E8.39244
G1 X-30.964 Y-6.898 E8.40678
G1 X-31.351 Y-7.255 E8.42112
G1 X-31.719 Y-7.672 E8.43625
G1 X-32.026 Y-8.101 E8.45059
G1 X-32.288 Y-8.558 E8.46493
G1 X-32.503 Y-9.039 E8.47927
G1 X-32.670 Y-9.540 E8.49363
G1 X-32.786 Y-10.054 E8.50797
G1 X-32.848 Y-10.548 E8.52152
G1 X-32.864 Y-10.948 E8.53239
G1 X-32.864 Y-48.858 E9.56381
G1 X-32.821 Y-49.530 E9.58213
G1 X-32.735 Y-50.021 E9.59569
G1 X-32.593 Y-50.529 E9.61003
G1 X-32.390 Y-51.046 E9.62516
G1 X-32.148 Y-51.515 E9.63951
G1 X-31.861 Y-51.958 E9.65387
G1 X-31.531 Y-52.368 E9.66819
G1 X-31.162 Y-52.745 E9.68254
G1 X-30.780 Y-53.066 E9.69611
G1 X-30.345 Y-53.364 E9.71047
G1 X-29.883 Y-53.617 E9.72481
G1 X-29.397 Y-53.823 E9.73915
G1 X-28.894 Y-53.980 E9.75348
G1 X-28.377 Y-54.086 E9.76784
G1 X-27.853 Y-54.140 E9.78218
G1 X-27.575 Y-54.148 E9.78975
G1 X-12.864 Y-54.148 E10.18998
G1 X-12.864 Y-54.906 E10.21061
G1 X-12.525 Y-55.245 E10.22365
G1 X-9.825 Y-55.245 E10.29713
G1 X-9.486 Y-54.906 E10.31017
G1 X-9.486 Y-54.148 E10.33080
G1 X21.824 Y-54.142 E11.18263
G1 X22.349 Y-54.090 E11.19699
G1 X22.866 Y-53.987 E11.21134
G1 X23.397 Y-53.823 E11.22645
G1 X23.883 Y-53.617 E11.24080
G1 X24.321 Y-53.378 E11.25437
G1 X24.780 Y-53.066 E11.26949
G1 X25.183 Y-52.725 E11.28385
G1 X25.531 Y-52.368 E11.29741
G1 X25.861 Y-51.958 E11.31173
G1 X26.148 Y-51.515 E11.32609
G1 X26.390 Y-51.046 E11.34044
G1 X26.584 Y-50.556 E11.35479
G1 X26.728 Y-50.050 E11.36911
G1 X26.821 Y-49.530 E11.38347
G1 X26.862 Y-48.983 E11.39839
G1 X26.864 Y-10.958 E12.43292
G1 X26.850 Y-10.574 E12.44340
G1 X26.786 Y-10.054 E12.45763
G1 X26.670 Y-9.540 E12.47198
G1 X26.503 Y-9.039 E12.48634
G1 X26.288 Y-8.558 E12.50068
G1 X26.026 Y-8.101 E12.51502
G1 X25.719 Y-7.672 E12.52936
G1 X25.371 Y-7.276 E12.54371
G1 X25.049 Y-6.975 E12.55568
G1 F1800.000 E11.55568
G92 E0
G1 X27.839 Y5.097 F7800.000
G1 F1800.000 E1.00000
G1 X28.436 Y5.154 F540.000 E1.01632
G1 X29.009 Y5.269 E1.03224
G1 X29.568 Y5.440 E1.04814
G1 X30.094 Y5.659 E1.06363
G1 X30.622 Y5.944 E1.07997
G1 X31.094 Y6.263 E1.09545
G1 X31.587 Y6.677 E1.11298
G1 X31.984 Y7.086 E1.12848
G1 X32.348 Y7.545 E1.14441
G1 X32.664 Y8.037 E1.16032
G1 X32.930 Y8.558 E1.17625
G1 X33.142 Y9.103 E1.19216
G1 X33.293 Y9.638 E1.20728
G1 X33.395 Y10.215 E1.22321
G1 X33.439 Y10.780 E1.23862
G1 X33.443 Y48.864 E2.27476
G1 X33.428 Y49.277 E2.28603
G1 X33.356 Y49.863 E2.30208
G1 X33.227 Y50.434 E2.31799
G1 X33.042 Y50.989 E2.33392
G1 X32.803 Y51.522 E2.34982
G1 X32.512 Y52.030 E2.36574
G1 X32.171 Y52.505 E2.38166
G1 X31.785 Y52.945 E2.39756
G1 X31.369 Y53.334 E2.41307
G1 X30.857 Y53.722 E2.43057
G1 X30.368 Y54.019 E2.44611
G1 X29.841 Y54.270 E2.46199
G1 X29.319 Y54.461 E2.47711
G1 X28.766 Y54.604 E2.49266
G1 X28.131 Y54.699 E2.51014
G1 X27.582 Y54.726 E2.52508
G1 X-2.907 Y54.726 E3.35459
G1 X-2.907 Y55.190 E3.36723
G1 X-2.995 Y55.403 E3.37349
G1 X-3.327 Y55.735 E3.38627
G1 X-3.540 Y55.823 E3.39253
G1 X-6.810 Y55.823 E3.48149
G1 X-7.023 Y55.735 E3.48775
G1 X-7.355 Y55.403 E3.50053
G1 X-7.443 Y55.190 E3.50680
G1 X-7.443 Y54.726 E3.51943
G1 X-21.582 Y54.726 E3.90412
G1 X-22.145 Y54.698 E3.91945
G1 X-22.709 Y54.615 E3.93496
G1 X-23.333 Y54.456 E3.95248
G1 X-23.867 Y54.259 E3.96797
G1 X-24.393 Y54.005 E3.98387
G1 X-24.869 Y53.715 E3.99902
G1 X-25.325 Y53.371 E4.01455
G1 X-25.795 Y52.934 E4.03202
G1 X-26.171 Y52.505 E4.04753
G1 X-26.496 Y52.055 E4.06266
G1 X-26.790 Y51.548 E4.07859
G1 X-27.026 Y51.029 E4.09409
G1 X-27.231 Y50.420 E4.11159
G1 X-27.356 Y49.863 E4.12711
G1 X-27.428 Y49.277 E4.14316
G1 X-27.443 Y48.864 E4.15443
G1 X-27.443 Y10.949 E5.18595
G1 X-27.400 Y10.250 E5.20501
G1 X-27.299 Y9.667 E5.22111
G1 X-27.142 Y9.103 E5.23703
G1 X-26.930 Y8.558 E5.25294
G1 X-26.664 Y8.037 E5.26887
G1 X-26.348 Y7.545 E5.28478
G1 X-25.984 Y7.086 E5.30070
G1 X-25.556 Y6.648 E5.31737
G1 X-25.129 Y6.289 E5.33253
G1 X-24.658 Y5.967 E5.34807
G1 X-24.107 Y5.665 E5.36516
G1 X-23.595 Y5.450 E5.38028
G1 X-23.051 Y5.280 E5.39578
G1 X-22.436 Y5.154 E5.41287
G1 X-21.889 Y5.099 E5.42782
G1 X-21.578 Y5.091 E5.43627
G1 X-7.443 Y5.091 E5.82085
G1 X-7.443 Y4.626 E5.83349
G1 X-7.355 Y4.414 E5.83975
G1 X-7.023 Y4.081 E5.85253
G1 X-6.810 Y3.993 E5.85879
G1 X-3.540 Y3.993 E5.94775
G1 X-3.327 Y4.081 E5.95401
G1 X-2.995 Y4.414 E5.96680
G1 X-2.907 Y4.626 E5.97306
G1 X-2.907 Y5.091 E5.98570
G1 X27.752 Y5.096 E6.81983
G1 X27.824 Y5.675 F7800.000
G1 X28.349 Y5.727 F540.000 E6.83418
G1 X28.866 Y5.830 E6.84853
G1 X29.370 Y5.984 E6.86287
G1 X29.856 Y6.187 E6.87719
G1 X30.321 Y6.438 E6.89156
G1 X30.757 Y6.733 E6.90588
G1 X31.183 Y7.091 E6.92104
G1 X31.550 Y7.470 E6.93537
G1 X31.878 Y7.883 E6.94972
G1 X32.162 Y8.326 E6.96406
G1 X32.402 Y8.797 E6.97843
G1 X32.593 Y9.288 E6.99277
G1 X32.735 Y9.795 E7.00710
G1 X32.824 Y10.315 E7.02144
G1 X32.861 Y10.812 E7.03500
G1 X32.864 Y48.858 E8.07012
G1 X32.850 Y49.243 E8.08059
G1 X32.786 Y49.762 E8.09483
G1 X32.670 Y50.277 E8.10917
G1 X32.503 Y50.777 E8.12353
G1 X32.288 Y51.258 E8.13787
G1 X32.026 Y51.716 E8.15221
G1 X31.719 Y52.144 E8.16655
G1 X31.371 Y52.541 E8.18090
G1 X30.986 Y52.900 E8.19523
G1 X30.543 Y53.236 E8.21036
G1 X30.091 Y53.510 E8.22472
G1 X29.616 Y53.737 E8.23905
G1 X29.120 Y53.917 E8.25340
G1 X28.637 Y54.040 E8.26696
G1 X28.087 Y54.122 E8.28209
G1 X27.575 Y54.148 E8.29605
G1 X-3.486 Y54.148 E9.14111
G1 X-3.486 Y54.906 E9.16174
G1 X-3.825 Y55.245 E9.17478
G1 X-6.525 Y55.245 E9.24826
G1 X-6.864 Y54.906 E9.26130
G1 X-6.864 Y54.148 E9.28193
G1 X-21.575 Y54.148 E9.68216
G1 X-22.087 Y54.122 E9.69612
G1 X-22.609 Y54.045 E9.71046
G1 X-23.148 Y53.908 E9.72560
G1 X-23.642 Y53.726 E9.73993
G1 X-24.117 Y53.496 E9.75427
G1 X-24.543 Y53.236 E9.76784
G1 X-24.964 Y52.919 E9.78219
G1 X-25.351 Y52.561 E9.79653
G1 X-25.701 Y52.167 E9.81088
G1 X-26.026 Y51.716 E9.82600
G1 X-26.288 Y51.258 E9.84034
G1 X-26.503 Y50.777 E9.85467
G1 X-26.670 Y50.277 E9.86903
G1 X-26.781 Y49.791 E9.88260
G1 X-26.848 Y49.268 E9.89693
G1 X-26.864 Y48.869 E9.90780
G1 X-26.864 Y10.958 E10.93922
G1 X-26.825 Y10.318 E10.95667
G1 X-26.735 Y9.795 E10.97110
G1 X-26.593 Y9.288 E10.98544
G1 X-26.402 Y8.797 E10.99978
G1 X-26.162 Y8.326 E11.01415
G1 X-25.878 Y7.883 E11.02848
G1 X-25.550 Y7.470 E11.04283
G1 X-25.162 Y7.072 E11.05795
G1 X-24.780 Y6.751 E11.07152
G1 X-24.345 Y6.453 E11.08587
G1 X-23.856 Y6.187 E11.10101
G1 X-23.370 Y5.984 E11.11533
G1 X-22.866 Y5.830 E11.12967
G1 X-22.377 Y5.731 E11.14324
G1 X-21.853 Y5.677 E11.15759
G1 X-6.864 Y5.669 E11.56538
G1 X-6.864 Y4.911 E11.58601
G1 X-6.525 Y4.572 E11.59905
G1 X-3.825 Y4.572 E11.67253
G1 X-3.486 Y4.911 E11.68557
G1 X-3.486 Y5.669 E11.70621
G1 X27.737 Y5.675 E12.55568
G1 X27.809 Y6.254 F7800.000
G1 X28.277 Y6.301 F540.000 E12.56845
G1 X28.737 Y6.394 E12.58124
G1 X29.186 Y6.533 E12.59402
G1 X29.618 Y6.714 E12.60678
G1 X30.031 Y6.940 E12.61957
G1 X30.419 Y7.203 E12.63234
G1 X30.779 Y7.506 E12.64512
G1 X31.107 Y7.842 E12.65790
G1 X31.400 Y8.208 E12.67067
G1 X31.654 Y8.603 E12.68344
G1 X31.869 Y9.022 E12.69624
G1 X32.040 Y9.459 E12.70901
G1 X32.168 Y9.910 E12.72176
G1 X32.249 Y10.372 E12.73453
G1 X32.283 Y10.841 E12.74731
G1 X32.286 Y48.647 E13.77590
G1 X32.272 Y49.211 E13.79124
G1 X32.214 Y49.676 E13.80400
G1 X32.109 Y50.134 E13.81678
G1 X31.959 Y50.579 E13.82957
G1 X31.766 Y51.007 E13.84234
G1 X31.532 Y51.414 E13.85511
G1 X31.258 Y51.795 E13.86787
G1 X30.947 Y52.147 E13.88066
G1 X30.603 Y52.467 E13.89343
G1 X30.229 Y52.750 E13.90620
G1 X29.828 Y52.995 E13.91899
G1 X29.404 Y53.198 E13.93176
G1 X28.963 Y53.360 E13.94453
G1 X28.509 Y53.475 E13.95730
G1 X28.044 Y53.545 E13.97008
G1 X27.568 Y53.569 E13.98306
G1 X-4.064 Y53.569 E14.84366
G1 X-4.064 Y54.666 E14.87351
G1 X-6.286 Y54.666 E14.93395
G1 X-6.286 Y53.569 E14.96381
G1 X-21.568 Y53.569 E15.37958
G1 X-22.044 Y53.545 E15.39256
G1 X-22.509 Y53.475 E15.40534
G1 X-22.963 Y53.360 E15.41810
G1 X-23.404 Y53.198 E15.43087
G1 X-23.828 Y52.995 E15.44365
G1 X-24.229 Y52.750 E15.45644
G1 X-24.603 Y52.467 E15.46921
G1 X-24.947 Y52.147 E15.48197
G1 X-25.258 Y51.795 E15.49477
G1 X-25.532 Y51.414 E15.50752
G1 X-25.766 Y51.007 E15.52030
G1 X-25.959 Y50.579 E15.53307
G1 X-26.109 Y50.134 E15.54586
G1 X-26.214 Y49.676 E15.55864
G1 X-26.272 Y49.211 E15.57140
G1 X-26.286 Y48.647 E15.58674
G1 X-26.283 Y10.841 E16.61532
G1 X-26.249 Y10.372 E16.62810
G1 X-26.168 Y9.910 E16.64088
G1 X-26.040 Y9.459 E16.65363
G1 X-25.869 Y9.022 E16.66640
G1 X-25.654 Y8.603 E16.67920
G1 X-25.400 Y8.208 E16.69197
G1 X-25.107 Y7.842 E16.70473
G1 X-24.779 Y7.506 E16.71752
G1 X-24.419 Y7.203 E16.73030
G1 X-24.031 Y6.939 E16.74307
G1 X-23.618 Y6.714 E16.75586
G1 X-23.186 Y6.533 E16.76862
G1 X-22.737 Y6.394 E16.78139
G1 X-22.277 Y6.301 E16.79418
G1 X-21.809 Y6.254 E16.80696
G1 X-6.286 Y6.248 E17.22931
G1 X-6.286 Y5.150 E17.25916
G1 X-4.064 Y5.150 E17.31960
G1 X-4.064 Y6.248 E17.34945
G1 X27.723 Y6.254 E18.21427
G1 X28.016 Y6.675 F7800.000
G1 X30.673 Y8.226
G1 X30.930 Y8.547 F540.000 E18.22545
G1 X31.152 Y8.893 E18.23665
