; generated by Slic3r 0.9.10b on 2013-12-16 at 21:31:27

; layer_height = 0.3
; perimeters = 2
; top_solid_layers = 3
; bottom_solid_layers = 3
; fill_density = 0.4
; perimeter_speed = 30
; infill_speed = 60
; travel_speed = 130
; nozzle_diameter = 0.5
; filament_diameter = 2.85
; extrusion_multiplier = 1
; perimeters extrusion width = 0.70mm
; infill extrusion width = 0.70mm
; solid infill extrusion width = 0.70mm
; top infill extrusion width = 0.70mm
; first layer extrusion width = 0.60mm

G21 ; set units to millimeters
M107
M104 S0
M83
M140 S70
G28
G1Y98F9000
M190 S70
G1X5Y98Z150F9000
M104 S210
G1X5Y98Z1F9000
G1Z0.05
M109 S210
G1Z5
G1X15
;G1E5F50
G90 ; use absolute coordinates
G92 E0
M82 ; use absolute distances for extrusion
G1 F1800.000 E-1.00000
G92 E0
G1 Z0.300 F7800.000
G1 X3.613 Y-20.320
G1 F1800.000 E1.00000
G1 X21.403 Y-11.260 F540.000 E1.54316
G1 X22.603 Y-10.470 E1.58225
G1 X23.613 Y-9.430 E1.62169
G1 X24.363 Y-8.200 E1.66088
G1 X24.833 Y-6.840 E1.70003
G1 X24.993 Y-5.400 E1.73945
G1 X24.993 Y6.590 E2.06566
G1 X24.873 Y7.850 E2.10009
G1 X24.513 Y9.060 E2.13444
G1 X23.923 Y10.180 E2.16888
G1 X23.133 Y11.170 E2.20334
G1 X22.173 Y11.990 E2.23769
G1 X21.073 Y12.610 E2.27204
G1 X3.283 Y20.470 E2.80118
G1 X2.673 Y20.720 E2.81912
G1 X2.003 Y20.960 E2.83848
G1 X1.523 Y21.100 E2.85209
G1 X0.873 Y21.250 E2.87023
G1 X0.383 Y21.340 E2.88379
G1 X-0.547 Y21.440 E2.90924
G1 X-1.307 Y21.470 E2.92993
G1 X-13.977 Y21.470 E3.27464
G1 X-14.737 Y21.440 E3.29533
G1 X-15.637 Y21.340 E3.31997
G1 X-16.137 Y21.250 E3.33379
G1 X-16.807 Y21.100 E3.35247
G1 X-17.287 Y20.960 E3.36607
G1 X-17.957 Y20.720 E3.38544
G1 X-18.417 Y20.530 E3.39898
G1 X-19.117 Y20.190 E3.42015
G1 X-19.547 Y19.950 E3.43355
G1 X-20.137 Y19.580 E3.45249
G1 X-20.547 Y19.290 E3.46616
G1 X-21.127 Y18.830 E3.48630
G1 X-21.497 Y18.500 E3.49978
G1 X-22.027 Y17.970 E3.52018
G1 X-22.357 Y17.600 E3.53367
G1 X-22.817 Y17.020 E3.55381
G1 X-23.107 Y16.610 E3.56747
G1 X-23.477 Y16.020 E3.58642
G1 X-23.717 Y15.590 E3.59981
G1 X-24.027 Y14.960 E3.61892
G1 X-24.227 Y14.490 E3.63281
G1 X-24.527 Y13.630 E3.65759
G1 X-24.657 Y13.150 E3.67112
G1 X-24.867 Y12.130 E3.69946
G1 X-24.967 Y11.200 E3.72490
G1 X-24.997 Y10.440 E3.74560
G1 X-24.997 Y-10.460 E4.31422
G1 X-24.967 Y-11.220 E4.33491
G1 X-24.867 Y-12.120 E4.35955
G1 X-24.777 Y-12.620 E4.37337
G1 X-24.657 Y-13.170 E4.38868
G1 X-24.527 Y-13.650 E4.40221
G1 X-24.207 Y-14.550 E4.42820
G1 X-24.007 Y-15.010 E4.44185
G1 X-23.717 Y-15.600 E4.45973
G1 X-23.477 Y-16.030 E4.47313
G1 X-23.107 Y-16.620 E4.49208
G1 X-22.817 Y-17.030 E4.50574
G1 X-22.357 Y-17.610 E4.52588
G1 X-22.027 Y-17.980 E4.53937
G1 X-21.497 Y-18.510 E4.55976
G1 X-21.127 Y-18.840 E4.57325
G1 X-20.547 Y-19.300 E4.59339
G1 X-20.137 Y-19.590 E4.60705
G1 X-19.547 Y-19.960 E4.62600
G1 X-19.117 Y-20.200 E4.63940
G1 X-18.527 Y-20.490 E4.65729
G1 X-18.067 Y-20.690 E4.67093
G1 X-17.167 Y-21.010 E4.69692
G1 X-16.687 Y-21.140 E4.71045
G1 X-15.637 Y-21.350 E4.73958
G1 X-14.747 Y-21.450 E4.76395
G1 X-13.997 Y-21.480 E4.78437
G1 X-1.307 Y-21.480 E5.12962
G1 X-0.547 Y-21.450 E5.15032
G1 X0.383 Y-21.350 E5.17576
G1 X1.403 Y-21.140 E5.20410
G1 X1.883 Y-21.010 E5.21763
G1 X2.783 Y-20.690 E5.24361
G1 X3.534 Y-20.356 E5.26598
G1 F1800.000 E4.26598
G92 E0
G1 X7.182 Y-6.261 F7800.000
G1 F1800.000 E1.00000
G1 X7.433 Y-6.261 F540.000 E1.00685
G1 X7.607 Y-6.319 E1.01183
G1 X8.277 Y-6.311 E1.03006
G1 X8.396 Y-6.261 E1.03357
G1 X8.652 Y-6.261 E1.04051
G1 X8.864 Y-6.173 E1.04677
G1 X9.196 Y-5.841 E1.05955
G1 X9.284 Y-5.628 E1.06582
G1 X9.284 Y-5.373 E1.07276
G1 X9.331 Y-5.262 E1.07604
G1 X16.504 Y-5.262 E1.27119
G1 X16.549 Y-5.371 E1.27442
G1 X16.549 Y-5.628 E1.28141
G1 X16.637 Y-5.841 E1.28767
G1 X16.969 Y-6.173 E1.30045
G1 X17.182 Y-6.261 E1.30671
G1 X17.433 Y-6.261 E1.31356
G1 X17.607 Y-6.319 E1.31855
G1 X18.277 Y-6.311 E1.33677
G1 X18.396 Y-6.261 E1.34028
G1 X18.652 Y-6.261 E1.34722
G1 X18.864 Y-6.173 E1.35349
G1 X19.196 Y-5.841 E1.36627
G1 X19.284 Y-5.628 E1.37253
G1 X19.284 Y-5.373 E1.37947
G1 X19.334 Y-5.253 E1.38300
G1 X19.334 Y-4.534 E1.40256
G1 X19.284 Y-4.414 E1.40609
G1 X19.284 Y5.610 E1.67882
G1 X19.342 Y5.782 E1.68374
G1 X19.334 Y6.454 E1.70204
G1 X19.284 Y6.573 E1.70553
G1 X19.284 Y6.828 E1.71249
G1 X19.196 Y7.041 E1.71875
G1 X18.864 Y7.373 E1.73153
G1 X18.652 Y7.461 E1.73779
G1 X18.396 Y7.461 E1.74476
G1 X18.276 Y7.511 E1.74828
G1 X17.557 Y7.511 E1.76783
G1 X17.438 Y7.461 E1.77135
G1 X17.182 Y7.461 E1.77832
G1 X16.969 Y7.373 E1.78458
G1 X16.637 Y7.041 E1.79736
G1 X16.549 Y6.828 E1.80362
G1 X16.549 Y6.573 E1.81058
G1 X16.502 Y6.460 E1.81389
G1 X9.331 Y6.460 E2.00899
G1 X9.284 Y6.573 E2.01230
G1 X9.284 Y6.828 E2.01926
G1 X9.196 Y7.041 E2.02552
G1 X8.864 Y7.373 E2.03830
G1 X8.652 Y7.461 E2.04456
G1 X8.396 Y7.461 E2.05153
G1 X8.276 Y7.511 E2.05505
G1 X7.562 Y7.512 E2.07447
G1 X7.439 Y7.461 E2.07809
G1 X7.182 Y7.461 E2.08509
G1 X6.969 Y7.373 E2.09135
G1 X6.637 Y7.041 E2.10413
G1 X6.549 Y6.828 E2.11039
G1 X6.549 Y6.574 E2.11731
G1 X6.501 Y6.459 E2.12071
G1 X6.500 Y5.732 E2.14049
G1 X6.549 Y5.613 E2.14398
G1 X6.549 Y-4.415 E2.41682
G1 X6.500 Y-4.534 E2.42031
G1 X6.499 Y-5.251 E2.43982
G1 X6.549 Y-5.371 E2.44337
G1 X6.549 Y-5.628 E2.45036
G1 X6.637 Y-5.841 E2.45662
G1 X6.969 Y-6.173 E2.46940
G1 X7.102 Y-6.228 E2.47331
G1 X7.551 Y-5.612 F7800.000
G1 X7.694 Y-5.612 F540.000 E2.47721
G1 X7.832 Y-5.658 E2.48115
G1 X7.922 Y-5.612 E2.48389
G1 X8.282 Y-5.612 E2.49368
G1 X8.635 Y-5.259 E2.50729
G1 X8.635 Y-4.846 E2.51852
G1 X8.706 Y-4.817 E2.52060
G1 X8.706 Y-4.683 E2.52422
G1 X17.178 Y-4.683 E2.75472
G1 X17.198 Y-4.807 E2.75815
G1 X17.177 Y-5.109 E2.76636
G1 X17.198 Y-5.150 E2.76762
G1 X17.198 Y-5.257 E2.77054
G1 X17.307 Y-5.366 E2.77473
G1 X17.377 Y-5.507 E2.77900
G1 X17.480 Y-5.541 E2.78196
G1 X17.551 Y-5.612 E2.78468
G1 X17.694 Y-5.612 E2.78859
G1 X17.832 Y-5.658 E2.79252
G1 X17.922 Y-5.612 E2.79527
G1 X18.282 Y-5.612 E2.80506
G1 X18.635 Y-5.259 E2.81866
G1 X18.635 Y-4.846 E2.82990
G1 X18.706 Y-4.817 E2.83197
G1 X18.706 Y5.654 E3.11684
G1 X18.817 Y5.734 E3.12057
G1 X18.706 Y5.956 E3.12733
G1 X18.706 Y6.016 E3.12896
G1 X18.660 Y6.049 E3.13050
G1 X18.678 Y6.164 E3.13368
G1 X18.635 Y6.207 E3.13534
G1 X18.635 Y6.458 E3.14217
G1 X18.281 Y6.812 E3.15577
G1 X18.005 Y6.812 E3.16328
G1 X17.835 Y6.883 E3.16830
G1 X17.466 Y6.883 E3.17833
G1 X17.127 Y6.544 E3.19137
G1 X17.127 Y6.174 E3.20143
G1 X17.161 Y6.093 E3.20383
G1 X17.127 Y6.016 E3.20612
G1 X17.127 Y5.882 E3.20976
G1 X8.743 Y5.882 E3.43786
G1 X8.706 Y5.956 E3.44013
G1 X8.706 Y6.016 E3.44176
G1 X8.660 Y6.049 E3.44330
G1 X8.678 Y6.164 E3.44648
G1 X8.635 Y6.207 E3.44814
G1 X8.635 Y6.458 E3.45497
G1 X8.281 Y6.812 E3.46857
G1 X8.006 Y6.812 E3.47606
G1 X7.835 Y6.883 E3.48110
G1 X7.466 Y6.883 E3.49113
G1 X7.127 Y6.544 E3.50417
G1 X7.127 Y6.175 E3.51420
G1 X7.161 Y6.093 E3.51661
G1 X7.127 Y6.015 E3.51892
G1 X7.127 Y-4.554 E3.80648
G1 X7.189 Y-4.654 E3.80969
G1 X7.198 Y-4.980 E3.81854
G1 X7.177 Y-5.109 E3.82209
G1 X7.198 Y-5.150 E3.82336
G1 X7.198 Y-5.257 E3.82627
G1 X7.307 Y-5.366 E3.83047
G1 X7.377 Y-5.507 E3.83473
G1 X7.490 Y-5.550 E3.83802
G1 F1800.000 E2.83802
G92 E0
G1 X4.018 Y-10.458 F7800.000
G1 F1800.000 E1.00000
G1 X4.018 Y10.458 F540.000 E1.56906
G1 X3.982 Y11.062 E1.58551
G1 X3.880 Y11.649 E1.60172
G1 X3.725 Y12.191 E1.61707
G1 X3.498 Y12.743 E1.63330
G1 X3.212 Y13.266 E1.64952
G1 X2.877 Y13.741 E1.66532
G1 X2.437 Y14.234 E1.68330
G1 X2.003 Y14.618 E1.69906
G1 X1.516 Y14.962 E1.71530
G1 X1.022 Y15.234 E1.73065
G1 X0.472 Y15.464 E1.74686
G1 X-0.101 Y15.630 E1.76310
G1 X-0.672 Y15.730 E1.77886
G1 X-1.332 Y15.767 E1.79686
G1 X-1.912 Y15.732 E1.81265
G1 X-2.499 Y15.630 E1.82886
G1 X-3.087 Y15.458 E1.84554
G1 X-3.593 Y15.248 E1.86043
G1 X-4.101 Y14.970 E1.87621
G1 X-4.603 Y14.618 E1.89289
G1 X-5.084 Y14.187 E1.91044
G1 X-5.468 Y13.753 E1.92620
G1 X-5.785 Y13.307 E1.94110
G1 X-6.084 Y12.772 E1.95778
G1 X-6.330 Y12.175 E1.97533
G1 X-6.480 Y11.649 E1.99023
G1 X-6.580 Y11.078 E2.00600
G1 X-6.618 Y10.458 E2.02289
G1 X-6.618 Y-10.458 E2.59195
G1 X-6.582 Y-11.062 E2.60840
G1 X-6.480 Y-11.649 E2.62462
G1 X-6.325 Y-12.191 E2.63996
G1 X-6.105 Y-12.728 E2.65575
G1 X-5.785 Y-13.307 E2.67375
G1 X-5.448 Y-13.779 E2.68952
G1 X-5.072 Y-14.199 E2.70486
G1 X-4.629 Y-14.598 E2.72108
G1 X-4.157 Y-14.935 E2.73686
G1 X-3.578 Y-15.255 E2.75485
G1 X-3.041 Y-15.475 E2.77064
G1 X-2.499 Y-15.630 E2.78599
G1 X-1.863 Y-15.738 E2.80353
G1 X-1.284 Y-15.768 E2.81931
G1 X-0.721 Y-15.736 E2.83465
G1 X-0.132 Y-15.638 E2.85088
G1 X0.425 Y-15.480 E2.86666
G1 X1.022 Y-15.234 E2.88420
G1 X1.516 Y-14.962 E2.89955
G1 X1.991 Y-14.627 E2.91535
G1 X2.484 Y-14.187 E2.93333
G1 X2.868 Y-13.753 E2.94909
G1 X3.185 Y-13.307 E2.96399
G1 X3.505 Y-12.728 E2.98198
G1 X3.725 Y-12.191 E2.99777
G1 X3.880 Y-11.649 E3.01312
G1 X3.982 Y-11.062 E3.02933
G1 X4.014 Y-10.545 E3.04342
G1 X3.439 Y-10.466 F7800.000
G1 X3.439 Y10.450 F540.000 E3.61248
G1 X3.411 Y10.964 E3.62650
G1 X3.323 Y11.489 E3.64096
G1 X3.167 Y12.031 E3.65631
G1 X2.962 Y12.521 E3.67076
G1 X2.704 Y12.985 E3.68523
G1 X2.395 Y13.418 E3.69968
G1 X2.040 Y13.813 E3.71414
G1 X1.642 Y14.165 E3.72858
G1 X1.235 Y14.454 E3.74216
G1 X0.771 Y14.712 E3.75662
G1 X0.281 Y14.917 E3.77107
G1 X-0.261 Y15.073 E3.78642
G1 X-0.753 Y15.157 E3.80000
G1 X-1.284 Y15.189 E3.81446
G1 X-1.814 Y15.161 E3.82891
G1 X-2.339 Y15.073 E3.84337
G1 X-2.881 Y14.917 E3.85872
G1 X-3.371 Y14.712 E3.87317
G1 X-3.808 Y14.471 E3.88675
G1 X-4.242 Y14.165 E3.90122
G1 X-4.663 Y13.790 E3.91655
G1 X-5.015 Y13.392 E3.93099
G1 X-5.304 Y12.985 E3.94457
G1 X-5.562 Y12.521 E3.95904
G1 X-5.778 Y12.000 E3.97437
G1 X-5.916 Y11.520 E3.98796
G1 X-6.007 Y10.997 E4.00241
G1 X-6.039 Y10.450 E4.01731
G1 X-6.039 Y-10.450 E4.58593
G1 X-6.011 Y-10.964 E4.59994
G1 X-5.923 Y-11.489 E4.61441
G1 X-5.767 Y-12.031 E4.62975
G1 X-5.562 Y-12.521 E4.64420
G1 X-5.304 Y-12.985 E4.65867
G1 X-5.015 Y-13.392 E4.67225
G1 X-4.663 Y-13.790 E4.68669
G1 X-4.242 Y-14.165 E4.70202
G1 X-3.835 Y-14.454 E4.71560
G1 X-3.371 Y-14.712 E4.73007
G1 X-2.850 Y-14.928 E4.74541
G1 X-2.339 Y-15.073 E4.75986
G1 X-1.814 Y-15.161 E4.77433
G1 X-1.316 Y-15.189 E4.78790
G1 X-0.786 Y-15.161 E4.80235
G1 X-0.261 Y-15.073 E4.81682
G1 X0.250 Y-14.928 E4.83128
G1 X0.771 Y-14.712 E4.84661
G1 X1.208 Y-14.471 E4.86019
G1 X1.642 Y-14.165 E4.87466
G1 X2.063 Y-13.790 E4.88999
G1 X2.415 Y-13.392 E4.90443
G1 X2.704 Y-12.985 E4.91801
G1 X2.976 Y-12.492 E4.93335
G1 X3.178 Y-12.000 E4.94782
G1 X3.316 Y-11.520 E4.96140
G1 X3.407 Y-10.997 E4.97585
G1 X3.434 Y-10.553 E4.98795
G1 F1800.000 E3.98795
G92 E0
G1 X-8.649 Y-10.458 F7800.000
G1 F1800.000 E1.00000
G1 X-8.649 Y10.458 F540.000 E1.56906
G1 X-8.684 Y11.062 E1.58551
G1 X-8.786 Y11.649 E1.60172
G1 X-8.942 Y12.191 E1.61707
G1 X-9.169 Y12.743 E1.63330
G1 X-9.455 Y13.266 E1.64952
G1 X-9.789 Y13.741 E1.66532
G1 X-10.230 Y14.234 E1.68330
G1 X-10.663 Y14.618 E1.69906
G1 X-11.151 Y14.962 E1.71530
G1 X-11.645 Y15.234 E1.73065
G1 X-12.195 Y15.464 E1.74686
G1 X-12.768 Y15.630 E1.76310
G1 X-13.339 Y15.730 E1.77886
G1 X-13.999 Y15.767 E1.79686
G1 X-14.578 Y15.732 E1.81265
G1 X-15.166 Y15.630 E1.82886
G1 X-15.754 Y15.458 E1.84554
G1 X-16.259 Y15.248 E1.86043
G1 X-16.768 Y14.970 E1.87621
G1 X-17.270 Y14.618 E1.89289
G1 X-17.750 Y14.187 E1.91044
G1 X-18.134 Y13.753 E1.92620
G1 X-18.452 Y13.307 E1.94110
G1 X-18.751 Y12.772 E1.95778
G1 X-18.996 Y12.175 E1.97533
G1 X-19.147 Y11.649 E1.99023
G1 X-19.247 Y11.078 E2.00600
G1 X-19.284 Y10.458 E2.02289
G1 X-19.284 Y-10.458 E2.59195
G1 X-19.249 Y-11.062 E2.60840
G1 X-19.147 Y-11.649 E2.62462
G1 X-18.991 Y-12.191 E2.63996
G1 X-18.771 Y-12.728 E2.65575
G1 X-18.452 Y-13.307 E2.67375
G1 X-18.114 Y-13.779 E2.68952
G1 X-17.739 Y-14.199 E2.70486
G1 X-17.295 Y-14.598 E2.72108
G1 X-16.824 Y-14.935 E2.73686
G1 X-16.245 Y-15.255 E2.75485
G1 X-15.708 Y-15.475 E2.77064
G1 X-15.166 Y-15.630 E2.78599
G1 X-14.530 Y-15.738 E2.80353
G1 X-13.950 Y-15.768 E2.81931
G1 X-13.387 Y-15.736 E2.83465
G1 X-12.799 Y-15.638 E2.85088
G1 X-12.241 Y-15.480 E2.86666
G1 X-11.645 Y-15.234 E2.88420
G1 X-11.151 Y-14.962 E2.89955
G1 X-10.676 Y-14.627 E2.91535
G1 X-10.183 Y-14.187 E2.93333
G1 X-9.799 Y-13.753 E2.94909
G1 X-9.482 Y-13.307 E2.96399
G1 X-9.162 Y-12.728 E2.98198
G1 X-8.942 Y-12.191 E2.99777
G1 X-8.786 Y-11.649 E3.01312
G1 X-8.684 Y-11.062 E3.02933
G1 X-8.653 Y-10.545 E3.04342
G1 X-9.228 Y-10.466 F7800.000
G1 X-9.227 Y10.450 F540.000 E3.61248
G1 X-9.256 Y10.964 E3.62650
G1 X-9.344 Y11.489 E3.64096
G1 X-9.499 Y12.031 E3.65631
G1 X-9.704 Y12.521 E3.67076
G1 X-9.963 Y12.985 E3.68523
G1 X-10.272 Y13.418 E3.69968
G1 X-10.627 Y13.813 E3.71414
G1 X-11.024 Y14.165 E3.72858
G1 X-11.431 Y14.454 E3.74216
G1 X-11.896 Y14.712 E3.75662
G1 X-12.386 Y14.917 E3.77107
G1 X-12.928 Y15.073 E3.78642
G1 X-13.420 Y15.157 E3.80000
G1 X-13.950 Y15.189 E3.81446
G1 X-14.481 Y15.161 E3.82891
G1 X-15.005 Y15.073 E3.84337
G1 X-15.547 Y14.917 E3.85872
G1 X-16.037 Y14.712 E3.87317
G1 X-16.474 Y14.471 E3.88675
G1 X-16.909 Y14.165 E3.90122
G1 X-17.329 Y13.790 E3.91655
G1 X-17.682 Y13.392 E3.93099
G1 X-17.971 Y12.985 E3.94457
G1 X-18.229 Y12.521 E3.95904
G1 X-18.445 Y12.000 E3.97437
G1 X-18.583 Y11.520 E3.98796
G1 X-18.674 Y10.997 E4.00241
G1 X-18.706 Y10.450 E4.01731
G1 X-18.706 Y-10.450 E4.58593
G1 X-18.677 Y-10.964 E4.59994
G1 X-18.590 Y-11.489 E4.61441
G1 X-18.434 Y-12.031 E4.62975
G1 X-18.229 Y-12.521 E4.64420
G1 X-17.971 Y-12.985 E4.65867
G1 X-17.682 Y-13.392 E4.67225
G1 X-17.329 Y-13.790 E4.68669
G1 X-16.909 Y-14.165 E4.70202
G1 X-16.502 Y-14.454 E4.71560
G1 X-16.037 Y-14.712 E4.73007
G1 X-15.517 Y-14.928 E4.74541
G1 X-15.005 Y-15.073 E4.75986
G1 X-14.481 Y-15.161 E4.77433
G1 X-13.983 Y-15.189 E4.78790
G1 X-13.452 Y-15.161 E4.80235
G1 X-12.928 Y-15.073 E4.81682
G1 X-12.417 Y-14.928 E4.83128
G1 X-11.896 Y-14.712 E4.84661
G1 X-11.459 Y-14.471 E4.86019
G1 X-11.024 Y-14.165 E4.87466
G1 X-10.604 Y-13.790 E4.88999
G1 X-10.252 Y-13.392 E4.90443
G1 X-9.963 Y-12.985 E4.91801
G1 X-9.690 Y-12.492 E4.93335
G1 X-9.489 Y-12.000 E4.94782
G1 X-9.351 Y-11.520 E4.96140
G1 X-9.260 Y-10.997 E4.97585
G1 X-9.233 Y-10.553 E4.98795
G1 F1800.000 E3.98795
G92 E0
G1 X-5.461 Y-10.442 F7800.000
G1 F1800.000 E1.00000
G1 X-5.434 Y-10.915 F540.000 E1.01290
G1 X-5.356 Y-11.375 E1.02560
G1 X-5.227 Y-11.824 E1.03831
G1 X-5.048 Y-12.255 E1.05100
G1 X-4.823 Y-12.664 E1.06370
G1 X-4.552 Y-13.044 E1.07639
G1 X-4.242 Y-13.392 E1.08907
G1 X-3.894 Y-13.702 E1.10175
G1 X-3.514 Y-13.973 E1.11445
G1 X-3.105 Y-14.198 E1.12714
G1 X-2.674 Y-14.377 E1.13983
G1 X-2.226 Y-14.506 E1.15254
G1 X-1.765 Y-14.584 E1.16524
G1 X-1.300 Y-14.610 E1.17792
G1 X-0.835 Y-14.584 E1.19060
G1 X-0.375 Y-14.506 E1.20330
G1 X0.074 Y-14.377 E1.21601
G1 X0.505 Y-14.198 E1.22870
G1 X0.914 Y-13.973 E1.24140
G1 X1.294 Y-13.702 E1.25409
G1 X1.642 Y-13.392 E1.26677
G1 X1.952 Y-13.044 E1.27945
G1 X2.223 Y-12.664 E1.29215
G1 X2.448 Y-12.255 E1.30484
G1 X2.627 Y-11.824 E1.31753
G1 X2.756 Y-11.375 E1.33024
G1 X2.834 Y-10.915 E1.34294
G1 X2.861 Y-10.442 E1.35584
G1 X2.861 Y10.442 E1.92402
G1 X2.834 Y10.915 E1.93692
G1 X2.756 Y11.375 E1.94962
G1 X2.627 Y11.824 E1.96233
G1 X2.448 Y12.255 E1.97502
G1 X2.223 Y12.664 E1.98771
G1 X1.952 Y13.044 E2.00041
G1 X1.642 Y13.392 E2.01309
G1 X1.294 Y13.702 E2.02577
G1 X0.914 Y13.973 E2.03847
G1 X0.505 Y14.198 E2.05116
G1 X0.074 Y14.377 E2.06385
G1 X-0.375 Y14.506 E2.07656
G1 X-0.835 Y14.584 E2.08926
G1 X-1.300 Y14.610 E2.10194
G1 X-1.765 Y14.584 E2.11462
G1 X-2.226 Y14.506 E2.12732
G1 X-2.674 Y14.377 E2.14003
G1 X-3.105 Y14.198 E2.15272
G1 X-3.514 Y13.973 E2.16541
G1 X-3.894 Y13.702 E2.17811
G1 X-4.242 Y13.392 E2.19079
G1 X-4.552 Y13.044 E2.20347
G1 X-4.823 Y12.664 E2.21617
G1 X-5.048 Y12.255 E2.22886
G1 X-5.227 Y11.824 E2.24155
G1 X-5.356 Y11.375 E2.25426
G1 X-5.434 Y10.915 E2.26696
G1 X-5.461 Y10.442 E2.27986
G1 X-5.461 Y-10.355 E2.84568
G1 X-5.041 Y-10.663 F7800.000
G1 X-0.900 Y-14.008
G1 X-0.504 Y-13.941 F540.000 E2.85661
G1 X-0.117 Y-13.830 E2.86756
G1 X0.254 Y-13.676 E2.87849
G1 X0.606 Y-13.482 E2.88941
G1 X0.933 Y-13.249 E2.90033
G1 X1.232 Y-12.982 E2.91124
G1 X1.499 Y-12.683 E2.92215
G1 X1.732 Y-12.356 E2.93308
G1 X1.926 Y-12.004 E2.94400
