; generated by Slic3r 0.9.10b on 2013-12-18 at 23:21:12

; layer_height = 0.3
; perimeters = 2
; top_solid_layers = 3
; bottom_solid_layers = 3
; fill_density = 0.4
; perimeter_speed = 30
; infill_speed = 60
; travel_speed = 130
; nozzle_diameter = 0.5
; filament_diameter = 2.85
; extrusion_multiplier = 1
; perimeters extrusion width = 0.70mm
; infill extrusion width = 0.70mm
; solid infill extrusion width = 0.70mm
; top infill extrusion width = 0.70mm
; first layer extrusion width = 0.60mm

G21 ; set units to millimeters
M107
M104 S0
M83
M140 S70
G28
G1Y98F9000
M190 S70
G1X5Y98Z150F9000
M104 S210
G1X5Y98Z1F9000
G1Z0.05
M109 S210
G1Z5
G1X15
;G1E5F50
G90 ; use absolute coordinates
G92 E0
M82 ; use absolute distances for extrusion
G1 F1800.000 E-1.00000
G92 E0
G1 Z0.300 F7800.000
G1 X22.340 Y21.470
G1 F1800.000 E1.00000
G1 X-22.360 Y21.470 F540.000 E2.21614
G1 X-23.120 Y21.440 E2.23683
G1 X-24.020 Y21.340 E2.26147
G1 X-24.520 Y21.250 E2.27529
G1 X-25.190 Y21.100 E2.29397
G1 X-25.670 Y20.960 E2.30757
G1 X-26.340 Y20.720 E2.32693
G1 X-26.800 Y20.530 E2.34047
G1 X-27.500 Y20.190 E2.36165
G1 X-27.930 Y19.950 E2.37504
G1 X-28.520 Y19.580 E2.39399
G1 X-28.930 Y19.290 E2.40766
G1 X-29.510 Y18.830 E2.42780
G1 X-29.880 Y18.500 E2.44128
G1 X-30.410 Y17.970 E2.46168
G1 X-30.740 Y17.600 E2.47516
G1 X-31.200 Y17.020 E2.49530
G1 X-31.490 Y16.610 E2.50897
G1 X-31.860 Y16.020 E2.52792
G1 X-32.100 Y15.590 E2.54131
G1 X-32.410 Y14.960 E2.56042
G1 X-32.610 Y14.490 E2.57431
G1 X-32.910 Y13.630 E2.59909
G1 X-33.040 Y13.150 E2.61262
G1 X-33.250 Y12.130 E2.64096
G1 X-33.350 Y11.200 E2.66640
G1 X-33.380 Y10.440 E2.68710
G1 X-33.380 Y-10.460 E3.25572
G1 X-33.350 Y-11.220 E3.27641
G1 X-33.250 Y-12.120 E3.30105
G1 X-33.040 Y-13.170 E3.33018
G1 X-32.910 Y-13.650 E3.34371
G1 X-32.590 Y-14.550 E3.36970
G1 X-32.390 Y-15.010 E3.38334
G1 X-32.100 Y-15.600 E3.40123
G1 X-31.860 Y-16.030 E3.41463
G1 X-31.490 Y-16.620 E3.43357
G1 X-31.200 Y-17.030 E3.44724
G1 X-30.740 Y-17.610 E3.46738
G1 X-30.410 Y-17.980 E3.48086
G1 X-29.880 Y-18.510 E3.50126
G1 X-29.510 Y-18.840 E3.51475
G1 X-28.930 Y-19.300 E3.53489
G1 X-28.520 Y-19.590 E3.54855
G1 X-27.930 Y-19.960 E3.56750
G1 X-27.500 Y-20.200 E3.58089
G1 X-26.910 Y-20.490 E3.59878
G1 X-26.450 Y-20.690 E3.61243
G1 X-25.550 Y-21.010 E3.63841
G1 X-25.070 Y-21.140 E3.65194
G1 X-24.020 Y-21.350 E3.68108
G1 X-23.130 Y-21.450 E3.70544
G1 X-22.660 Y-21.470 E3.71824
G1 X22.340 Y-21.480 E4.94254
G1 X23.100 Y-21.450 E4.96323
G1 X24.030 Y-21.350 E4.98868
G1 X24.520 Y-21.260 E5.00224
G1 X25.530 Y-21.010 E5.03054
G1 X26.390 Y-20.710 E5.05532
G1 X26.860 Y-20.510 E5.06922
G1 X27.490 Y-20.200 E5.08832
G1 X27.920 Y-19.960 E5.10172
G1 X28.510 Y-19.590 E5.12067
G1 X28.920 Y-19.300 E5.13433
G1 X29.500 Y-18.840 E5.15447
G1 X29.870 Y-18.510 E5.16796
G1 X30.400 Y-17.980 E5.18835
G1 X30.730 Y-17.610 E5.20184
G1 X31.190 Y-17.030 E5.22198
G1 X31.480 Y-16.620 E5.23565
G1 X31.850 Y-16.030 E5.25459
G1 X32.090 Y-15.600 E5.26799
G1 X32.430 Y-14.900 E5.28916
G1 X32.620 Y-14.440 E5.30270
G1 X32.860 Y-13.770 E5.32207
G1 X33.000 Y-13.290 E5.33567
G1 X33.240 Y-12.120 E5.36816
G1 X33.340 Y-11.350 E5.38929
G1 X33.380 Y-10.460 E5.41353
G1 X33.380 Y10.440 E5.98215
G1 X33.340 Y11.330 E6.00638
G1 X33.240 Y12.130 E6.02832
G1 X33.150 Y12.620 E6.04187
G1 X33.000 Y13.270 E6.06002
G1 X32.860 Y13.750 E6.07363
G1 X32.640 Y14.380 E6.09178
G1 X32.450 Y14.850 E6.10557
G1 X32.090 Y15.590 E6.12796
G1 X31.850 Y16.020 E6.14136
G1 X31.480 Y16.610 E6.16031
G1 X31.190 Y17.020 E6.17397
G1 X30.730 Y17.600 E6.19411
G1 X30.400 Y17.970 E6.20760
G1 X29.870 Y18.500 E6.22799
G1 X29.500 Y18.830 E6.24148
G1 X28.920 Y19.290 E6.26162
G1 X28.510 Y19.580 E6.27528
G1 X27.920 Y19.950 E6.29423
G1 X27.490 Y20.190 E6.30763
G1 X26.790 Y20.530 E6.32880
G1 X26.330 Y20.720 E6.34234
G1 X25.630 Y20.970 E6.36256
G1 X25.140 Y21.110 E6.37643
G1 X24.520 Y21.250 E6.39372
G1 X24.030 Y21.340 E6.40728
G1 X23.100 Y21.440 E6.43272
G1 X22.427 Y21.467 E6.45106
G1 F1800.000 E5.45106
G92 E0
G1 X11.627 Y13.741 F7800.000
G1 F1800.000 E1.00000
G1 X11.222 Y14.199 F540.000 E1.01664
G1 X10.741 Y14.627 E1.03418
G1 X10.293 Y14.944 E1.04909
G1 X9.786 Y15.227 E1.06489
G1 X9.222 Y15.464 E1.08154
G1 X8.618 Y15.638 E1.09865
G1 X8.013 Y15.738 E1.11532
G1 X7.466 Y15.768 E1.13022
G1 X6.887 Y15.738 E1.14600
G1 X6.282 Y15.638 E1.16267
G1 X5.663 Y15.458 E1.18022
G1 X5.157 Y15.248 E1.19511
G1 X4.649 Y14.970 E1.21089
G1 X4.147 Y14.618 E1.22757
G1 X3.678 Y14.199 E1.24467
G1 X3.273 Y13.741 E1.26131
G1 X2.956 Y13.293 E1.27623
G1 X2.673 Y12.786 E1.29203
G1 X2.436 Y12.222 E1.30868
G1 X2.259 Y11.602 E1.32622
G1 X2.164 Y11.029 E1.34201
G1 X2.132 Y10.458 E1.35757
G1 X2.132 Y-10.458 E1.92663
G1 X2.170 Y-11.078 E1.94353
G1 X2.270 Y-11.649 E1.95929
G1 X2.420 Y-12.175 E1.97420
G1 X2.666 Y-12.772 E1.99174
G1 X2.965 Y-13.307 E2.00842
G1 X3.282 Y-13.753 E2.02333
G1 X3.666 Y-14.187 E2.03909
G1 X4.147 Y-14.618 E2.05663
G1 X4.649 Y-14.970 E2.07332
G1 X5.157 Y-15.248 E2.08909
G1 X5.663 Y-15.458 E2.10399
G1 X6.298 Y-15.641 E2.12197
G1 X6.871 Y-15.736 E2.13776
G1 X7.434 Y-15.768 E2.15310
G1 X8.029 Y-15.736 E2.16933
G1 X8.602 Y-15.641 E2.18512
G1 X9.237 Y-15.458 E2.20311
G1 X9.772 Y-15.234 E2.21888
G1 X10.293 Y-14.944 E2.23511
G1 X10.753 Y-14.618 E2.25046
G1 X11.199 Y-14.222 E2.26667
G1 X11.598 Y-13.779 E2.28289
G1 X11.935 Y-13.307 E2.29867
G1 X12.234 Y-12.772 E2.31535
G1 X12.458 Y-12.237 E2.33112
G1 X12.641 Y-11.602 E2.34911
G1 X12.736 Y-11.029 E2.36490
G1 X12.768 Y-10.458 E2.38046
G1 X12.767 Y10.482 E2.95019
G1 X12.736 Y11.029 E2.96509
G1 X12.641 Y11.602 E2.98088
G1 X12.475 Y12.191 E2.99753
G1 X12.227 Y12.786 E3.01507
G1 X11.962 Y13.266 E3.02998
G1 X11.678 Y13.670 E3.04342
G1 X11.165 Y13.392 F7800.000
G1 X10.790 Y13.813 F540.000 E3.05875
G1 X10.392 Y14.165 E3.07319
G1 X9.958 Y14.471 E3.08766
G1 X9.492 Y14.726 E3.10211
G1 X9.031 Y14.917 E3.11569
G1 X8.489 Y15.073 E3.13103
G1 X7.997 Y15.157 E3.14461
G1 X7.466 Y15.189 E3.15907
G1 X6.936 Y15.161 E3.17352
G1 X6.380 Y15.066 E3.18886
G1 X5.869 Y14.917 E3.20333
G1 X5.379 Y14.712 E3.21778
G1 X4.942 Y14.471 E3.23136
G1 X4.508 Y14.165 E3.24583
G1 X4.087 Y13.790 E3.26116
G1 X3.735 Y13.392 E3.27560
G1 X3.446 Y12.985 E3.28918
G1 X3.188 Y12.521 E3.30365
G1 X2.972 Y12.000 E3.31899
G1 X2.834 Y11.520 E3.33257
G1 X2.743 Y10.997 E3.34702
G1 X2.711 Y10.450 E3.36192
G1 X2.711 Y-10.450 E3.93054
G1 X2.743 Y-10.997 E3.94544
G1 X2.834 Y-11.520 E3.95989
G1 X2.972 Y-12.000 E3.97348
G1 X3.188 Y-12.521 E3.98882
G1 X3.446 Y-12.985 E4.00328
G1 X3.735 Y-13.392 E4.01686
G1 X4.087 Y-13.790 E4.03130
G1 X4.508 Y-14.165 E4.04663
G1 X4.915 Y-14.454 E4.06021
G1 X5.379 Y-14.712 E4.07468
G1 X5.900 Y-14.928 E4.09002
G1 X6.380 Y-15.066 E4.10361
G1 X6.903 Y-15.157 E4.11806
G1 X7.434 Y-15.189 E4.13251
G1 X7.964 Y-15.161 E4.14697
G1 X8.520 Y-15.066 E4.16230
G1 X9.031 Y-14.917 E4.17678
G1 X9.521 Y-14.712 E4.19123
G1 X9.958 Y-14.471 E4.20480
G1 X10.392 Y-14.165 E4.21928
G1 X10.813 Y-13.790 E4.23461
G1 X11.165 Y-13.392 E4.24905
G1 X11.471 Y-12.958 E4.26352
G1 X11.712 Y-12.521 E4.27709
G1 X11.917 Y-12.031 E4.29154
G1 X12.066 Y-11.520 E4.30602
G1 X12.157 Y-10.997 E4.32047
G1 X12.189 Y-10.450 E4.33537
G1 X12.189 Y10.466 E4.90443
G1 X12.157 Y10.997 E4.91889
G1 X12.066 Y11.520 E4.93334
G1 X11.928 Y12.000 E4.94692
G1 X11.712 Y12.521 E4.96226
G1 X11.471 Y12.958 E4.97584
G1 X11.215 Y13.322 E4.98795
G1 F1800.000 E3.98795
G92 E0
G1 X-2.170 Y11.078 F7800.000
G1 F1800.000 E1.00000
G1 X-2.270 Y11.649 F540.000 E1.01577
G1 X-2.420 Y12.175 E1.03067
G1 X-2.666 Y12.772 E1.04821
G1 X-2.938 Y13.266 E1.06356
G1 X-3.273 Y13.741 E1.07936
G1 X-3.713 Y14.234 E1.09734
G1 X-4.147 Y14.618 E1.11310
G1 X-4.634 Y14.962 E1.12935
G1 X-5.128 Y15.234 E1.14469
G1 X-5.663 Y15.458 E1.16046
G1 X-6.298 Y15.641 E1.17844
G1 X-6.871 Y15.736 E1.19424
G1 X-7.418 Y15.767 E1.20914
G1 X-8.078 Y15.730 E1.22713
G1 X-8.649 Y15.630 E1.24290
G1 X-9.191 Y15.475 E1.25825
G1 X-9.786 Y15.227 E1.27579
G1 X-10.293 Y14.944 E1.29159
G1 X-10.753 Y14.618 E1.30693
G1 X-11.234 Y14.187 E1.32448
G1 X-11.618 Y13.753 E1.34024
G1 X-11.944 Y13.293 E1.35559
G1 X-12.255 Y12.728 E1.37314
G1 X-12.475 Y12.191 E1.38892
G1 X-12.630 Y11.649 E1.40427
G1 X-12.732 Y11.062 E1.42048
G1 X-12.768 Y10.458 E1.43694
G1 X-12.768 Y-10.458 E2.00600
G1 X-12.730 Y-11.078 E2.02289
G1 X-12.630 Y-11.649 E2.03866
G1 X-12.480 Y-12.175 E2.05356
G1 X-12.234 Y-12.772 E2.07110
G1 X-11.935 Y-13.307 E2.08779
G1 X-11.618 Y-13.753 E2.10269
G1 X-11.234 Y-14.187 E2.11845
G1 X-10.753 Y-14.618 E2.13600
G1 X-10.251 Y-14.970 E2.15268
G1 X-9.743 Y-15.248 E2.16845
G1 X-9.237 Y-15.458 E2.18335
G1 X-8.649 Y-15.630 E2.20003
G1 X-8.062 Y-15.732 E2.21624
G1 X-7.482 Y-15.767 E2.23203
G1 X-6.822 Y-15.730 E2.25002
G1 X-6.251 Y-15.630 E2.26579
G1 X-5.678 Y-15.464 E2.28203
G1 X-5.128 Y-15.234 E2.29824
G1 X-4.634 Y-14.962 E2.31359
G1 X-4.147 Y-14.618 E2.32983
G1 X-3.713 Y-14.234 E2.34559
G1 X-3.273 Y-13.741 E2.36357
G1 X-2.938 Y-13.266 E2.37937
G1 X-2.652 Y-12.743 E2.39559
G1 X-2.425 Y-12.191 E2.41182
G1 X-2.270 Y-11.649 E2.42716
G1 X-2.168 Y-11.062 E2.44338
G1 X-2.132 Y-10.458 E2.45983
G1 X-2.132 Y10.458 E3.02889
G1 X-2.161 Y10.992 E3.04343
G1 X-2.739 Y10.964 F7800.000
G1 X-2.827 Y11.489 F540.000 E3.05789
G1 X-2.972 Y12.000 E3.07235
G1 X-3.188 Y12.521 E3.08769
G1 X-3.446 Y12.985 E3.10216
G1 X-3.735 Y13.392 E3.11574
G1 X-4.110 Y13.813 E3.13107
G1 X-4.508 Y14.165 E3.14550
G1 X-4.942 Y14.471 E3.15998
G1 X-5.408 Y14.726 E3.17443
G1 X-5.869 Y14.917 E3.18800
G1 X-6.411 Y15.073 E3.20335
G1 X-6.903 Y15.157 E3.21693
G1 X-7.434 Y15.189 E3.23138
G1 X-7.997 Y15.157 E3.24672
G1 X-8.520 Y15.066 E3.26117
G1 X-9.031 Y14.917 E3.27565
G1 X-9.521 Y14.712 E3.29010
G1 X-9.958 Y14.471 E3.30368
G1 X-10.418 Y14.145 E3.31902
G1 X-10.790 Y13.813 E3.33259
G1 X-11.145 Y13.418 E3.34704
G1 X-11.471 Y12.958 E3.36239
G1 X-11.712 Y12.521 E3.37597
G1 X-11.917 Y12.031 E3.39041
G1 X-12.073 Y11.489 E3.40576
G1 X-12.161 Y10.964 E3.42023
G1 X-12.189 Y10.450 E3.43424
G1 X-12.189 Y-10.450 E4.00286
G1 X-12.157 Y-10.997 E4.01776
G1 X-12.066 Y-11.520 E4.03221
G1 X-11.928 Y-12.000 E4.04579
G1 X-11.712 Y-12.521 E4.06113
G1 X-11.454 Y-12.985 E4.07560
G1 X-11.165 Y-13.392 E4.08918
G1 X-10.813 Y-13.790 E4.10362
G1 X-10.392 Y-14.165 E4.11895
G1 X-9.958 Y-14.471 E4.13342
G1 X-9.521 Y-14.712 E4.14700
G1 X-9.031 Y-14.917 E4.16145
G1 X-8.489 Y-15.073 E4.17679
G1 X-7.997 Y-15.157 E4.19037
G1 X-7.466 Y-15.189 E4.20483
G1 X-6.936 Y-15.161 E4.21928
G1 X-6.411 Y-15.073 E4.23375
G1 X-5.869 Y-14.917 E4.24909
G1 X-5.379 Y-14.712 E4.26354
G1 X-4.915 Y-14.454 E4.27801
G1 X-4.508 Y-14.165 E4.29159
G1 X-4.110 Y-13.813 E4.30603
G1 X-3.755 Y-13.418 E4.32049
G1 X-3.446 Y-12.985 E4.33494
G1 X-3.188 Y-12.521 E4.34941
G1 X-2.983 Y-12.031 E4.36386
G1 X-2.827 Y-11.489 E4.37920
G1 X-2.739 Y-10.964 E4.39367
G1 X-2.711 Y-10.450 E4.40768
G1 X-2.711 Y10.450 E4.97630
G1 X-2.734 Y10.878 E4.98795
G1 F1800.000 E3.98795
G92 E0
G1 X-17.033 Y10.482 F7800.000
G1 F1800.000 E1.00000
G1 X-17.064 Y11.029 F540.000 E1.01490
G1 X-17.159 Y11.602 E1.03069
G1 X-17.342 Y12.237 E1.04868
G1 X-17.566 Y12.772 E1.06445
G1 X-17.838 Y13.266 E1.07979
G1 X-18.182 Y13.753 E1.09603
G1 X-18.566 Y14.187 E1.11179
G1 X-19.059 Y14.627 E1.12977
G1 X-19.534 Y14.962 E1.14558
G1 X-20.028 Y15.234 E1.16092
G1 X-20.625 Y15.480 E1.17846
G1 X-21.182 Y15.638 E1.19424
G1 X-21.771 Y15.736 E1.21047
G1 X-22.334 Y15.768 E1.22581
G1 X-22.913 Y15.738 E1.24159
G1 X-23.549 Y15.630 E1.25914
G1 X-24.091 Y15.475 E1.27448
G1 X-24.628 Y15.255 E1.29027
G1 X-25.207 Y14.935 E1.30826
G1 X-25.679 Y14.598 E1.32404
G1 X-26.122 Y14.199 E1.34027
G1 X-26.498 Y13.779 E1.35560
G1 X-26.835 Y13.307 E1.37138
G1 X-27.155 Y12.728 E1.38937
G1 X-27.375 Y12.191 E1.40516
G1 X-27.530 Y11.649 E1.42051
G1 X-27.632 Y11.062 E1.43672
G1 X-27.668 Y10.458 E1.45317
G1 X-27.668 Y-10.458 E2.02223
G1 X-27.630 Y-11.078 E2.03912
G1 X-27.530 Y-11.649 E2.05489
G1 X-27.380 Y-12.175 E2.06980
G1 X-27.134 Y-12.772 E2.08734
G1 X-26.835 Y-13.307 E2.10402
G1 X-26.518 Y-13.753 E2.11892
G1 X-26.134 Y-14.187 E2.13468
G1 X-25.653 Y-14.618 E2.15223
G1 X-25.151 Y-14.970 E2.16891
G1 X-24.643 Y-15.248 E2.18469
G1 X-24.137 Y-15.458 E2.19958
G1 X-23.549 Y-15.630 E2.21626
G1 X-22.962 Y-15.732 E2.23247
G1 X-22.382 Y-15.767 E2.24826
G1 X-21.722 Y-15.730 E2.26626
G1 X-21.151 Y-15.630 E2.28202
G1 X-20.578 Y-15.464 E2.29826
G1 X-20.028 Y-15.234 E2.31447
G1 X-19.534 Y-14.962 E2.32982
G1 X-19.047 Y-14.618 E2.34606
G1 X-18.613 Y-14.234 E2.36182
G1 X-18.173 Y-13.741 E2.37980
G1 X-17.838 Y-13.266 E2.39560
G1 X-17.552 Y-12.743 E2.41182
G1 X-17.325 Y-12.191 E2.42805
G1 X-17.170 Y-11.649 E2.44340
G1 X-17.068 Y-11.062 E2.45961
G1 X-17.032 Y-10.458 E2.47606
G1 X-17.032 Y10.396 E3.04342
G1 X-17.611 Y10.450 F7800.000
G1 X-17.639 Y10.964 F540.000 E3.05744
G1 X-17.727 Y11.489 E3.07190
G1 X-17.883 Y12.031 E3.08725
G1 X-18.088 Y12.521 E3.10170
G1 X-18.329 Y12.958 E3.11527
G1 X-18.635 Y13.392 E3.12975
G1 X-18.987 Y13.790 E3.14418
G1 X-19.408 Y14.165 E3.15952
G1 X-19.815 Y14.454 E3.17310
G1 X-20.279 Y14.712 E3.18756
G1 X-20.800 Y14.928 E3.20290
G1 X-21.311 Y15.073 E3.21736
G1 X-21.836 Y15.161 E3.23183
G1 X-22.334 Y15.189 E3.24540
G1 X-22.864 Y15.161 E3.25985
G1 X-23.389 Y15.073 E3.27431
G1 X-23.900 Y14.928 E3.28877
G1 X-24.421 Y14.712 E3.30411
G1 X-24.885 Y14.454 E3.31858
G1 X-25.292 Y14.165 E3.33216
G1 X-25.713 Y13.790 E3.34749
G1 X-26.065 Y13.392 E3.36193
G1 X-26.354 Y12.985 E3.37551
G1 X-26.612 Y12.521 E3.38998
G1 X-26.817 Y12.031 E3.40443
G1 X-26.973 Y11.489 E3.41977
G1 X-27.061 Y10.964 E3.43424
G1 X-27.089 Y10.450 E3.44825
G1 X-27.089 Y-10.450 E4.01687
G1 X-27.057 Y-10.997 E4.03177
G1 X-26.966 Y-11.520 E4.04622
G1 X-26.828 Y-12.000 E4.05980
G1 X-26.612 Y-12.521 E4.07514
G1 X-26.354 Y-12.985 E4.08961
G1 X-26.065 Y-13.392 E4.10319
G1 X-25.713 Y-13.790 E4.11763
G1 X-25.292 Y-14.165 E4.13296
G1 X-24.858 Y-14.471 E4.14743
G1 X-24.421 Y-14.712 E4.16101
G1 X-23.931 Y-14.917 E4.17546
G1 X-23.389 Y-15.073 E4.19080
G1 X-22.897 Y-15.157 E4.20438
G1 X-22.366 Y-15.189 E4.21884
G1 X-21.836 Y-15.161 E4.23329
G1 X-21.311 Y-15.073 E4.24776
G1 X-20.769 Y-14.917 E4.26310
G1 X-20.279 Y-14.712 E4.27755
G1 X-19.815 Y-14.454 E4.29202
G1 X-19.408 Y-14.165 E4.30560
G1 X-19.010 Y-13.813 E4.32004
G1 X-18.655 Y-13.418 E4.33450
G1 X-18.346 Y-12.985 E4.34895
G1 X-18.088 Y-12.521 E4.36342
G1 X-17.883 Y-12.031 E4.37787
G1 X-17.727 Y-11.489 E4.39322
G1 X-17.639 Y-10.964 E4.40768
G1 X-17.611 Y-10.450 E4.42169
G1 X-17.611 Y10.363 E4.98795
G1 F1800.000 E3.98795
G92 E0
G1 X17.032 Y10.458 F7800.000
G1 F1800.000 E1.00000
G1 X17.032 Y-10.458 F540.000 E1.56906
G1 X17.068 Y-11.062 E1.58551
G1 X17.170 Y-11.649 E1.60172
G1 X17.325 Y-12.191 E1.61707
G1 X17.552 Y-12.743 E1.63330
G1 X17.838 Y-13.266 E1.64952
G1 X18.173 Y-13.741 E1.66532
G1 X18.613 Y-14.234 E1.68330
G1 X19.047 Y-14.618 E1.69906
G1 X19.534 Y-14.962 E1.71530
G1 X20.028 Y-15.234 E1.73065
G1 X20.578 Y-15.464 E1.74686
G1 X21.151 Y-15.630 E1.76310
G1 X21.722 Y-15.730 E1.77886
G1 X22.382 Y-15.767 E1.79686
G1 X22.962 Y-15.732 E1.81265
G1 X23.549 Y-15.630 E1.82886
G1 X24.137 Y-15.458 E1.84554
G1 X24.643 Y-15.248 E1.86043
G1 X25.151 Y-14.970 E1.87621
G1 X25.653 Y-14.618 E1.89289
G1 X26.134 Y-14.187 E1.91044
G1 X26.518 Y-13.753 E1.92620
G1 X26.835 Y-13.307 E1.94110
G1 X27.134 Y-12.772 E1.95778
G1 X27.380 Y-12.175 E1.97533
G1 X27.530 Y-11.649 E1.99023
G1 X27.630 Y-11.078 E2.00600
G1 X27.668 Y-10.458 E2.02289
G1 X27.668 Y10.458 E2.59195
G1 X27.632 Y11.062 E2.60840
G1 X27.530 Y11.649 E2.62462
G1 X27.375 Y12.191 E2.63996
G1 X27.155 Y12.728 E2.65575
G1 X26.835 Y13.307 E2.67375
G1 X26.498 Y13.779 E2.68952
G1 X26.099 Y14.222 E2.70575
G1 X25.679 Y14.598 E2.72108
G1 X25.207 Y14.935 E2.73686
G1 X24.628 Y15.255 E2.75485
G1 X24.091 Y15.475 E2.77064
G1 X23.549 Y15.630 E2.78599
G1 X22.913 Y15.738 E2.80353
G1 X22.334 Y15.768 E2.81931
G1 X21.771 Y15.736 E2.83465
G1 X21.182 Y15.638 E2.85088
G1 X20.625 Y15.480 E2.86666
G1 X20.028 Y15.234 E2.88420
G1 X19.534 Y14.962 E2.89955
G1 X19.059 Y14.627 E2.91535
G1 X18.566 Y14.187 E2.93333
G1 X18.182 Y13.753 E2.94909
G1 X17.865 Y13.307 E2.96399
G1 X17.545 Y12.728 E2.98198
G1 X17.325 Y12.191 E2.99777
