; generated by Slic3r 0.9.10b on 2013-12-01 at 18:24:44

; layer_height = 0.3
; perimeters = 2
; top_solid_layers = 3
; bottom_solid_layers = 3
; fill_density = 0.4
; perimeter_speed = 30
; infill_speed = 60
; travel_speed = 130
; nozzle_diameter = 0.5
; filament_diameter = 2.85
; extrusion_multiplier = 1
; perimeters extrusion width = 0.70mm
; infill extrusion width = 0.70mm
; solid infill extrusion width = 0.70mm
; top infill extrusion width = 0.70mm
; first layer extrusion width = 0.60mm

G21 ; set units to millimeters
M107
M104 S0
M83
M140 S70
G28
G1Y98F9000
M190 S70
G1X5Y98Z150F9000
M104 S210
G1X5Y98Z1F9000
G1Z0.05
M109 S210
G1Z5
G1X15
;G1E5F50
G90 ; use absolute coordinates
G92 E0
M82 ; use absolute distances for extrusion
G1 F1800.000 E-1.00000
G92 E0
G1 Z0.300 F7800.000
G1 X33.775 Y4.030
G1 F1800.000 E1.00000
G1 X18.985 Y51.460 F540.000 E2.35169
G1 X18.435 Y52.730 E2.38935
G1 X17.625 Y53.860 E2.42717
G1 X16.605 Y54.800 E2.46491
G1 X15.405 Y55.500 E2.50271
G1 X14.085 Y55.930 E2.54048
G1 X12.705 Y56.080 E2.57824
G1 X-27.495 Y56.080 E3.67195
G1 X-28.775 Y55.950 E3.70695
G1 X-30.015 Y55.580 E3.74216
G1 X-31.145 Y54.970 E3.77710
G1 X-32.145 Y54.150 E3.81228
G1 X-32.965 Y53.150 E3.84747
G1 X-33.575 Y52.020 E3.88240
G1 X-33.945 Y50.780 E3.91761
G1 X-34.075 Y49.500 E3.95261
G1 X-34.075 Y45.300 E4.06688
G1 X-33.945 Y44.010 E4.10215
G1 X-33.565 Y42.770 E4.13744
G1 X2.435 Y-43.760 E6.68725
G1 X3.035 Y-44.890 E6.72205
G1 X3.855 Y-45.890 E6.75724
G1 X4.855 Y-46.700 E6.79225
G1 X5.995 Y-47.310 E6.82743
G1 X7.225 Y-47.680 E6.86237
G1 X8.505 Y-47.810 E6.89738
G1 X17.505 Y-47.810 E7.14224
G1 X18.955 Y-47.650 E7.18192
G1 X20.335 Y-47.170 E7.22168
G1 X21.575 Y-46.400 E7.26139
G1 X22.615 Y-45.380 E7.30102
G1 X23.395 Y-44.150 E7.34065
G1 X33.385 Y-24.000 E7.95254
G1 X33.905 Y-22.580 E7.99368
G1 X34.075 Y-21.080 E8.03475
G1 X34.075 Y2.070 E8.66458
G1 X33.995 Y3.060 E8.69161
G1 X33.794 Y3.945 E8.71631
G1 F1800.000 E7.71631
G92 E0
G1 X28.363 Y2.307 F7800.000
G1 F1800.000 E1.00000
G1 X28.275 Y2.520 F540.000 E1.00626
G1 X27.943 Y2.852 E1.01904
G1 X27.730 Y2.940 E1.02531
G1 X18.373 Y2.940 E1.27988
G1 X18.373 Y22.456 E1.81084
G1 X18.285 Y22.668 E1.81710
G1 X17.953 Y23.001 E1.82988
G1 X17.740 Y23.089 E1.83614
G1 X13.573 Y23.089 E1.94952
G1 X13.573 Y49.735 E2.67447
G1 X13.485 Y49.948 E2.68073
G1 X13.153 Y50.280 E2.69351
G1 X12.940 Y50.368 E2.69978
G1 X-27.730 Y50.368 E3.80626
G1 X-27.943 Y50.280 E3.81253
G1 X-28.275 Y49.948 E3.82531
G1 X-28.363 Y49.735 E3.83157
G1 X-28.363 Y45.065 E3.95862
G1 X-28.275 Y44.852 E3.96488
G1 X-27.943 Y44.520 E3.97766
G1 X-27.730 Y44.432 E3.98392
G1 X-21.627 Y44.432 E4.14996
G1 X7.637 Y32.726 E5.00748
G1 X7.637 Y-41.456 E7.02572
G1 X7.725 Y-41.668 E7.03199
G1 X8.057 Y-42.001 E7.04477
G1 X8.270 Y-42.089 E7.05103
G1 X17.740 Y-42.089 E7.30867
G1 X17.953 Y-42.001 E7.31493
G1 X18.285 Y-41.668 E7.32771
G1 X18.373 Y-41.456 E7.33398
G1 X18.373 Y-21.940 E7.86493
G1 X27.730 Y-21.940 E8.11951
G1 X27.943 Y-21.852 E8.12577
G1 X28.275 Y-21.520 E8.13855
G1 X28.363 Y-21.307 E8.14481
G1 X28.363 Y2.220 E8.78492
G1 X27.784 Y2.023 F7800.000
G1 X27.445 Y2.361 F540.000 E8.79795
G1 X17.794 Y2.361 E9.06053
G1 X17.794 Y22.171 E9.59949
G1 X17.455 Y22.510 E9.61253
G1 X12.994 Y22.510 E9.73390
G1 X12.994 Y49.450 E10.46685
G1 X12.655 Y49.789 E10.47989
G1 X-27.445 Y49.789 E11.57090
G1 X-27.784 Y49.450 E11.58394
G1 X-27.784 Y45.350 E11.69550
G1 X-27.445 Y45.011 E11.70854
G1 X-21.516 Y45.011 E11.86987
G1 X8.216 Y33.118 E12.74107
G1 X8.216 Y-41.171 E14.76224
G1 X8.555 Y-41.510 E14.77528
G1 X17.455 Y-41.510 E15.01744
G1 X17.794 Y-41.171 E15.03048
G1 X17.794 Y-21.361 E15.56943
G1 X27.445 Y-21.361 E15.83201
G1 X27.784 Y-21.023 E15.84505
G1 X27.784 Y1.936 E16.46966
G1 X27.206 Y1.783 F7800.000
G1 X17.216 Y1.783 F540.000 E16.74146
G1 X17.216 Y21.932 E17.28964
G1 X12.416 Y21.932 E17.42023
G1 X12.416 Y49.211 E18.16240
G1 X-27.206 Y49.211 E19.24037
G1 X-27.206 Y45.589 E19.33890
G1 X-21.404 Y45.589 E19.49673
G1 X8.794 Y33.510 E20.38163
G1 X8.794 Y-40.932 E22.40693
G1 X17.216 Y-40.932 E22.63605
G1 X17.216 Y-20.783 E23.18422
G1 X27.206 Y-20.783 E23.45602
G1 X27.206 Y1.696 E24.06760
G1 X26.705 Y1.494 F7800.000
G1 F1800.000 E23.06760
G92 E0
G1 X-26.627 Y48.632 F7800.000
G1 F1800.000 E1.00000
G1 X-26.627 Y46.168 F540.000 E1.06705
G1 X-21.293 Y46.168 E1.21218
G1 X9.373 Y33.902 E2.11076
G1 X9.373 Y-40.353 E4.13097
G1 X16.637 Y-40.353 E4.32861
G1 X16.637 Y-20.204 E4.87679
G1 X26.627 Y-20.204 E5.14858
G1 X26.627 Y1.204 E5.73104
G1 X16.637 Y1.204 E6.00284
G1 X16.637 Y21.353 E6.55102
G1 X11.837 Y21.353 E6.68161
G1 X11.837 Y48.632 E7.42378
G1 X-26.540 Y48.632 E8.46791
G1 F1800.000 E7.46791
G92 E0
G1 X15.516 Y-3.211 F7800.000
G1 F1800.000 E1.00000
G1 X15.516 Y-15.789 F540.000 E1.34222
G1 X18.784 Y-15.789 E1.43115
G1 X18.784 Y-3.211 E1.77337
G1 X15.603 Y-3.211 E1.85993
G1 X15.805 Y-3.712 F7800.000
G1 X14.937 Y-2.632
G1 X14.937 Y-16.368 F540.000 E2.23363
G1 X19.363 Y-16.368 E2.35404
G1 X19.363 Y-2.632 E2.72774
G1 X15.024 Y-2.632 E2.84578
G1 F1800.000 E1.84578
G92 E0
G1 X20.890 Y-8.406 F7800.000
G1 F1800.000 E1.00000
G1 X20.639 Y-8.927 F540.000 E1.01575
G1 X20.552 Y-9.500 E1.03151
G1 X20.631 Y-10.020 E1.04582
G1 X20.639 Y-10.073 E1.04726
G1 X20.890 Y-10.594 E1.06301
G1 X21.284 Y-11.019 E1.07877
G1 X21.785 Y-11.308 E1.09452
G1 X22.350 Y-11.437 E1.11028
G1 X22.927 Y-11.394 E1.12603
G1 X23.466 Y-11.182 E1.14178
G1 X23.919 Y-10.821 E1.15753
G1 X24.245 Y-10.343 E1.17329
G1 X24.416 Y-9.790 E1.18904
G1 X24.416 Y-9.210 E1.20480
G1 X24.245 Y-8.657 E1.22055
G1 X23.919 Y-8.179 E1.23631
G1 X23.466 Y-7.818 E1.25206
G1 X22.927 Y-7.606 E1.26781
G1 X22.350 Y-7.563 E1.28357
G1 X21.785 Y-7.692 E1.29932
G1 X21.284 Y-7.981 E1.31508
G1 X20.949 Y-8.342 E1.32847
G1 X21.167 Y-8.914 F7800.000
G1 X20.346 Y-8.203
G1 X20.080 Y-8.755 F540.000 E1.34514
G1 X19.967 Y-9.500 E1.36565
G1 X20.080 Y-10.245 E1.38615
G1 X20.407 Y-10.924 E1.40664
G1 X20.919 Y-11.476 E1.42714
G1 X21.571 Y-11.853 E1.44764
G1 X22.306 Y-12.021 E1.46814
G1 X23.057 Y-11.964 E1.48864
G1 X23.759 Y-11.689 E1.50914
G1 X24.348 Y-11.219 E1.52963
G1 X24.772 Y-10.597 E1.55014
G1 X24.994 Y-9.877 E1.57063
G1 X24.994 Y-9.123 E1.59113
G1 X24.772 Y-8.403 E1.61163
G1 X24.693 Y-8.287 E1.61544
G1 X24.348 Y-7.781 E1.63214
G1 X23.759 Y-7.311 E1.65262
G1 X23.057 Y-7.036 E1.67312
G1 X22.306 Y-6.979 E1.69362
G1 X21.571 Y-7.147 E1.71413
G1 X20.919 Y-7.524 E1.73462
G1 X20.407 Y-8.076 E1.75512
G1 X20.383 Y-8.124 E1.75658
G1 X19.952 Y-11.050 F7800.000
G1 X19.782 Y-11.220 F1080.000 E1.76311
G1 X19.782 Y-12.038 E1.78540
G1 X20.346 Y-11.475 E1.80710
G1 X20.767 Y-11.872 E1.82286
G1 X19.782 Y-12.857 E1.86077
G1 X19.782 Y-13.676 E1.88306
G1 X21.286 Y-12.172 E1.94096
G1 X21.915 Y-12.361 E1.95885
G1 X19.782 Y-14.495 E2.04097
G1 X19.782 Y-15.313 E2.06326
G1 X22.683 Y-12.413 E2.17493
G1 X23.785 Y-12.129 E2.20592
G1 X19.782 Y-16.132 E2.36003
G1 F1800.000 E1.36003
G92 E0
G1 X14.518 Y-11.572 F7800.000
G1 F1800.000 E1.00000
G1 X9.792 Y-16.297 F1080.000 E1.18194
G1 X9.792 Y-17.116 E1.20423
G1 X14.518 Y-12.390 E1.38618
G1 X14.518 Y-13.209 E1.40847
G1 X9.792 Y-17.935 E1.59041
G1 X9.792 Y-18.754 E1.61270
G1 X14.518 Y-14.028 E1.79464
G1 X14.518 Y-14.847 E1.81693
G1 X9.792 Y-19.572 E1.99887
G1 X9.792 Y-20.391 E2.02116
G1 X14.518 Y-15.665 E2.20311
G1 X14.518 Y-16.484 E2.22540
G1 X9.792 Y-21.210 E2.40734
G1 X9.792 Y-22.028 E2.42963
G1 X15.033 Y-16.787 E2.63142
G1 X15.852 Y-16.787 E2.65371
G1 X9.792 Y-22.847 E2.88702
G1 X9.792 Y-23.666 E2.90931
G1 X16.671 Y-16.787 E3.17415
G1 X17.490 Y-16.787 E3.19643
G1 X9.792 Y-24.485 E3.49279
G1 X9.792 Y-25.303 E3.51508
G1 X18.308 Y-16.787 E3.84295
G1 X19.127 Y-16.787 E3.86524
G1 X9.792 Y-26.122 E4.22464
G1 X9.792 Y-26.941 E4.24693
G1 X16.218 Y-20.515 E4.49432
G1 X16.218 Y-21.334 E4.51661
G1 X9.792 Y-27.759 E4.76400
G1 X9.792 Y-28.578 E4.78629
G1 X16.218 Y-22.152 E5.03369
G1 X16.218 Y-22.971 E5.05598
G1 X9.792 Y-29.397 E5.30337
G1 X9.792 Y-30.215 E5.32566
G1 X16.218 Y-23.790 E5.57305
G1 X16.218 Y-24.608 E5.59534
G1 X9.792 Y-31.034 E5.84274
G1 X9.792 Y-31.853 E5.86503
G1 X16.218 Y-25.427 E6.11242
G1 X16.218 Y-26.246 E6.13471
G1 X9.792 Y-32.672 E6.38211
G1 X9.792 Y-33.490 E6.40439
G1 X16.218 Y-27.065 E6.65179
G1 X16.218 Y-27.883 E6.67408
G1 X9.792 Y-34.309 E6.92147
G1 X9.792 Y-35.128 E6.94376
G1 X16.218 Y-28.702 E7.19116
G1 X16.218 Y-29.521 E7.21345
G1 X9.792 Y-35.946 E7.46084
G1 X9.792 Y-36.765 E7.48313
G1 X16.218 Y-30.339 E7.73052
G1 X16.218 Y-31.158 E7.75281
G1 X9.792 Y-37.584 E8.00021
G1 X9.792 Y-38.402 E8.02250
G1 X16.218 Y-31.977 E8.26989
G1 X16.218 Y-32.795 E8.29218
G1 X9.792 Y-39.221 E8.53958
G1 X9.898 Y-39.934 E8.55919
G1 X16.218 Y-33.614 E8.80249
G1 X16.218 Y-34.433 E8.82478
G1 X10.717 Y-39.934 E9.03657
G1 X11.536 Y-39.934 E9.05886
G1 X16.218 Y-35.252 E9.23912
G1 X16.218 Y-36.070 E9.26141
G1 X12.354 Y-39.934 E9.41016
G1 X13.173 Y-39.934 E9.43245
G1 X16.218 Y-36.889 E9.54967
G1 X16.218 Y-37.708 E9.57196
G1 X13.992 Y-39.934 E9.65766
G1 X14.811 Y-39.934 E9.67995
G1 X16.218 Y-38.526 E9.73414
G1 X16.218 Y-39.345 E9.75643
G1 X15.629 Y-39.934 E9.77909
G1 F1800.000 E8.77909
G92 E0
G1 X26.208 Y-19.531 F7800.000
G1 F1800.000 E1.00000
G1 X25.953 Y-19.785 F1080.000 E1.00980
G1 X25.135 Y-19.785 E1.03208
G1 X26.208 Y-18.712 E1.07340
G1 X26.208 Y-17.893 E1.09569
G1 X24.316 Y-19.785 E1.16852
G1 X23.497 Y-19.785 E1.19081
G1 X26.208 Y-17.075 E1.29517
G1 X26.208 Y-16.256 E1.31746
G1 X22.679 Y-19.785 E1.45334
G1 X21.860 Y-19.785 E1.47562
G1 X26.208 Y-15.437 E1.64302
G1 X26.208 Y-14.618 E1.66531
G1 X21.041 Y-19.785 E1.86423
G1 X20.223 Y-19.785 E1.88652
G1 X26.208 Y-13.800 E2.11696
G1 X26.208 Y-12.981 E2.13925
G1 X19.404 Y-19.785 E2.40121
G1 X18.585 Y-19.785 E2.42349
G1 X26.208 Y-12.162 E2.71697
G1 X26.208 Y-11.344 E2.73926
G1 X17.766 Y-19.785 E3.06426
G1 X16.948 Y-19.785 E3.08655
G1 X26.208 Y-10.525 E3.44307
G1 X25.164 Y-10.750 E3.47216
G1 X26.208 Y-9.706 E3.51236
G1 X26.208 Y-8.887 E3.53464
G1 X25.529 Y-9.566 E3.56078
G1 X25.367 Y-8.909 E3.57920
G1 X26.208 Y-8.069 E3.61157
G1 X26.208 Y-7.250 E3.63385
G1 X25.174 Y-8.284 E3.67365
G1 X24.857 Y-7.783 E3.68980
G1 X26.208 Y-6.431 E3.74183
G1 X26.208 Y-5.613 E3.76411
G1 X24.475 Y-7.346 E3.83084
G1 X24.019 Y-6.982 E3.84670
G1 X26.208 Y-4.794 E3.93096
G1 X26.208 Y-3.975 E3.95324
G1 X23.446 Y-6.738 E4.05960
G1 X22.771 Y-6.594 E4.07838
G1 X26.208 Y-3.157 E4.21072
G1 X26.208 Y-2.338 E4.23300
G1 X21.905 Y-6.641 E4.39868
G1 X19.782 Y-7.945 E4.46650
G1 X26.208 Y-1.519 E4.71389
G1 X26.208 Y-0.700 E4.73618
G1 X19.782 Y-7.126 E4.98357
G1 X19.782 Y-6.307 E5.00586
G1 X26.208 Y0.118 E5.25326
G1 X26.056 Y0.785 E5.27188
G1 X19.782 Y-5.489 E5.51342
G1 X19.782 Y-4.670 E5.53571
G1 X25.237 Y0.785 E5.74574
G1 X24.419 Y0.785 E5.76803
G1 X19.782 Y-3.851 E5.94653
G1 X19.782 Y-3.033 E5.96882
G1 X23.600 Y0.785 E6.11580
G1 X22.781 Y0.785 E6.13809
G1 X19.782 Y-2.214 E6.25356
G1 X18.965 Y-2.213 E6.27582
G1 X21.962 Y0.785 E6.39124
G1 X21.144 Y0.785 E6.41353
G1 X18.146 Y-2.213 E6.52895
G1 X17.327 Y-2.213 E6.55124
G1 X20.325 Y0.785 E6.66666
G1 X19.506 Y0.785 E6.68895
G1 X16.508 Y-2.213 E6.80437
G1 X15.690 Y-2.213 E6.82666
G1 X18.688 Y0.785 E6.94208
G1 X17.869 Y0.785 E6.96437
G1 X14.871 Y-2.213 E7.07979
G1 X14.518 Y-2.566 F7800.000
G1 X9.792 Y-7.292 F1080.000 E7.26173
G1 X9.792 Y-6.473 E7.28402
G1 X17.050 Y0.785 E7.56346
G1 X16.232 Y0.785 E7.58575
G1 X9.792 Y-5.654 E7.83367
G1 X9.792 Y-4.836 E7.85596
G1 X16.218 Y1.590 E8.10335
G1 X16.218 Y2.409 E8.12564
G1 X9.792 Y-4.017 E8.37304
G1 X9.792 Y-3.198 E8.39533
G1 X16.218 Y3.227 E8.64272
G1 X16.218 Y4.046 E8.66501
G1 X9.792 Y-2.380 E8.91240
G1 X9.792 Y-1.561 E8.93469
G1 X16.218 Y4.865 E9.18209
G1 X16.218 Y5.684 E9.20438
G1 X9.792 Y-0.742 E9.45177
G1 X9.792 Y0.077 E9.47406
G1 X16.218 Y6.502 E9.72146
G1 X16.218 Y7.321 E9.74374
G1 X9.792 Y0.895 E9.99114
G1 X9.792 Y1.714 E10.01343
G1 X16.218 Y8.140 E10.26082
G1 X16.218 Y8.958 E10.28311
G1 X9.792 Y2.533 E10.53051
G1 X9.792 Y3.351 E10.55280
G1 X16.218 Y9.777 E10.80019
G1 X16.218 Y10.596 E10.82248
G1 X9.792 Y4.170 E11.06987
G1 X9.792 Y4.989 E11.09216
G1 X16.218 Y11.415 E11.33956
G1 X16.218 Y12.233 E11.36185
G1 X9.792 Y5.807 E11.60924
G1 X9.792 Y6.626 E11.63153
G1 X16.218 Y13.052 E11.87893
G1 X16.218 Y13.871 E11.90121
G1 X9.792 Y7.445 E12.14861
G1 X9.792 Y8.264 E12.17090
G1 X16.218 Y14.689 E12.41829
G1 X16.218 Y15.508 E12.44058
G1 X9.792 Y9.082 E12.68798
G1 X9.792 Y9.901 E12.71026
G1 X16.218 Y16.327 E12.95766
G1 X16.218 Y17.145 E12.97995
G1 X9.792 Y10.720 E13.22734
G1 X9.792 Y11.538 E13.24963
G1 X16.218 Y17.964 E13.49703
G1 X16.218 Y18.783 E13.51932
G1 X9.792 Y12.357 E13.76671
G1 X9.792 Y13.176 E13.78900
G1 X16.218 Y19.602 E14.03639
G1 X16.218 Y20.420 E14.05868
G1 X9.792 Y13.995 E14.30608
G1 X9.792 Y14.813 E14.32837
G1 X15.913 Y20.934 E14.56401
G1 X15.094 Y20.934 E14.58630
G1 X9.792 Y15.632 E14.79042
G1 X9.792 Y16.451 E14.81271
G1 X14.275 Y20.934 E14.98531
G1 X13.456 Y20.934 E15.00760
G1 X9.792 Y17.269 E15.14868
G1 X9.792 Y18.088 E15.17097
G1 X12.638 Y20.934 E15.28053
G1 X11.819 Y20.934 E15.30282
G1 X9.792 Y18.907 E15.38085
G1 X9.792 Y19.725 E15.40314
G1 X11.418 Y21.351 E15.46574
G1 X11.418 Y22.170 E15.48802
G1 X9.792 Y20.544 E15.55062
G1 X9.792 Y21.363 E15.57290
G1 X11.418 Y22.989 E15.63550
G1 X11.418 Y23.807 E15.65778
G1 X9.792 Y22.182 E15.72038
G1 X9.792 Y23.000 E15.74267
G1 X11.418 Y24.626 E15.80526
G1 X11.418 Y25.445 E15.82755
G1 X9.792 Y23.819 E15.89014
G1 X9.792 Y24.638 E15.91243
G1 X11.418 Y26.263 E15.97502
G1 X11.418 Y27.082 E15.99731
G1 X9.792 Y25.456 E16.05990
G1 X9.792 Y26.275 E16.08219
G1 X11.418 Y27.901 E16.14478
G1 X11.418 Y28.720 E16.16707
G1 X9.792 Y27.094 E16.22966
G1 X9.792 Y27.912 E16.25195
G1 X11.418 Y29.538 E16.31454
G1 X11.418 Y30.357 E16.33683
G1 X9.792 Y28.731 E16.39942
G1 X9.792 Y29.550 E16.42171
G1 X11.418 Y31.176 E16.48430
G1 X11.418 Y31.994 E16.50659
G1 X9.792 Y30.369 E16.56918
G1 X9.792 Y31.187 E16.59147
G1 X11.418 Y32.813 E16.65406
G1 X11.418 Y33.632 E16.67635
G1 X9.792 Y32.006 E16.73894
G1 X9.792 Y32.825 E16.76123
G1 X11.418 Y34.450 E16.82382
G1 X11.418 Y35.269 E16.84611
G1 X9.792 Y33.643 E16.90870
G1 X9.595 Y34.264 E16.92645
G1 X11.418 Y36.088 E16.99665
G1 X11.418 Y36.907 E17.01894
G1 X9.010 Y34.498 E17.11165
G1 X8.425 Y34.732 E17.12880
G1 X11.418 Y37.725 E17.24403
G1 X11.418 Y38.544 E17.26632
G1 X7.840 Y34.966 E17.40406
G1 X7.255 Y35.200 E17.42121
G1 X11.418 Y39.363 E17.58147
G1 X11.418 Y40.181 E17.60376
G1 X6.671 Y35.434 E17.78653
G1 X6.086 Y35.668 E17.80368
G1 X11.418 Y41.000 E18.00897
G1 X11.418 Y41.819 E18.03126
G1 X5.501 Y35.902 E18.25906
G1 X4.916 Y36.136 E18.27621
G1 X11.418 Y42.637 E18.52653
G1 X11.418 Y43.456 E18.54881
G1 X4.331 Y36.370 E18.82165
G1 X3.747 Y36.604 E18.83879
G1 X11.418 Y44.275 E19.13414
G1 X11.418 Y45.094 E19.15643
G1 X3.162 Y36.838 E19.47429
G1 X2.577 Y37.071 E19.49144
G1 X11.418 Y45.912 E19.83182
G1 X11.418 Y46.731 E19.85411
G1 X1.992 Y37.305 E20.21700
G1 X1.407 Y37.539 E20.23414
G1 X11.418 Y47.550 E20.61955
G1 X11.262 Y48.213 E20.63810
G1 X0.823 Y37.773 E21.04003
G1 X0.238 Y38.007 E21.05718
G1 X10.444 Y48.213 E21.45010
G1 X9.625 Y48.213 E21.47239
G1 X-0.347 Y38.241 E21.85631
G1 X-0.932 Y38.475 E21.87346
G1 X8.806 Y48.213 E22.24838
G1 X7.988 Y48.213 E22.27067
G1 X-1.516 Y38.709 E22.63658
G1 X-2.101 Y38.943 E22.65372
G1 X7.169 Y48.213 E23.01063
G1 X6.350 Y48.213 E23.03292
G1 X-2.686 Y39.177 E23.38081
G1 X-3.271 Y39.411 E23.39796
G1 X5.531 Y48.213 E23.73685
G1 X4.713 Y48.213 E23.75914
G1 X-3.856 Y39.645 E24.08903
G1 X-4.440 Y39.878 E24.10618
G1 X3.894 Y48.213 E24.42706
G1 X3.075 Y48.213 E24.44935
G1 X-5.025 Y40.112 E24.76122
G1 X-5.610 Y40.346 E24.77837
G1 X2.257 Y48.213 E25.08124
G1 X1.438 Y48.213 E25.10352
G1 X-6.195 Y40.580 E25.39739
G1 X-6.780 Y40.814 E25.41453
G1 X0.619 Y48.213 E25.69939
G1 X-0.200 Y48.213 E25.72168
G1 X-7.364 Y41.048 E25.99753
G1 X-7.949 Y41.282 E26.01468
G1 X-1.018 Y48.213 E26.28152
G1 X-1.837 Y48.213 E26.30381
G1 X-8.534 Y41.516 E26.56165
G1 X-9.119 Y41.750 E26.57880
G1 X-2.656 Y48.213 E26.82763
G1 X-3.474 Y48.213 E26.84992
G1 X-9.704 Y41.984 E27.08975
G1 X-10.288 Y42.218 E27.10690
G1 X-4.293 Y48.213 E27.33772
G1 X-5.112 Y48.213 E27.36001
