; generated by Slic3r 0.9.10b on 2013-12-18 at 19:01:15

; layer_height = 0.3
; perimeters = 2
; top_solid_layers = 3
; bottom_solid_layers = 3
; fill_density = 0.4
; perimeter_speed = 30
; infill_speed = 60
; travel_speed = 130
; nozzle_diameter = 0.5
; filament_diameter = 2.85
; extrusion_multiplier = 1
; perimeters extrusion width = 0.70mm
; infill extrusion width = 0.70mm
; solid infill extrusion width = 0.70mm
; top infill extrusion width = 0.70mm
; first layer extrusion width = 0.60mm

G21 ; set units to millimeters
M107
M104 S0
M83
M140 S70
G28
G1Y98F9000
M190 S70
G1X5Y98Z150F9000
M104 S210
G1X5Y98Z1F9000
G1Z0.05
M109 S210
G1Z5
G1X15
;G1E5F50
G90 ; use absolute coordinates
G92 E0
M82 ; use absolute distances for extrusion
G1 F1800.000 E-1.00000
G92 E0
G1 Z0.300 F7800.000
G1 X21.080 Y31.660
G1 F1800.000 E1.00000
G1 X21.050 Y32.320 F540.000 E1.01797
G1 X20.950 Y32.980 E1.03614
G1 X20.560 Y34.890 E1.08917
G1 X20.190 Y36.090 E1.12334
G1 X19.590 Y37.200 E1.15767
G1 X18.510 Y38.830 E1.21086
G1 X17.690 Y39.850 E1.24647
G1 X16.680 Y40.670 E1.28187
G1 X15.060 Y41.750 E1.33484
G1 X13.920 Y42.360 E1.37001
G1 X12.690 Y42.730 E1.40496
G1 X10.770 Y43.110 E1.45821
G1 X10.130 Y43.210 E1.47583
G1 X9.490 Y43.240 E1.49326
G1 X-9.510 Y43.240 E2.01019
G1 X-10.150 Y43.210 E2.02762
G1 X-10.790 Y43.110 E2.04524
G1 X-12.700 Y42.730 E2.09823
G1 X-13.930 Y42.360 E2.13317
G1 X-15.070 Y41.750 E2.16835
G1 X-16.690 Y40.670 E2.22132
G1 X-17.700 Y39.850 E2.25672
G1 X-18.520 Y38.830 E2.29232
G1 X-19.600 Y37.200 E2.34552
G1 X-20.190 Y36.110 E2.37924
G1 X-20.560 Y34.930 E2.41289
G1 X-20.940 Y33.130 E2.46294
G1 X-21.040 Y32.450 E2.48164
G1 X-21.080 Y31.770 E2.50017
G1 X-21.080 Y-31.780 E4.22915
G1 X-21.040 Y-32.460 E4.24768
G1 X-20.940 Y-33.140 E4.26638
G1 X-20.560 Y-34.940 E4.31643
G1 X-20.190 Y-36.120 E4.35008
G1 X-19.600 Y-37.210 E4.38380
G1 X-18.520 Y-38.840 E4.43700
G1 X-17.700 Y-39.860 E4.47261
G1 X-16.690 Y-40.680 E4.50800
G1 X-15.070 Y-41.760 E4.56097
G1 X-13.930 Y-42.370 E4.59615
G1 X-12.700 Y-42.740 E4.63109
G1 X-10.790 Y-43.120 E4.68408
G1 X-10.150 Y-43.220 E4.70170
G1 X-9.510 Y-43.250 E4.71913
G1 X9.490 Y-43.250 E5.23606
G1 X10.130 Y-43.220 E5.25349
G1 X10.770 Y-43.120 E5.27111
G1 X12.690 Y-42.740 E5.32436
G1 X13.920 Y-42.370 E5.35931
G1 X15.060 Y-41.760 E5.39448
G1 X16.680 Y-40.680 E5.44746
G1 X17.690 Y-39.860 E5.48285
G1 X18.510 Y-38.840 E5.51846
G1 X19.590 Y-37.210 E5.57165
G1 X20.190 Y-36.100 E5.60598
G1 X20.560 Y-34.900 E5.64015
G1 X20.950 Y-32.990 E5.69319
G1 X21.050 Y-32.330 E5.71135
G1 X21.080 Y-31.670 E5.72932
G1 X21.080 Y31.573 E7.44996
G1 F1800.000 E6.44996
G92 E0
G1 X15.368 Y31.695 F7800.000
G1 F1800.000 E1.00000
G1 X14.943 Y33.859 F540.000 E1.06000
G1 X14.872 Y34.014 E1.06463
G1 X13.690 Y35.776 E1.12236
G1 X13.565 Y35.893 E1.12701
G1 X11.797 Y37.066 E1.18473
G1 X11.638 Y37.126 E1.18936
G1 X9.557 Y37.533 E1.24706
G1 X-9.642 Y37.523 E1.76938
G1 X-11.638 Y37.126 E1.82477
G1 X-11.797 Y37.066 E1.82940
G1 X-13.565 Y35.893 E1.88712
G1 X-13.726 Y35.732 E1.89331
G1 X-14.872 Y34.014 E1.94950
G1 X-14.943 Y33.859 E1.95412
G1 X-15.274 Y32.224 E1.99951
G1 X-15.368 Y32.006 E2.00598
G1 X-15.368 Y-32.006 E3.74751
G1 X-15.274 Y-32.224 E3.75399
G1 X-14.959 Y-33.805 E3.79784
G1 X-14.899 Y-33.964 E3.80247
G1 X-13.726 Y-35.732 E3.86018
G1 X-13.565 Y-35.893 E3.86638
G1 X-11.847 Y-37.039 E3.92256
G1 X-11.692 Y-37.109 E3.92719
G1 X-9.528 Y-37.535 E3.98719
G1 X9.613 Y-37.528 E4.50798
G1 X11.692 Y-37.109 E4.56567
G1 X11.847 Y-37.039 E4.57030
G1 X13.565 Y-35.893 E4.62649
G1 X13.726 Y-35.732 E4.63268
G1 X14.872 Y-34.014 E4.68886
G1 X14.943 Y-33.859 E4.69349
G1 X15.368 Y-31.695 E4.75349
G1 X15.366 Y-21.610 E5.02788
G1 X14.959 Y-19.529 E5.08558
G1 X14.899 Y-19.369 E5.09021
G1 X13.726 Y-17.602 E5.14793
G1 X13.609 Y-17.477 E5.15258
G1 X11.847 Y-16.294 E5.21031
G1 X11.692 Y-16.224 E5.21494
G1 X9.557 Y-15.800 E5.27417
G1 X-4.632 Y-15.799 E5.66021
G1 X-4.632 Y-5.765 E5.93319
G1 X-4.720 Y-5.552 E5.93946
G1 X-5.052 Y-5.220 E5.95224
G1 X-5.265 Y-5.132 E5.95850
G1 X-5.741 Y-5.132 E5.97145
G1 X-5.741 Y5.132 E6.25071
G1 X-5.265 Y5.132 E6.26366
G1 X-5.052 Y5.220 E6.26993
G1 X-4.720 Y5.552 E6.28271
G1 X-4.632 Y5.765 E6.28897
G1 X-4.632 Y15.799 E6.56195
G1 X9.557 Y15.800 E6.94799
G1 X11.638 Y16.208 E7.00569
G1 X11.797 Y16.268 E7.01032
G1 X13.565 Y17.441 E7.06804
G1 X13.726 Y17.602 E7.07423
G1 X14.872 Y19.319 E7.13042
G1 X14.943 Y19.474 E7.13504
G1 X15.361 Y21.553 E7.19274
G1 X15.368 Y31.608 E7.46631
G1 X14.789 Y31.667 F7800.000
G1 X14.403 Y33.636 F540.000 E7.52090
G1 X14.359 Y33.741 E7.52399
G1 X13.277 Y35.363 E7.57705
G1 X13.196 Y35.444 E7.58016
G1 X11.574 Y36.526 E7.63321
G1 X11.469 Y36.570 E7.63631
G1 X9.500 Y36.956 E7.69090
G1 X-9.557 Y36.950 E8.20936
G1 X-11.469 Y36.570 E8.26241
G1 X-11.574 Y36.526 E8.26551
G1 X-13.196 Y35.444 E8.31856
G1 X-13.277 Y35.363 E8.32167
G1 X-14.359 Y33.741 E8.37473
G1 X-14.403 Y33.636 E8.37782
G1 X-14.789 Y31.667 E8.43241
G1 X-14.789 Y-31.667 E10.15550
G1 X-14.403 Y-33.636 E10.21009
G1 X-14.359 Y-33.741 E10.21318
G1 X-13.277 Y-35.363 E10.26624
G1 X-13.196 Y-35.444 E10.26935
G1 X-11.574 Y-36.526 E10.32240
G1 X-11.469 Y-36.570 E10.32550
G1 X-9.500 Y-36.956 E10.38009
G1 X9.557 Y-36.950 E10.89855
G1 X11.469 Y-36.570 E10.95160
G1 X11.574 Y-36.526 E10.95470
G1 X13.196 Y-35.444 E11.00775
G1 X13.277 Y-35.363 E11.01086
G1 X14.359 Y-33.741 E11.06391
G1 X14.403 Y-33.636 E11.06701
G1 X14.789 Y-31.667 E11.12160
G1 X14.789 Y-21.667 E11.39366
G1 X14.403 Y-19.698 E11.44826
G1 X14.359 Y-19.593 E11.45135
G1 X13.277 Y-17.971 E11.50440
G1 X13.196 Y-17.890 E11.50751
G1 X11.574 Y-16.807 E11.56057
G1 X11.469 Y-16.764 E11.56366
G1 X9.500 Y-16.377 E11.61826
G1 X-5.211 Y-16.377 E12.01848
G1 X-5.211 Y-6.050 E12.29947
G1 X-5.550 Y-5.711 E12.31251
G1 X-6.320 Y-5.711 E12.33346
G1 X-6.320 Y5.711 E12.64420
G1 X-5.550 Y5.711 E12.66515
G1 X-5.211 Y6.050 E12.67819
G1 X-5.211 Y16.377 E12.95917
G1 X9.500 Y16.377 E13.35940
G1 X11.469 Y16.764 E13.41399
G1 X11.574 Y16.807 E13.41709
G1 X13.196 Y17.890 E13.47014
G1 X13.277 Y17.971 E13.47325
G1 X14.359 Y19.593 E13.52631
G1 X14.403 Y19.698 E13.52940
G1 X14.784 Y21.610 E13.58245
G1 X14.789 Y31.580 E13.85369
G1 X14.211 Y31.638 F7800.000
G1 X13.847 Y33.467 F540.000 E13.90442
G1 X12.827 Y34.994 E13.95438
G1 X11.300 Y36.013 E14.00433
G1 X9.471 Y36.377 E14.05506
G1 X-9.471 Y36.377 E14.57043
G1 X-11.300 Y36.013 E14.62116
G1 X-12.827 Y34.994 E14.67112
G1 X-13.847 Y33.467 E14.72107
G1 X-14.211 Y31.638 E14.77180
G1 X-14.211 Y-31.638 E16.49333
G1 X-13.847 Y-33.467 E16.54407
G1 X-12.827 Y-34.994 E16.59402
G1 X-11.300 Y-36.013 E16.64397
G1 X-9.471 Y-36.377 E16.69470
G1 X9.471 Y-36.377 E17.21007
G1 X11.300 Y-36.013 E17.26080
G1 X12.827 Y-34.994 E17.31076
G1 X13.847 Y-33.467 E17.36071
G1 X14.211 Y-31.638 E17.41144
G1 X14.211 Y-21.695 E17.68195
G1 X13.847 Y-19.867 E17.73268
G1 X12.827 Y-18.339 E17.78264
G1 X11.300 Y-17.320 E17.83259
G1 X9.471 Y-16.956 E17.88332
G1 X-5.789 Y-16.956 E18.29851
G1 X-5.789 Y-6.289 E18.58872
G1 X-6.898 Y-6.289 E18.61889
G1 X-6.898 Y6.289 E18.96111
G1 X-5.789 Y6.289 E18.99128
G1 X-5.789 Y16.956 E19.28148
G1 X9.471 Y16.956 E19.69668
G1 X11.300 Y17.320 E19.74741
G1 X12.827 Y18.339 E19.79736
G1 X13.847 Y19.867 E19.84731
G1 X14.211 Y21.695 E19.89804
G1 X14.211 Y31.551 E20.16620
G1 X13.676 Y31.859 F7800.000
G1 F1800.000 E19.16620
G92 E0
G1 X9.414 Y-35.799 F7800.000
G1 F1800.000 E1.00000
G1 X11.075 Y-35.468 F540.000 E1.04605
G1 X12.410 Y-34.577 E1.08974
G1 X13.302 Y-33.241 E1.13343
G1 X13.632 Y-31.581 E1.17948
G1 X13.632 Y-21.752 E1.44689
G1 X13.302 Y-20.092 E1.49295
G1 X12.410 Y-18.756 E1.53663
G1 X11.075 Y-17.865 E1.58032
G1 X9.414 Y-17.535 E1.62638
G1 X-6.368 Y-17.535 E2.05576
G1 X-6.368 Y-6.868 E2.34596
G1 X-7.477 Y-6.868 E2.37613
G1 X-7.477 Y6.868 E2.74983
G1 X-6.368 Y6.868 E2.78001
G1 X-6.368 Y17.535 E3.07021
G1 X9.414 Y17.535 E3.49959
G1 X11.075 Y17.865 E3.54565
G1 X12.410 Y18.756 E3.58933
G1 X13.302 Y20.092 E3.63302
G1 X13.632 Y21.752 E3.67908
G1 X13.632 Y31.581 E3.94649
G1 X13.302 Y33.241 E3.99254
G1 X12.410 Y34.577 E4.03623
G1 X11.075 Y35.468 E4.07991
G1 X9.414 Y35.799 E4.12597
G1 X-9.414 Y35.799 E4.63824
G1 X-11.075 Y35.468 E4.68429
G1 X-12.410 Y34.577 E4.72798
G1 X-13.302 Y33.241 E4.77167
G1 X-13.632 Y31.581 E4.81772
G1 X-13.632 Y-31.581 E6.53615
G1 X-13.302 Y-33.241 E6.58221
G1 X-12.410 Y-34.577 E6.62590
G1 X-11.075 Y-35.468 E6.66958
G1 X-9.414 Y-35.799 E6.71564
G1 X9.328 Y-35.799 E7.22555
G1 F1800.000 E6.22555
G92 E0
G1 X4.500 Y24.176 F7800.000
G1 F1800.000 E1.00000
G1 X5.054 Y24.238 F540.000 E1.01518
G1 X5.581 Y24.422 E1.03035
G1 X6.053 Y24.719 E1.04553
G1 X6.448 Y25.114 E1.06071
G1 X6.744 Y25.586 E1.07588
G1 X6.929 Y26.112 E1.09106
G1 X6.991 Y26.667 E1.10624
G1 X6.929 Y27.221 E1.12141
G1 X6.744 Y27.747 E1.13659
G1 X6.448 Y28.220 E1.15177
G1 X6.053 Y28.614 E1.16694
G1 X5.542 Y28.925 E1.18321
G1 X5.054 Y29.095 E1.19727
G1 X4.500 Y29.158 E1.21245
G1 X3.946 Y29.095 E1.22762
G1 X3.419 Y28.911 E1.24280
G1 X2.947 Y28.614 E1.25798
G1 X2.552 Y28.220 E1.27315
G1 X2.256 Y27.747 E1.28833
G1 X2.071 Y27.221 E1.30351
G1 X2.009 Y26.667 E1.31868
G1 X2.071 Y26.112 E1.33386
G1 X2.242 Y25.624 E1.34792
G1 X2.552 Y25.114 E1.36419
G1 X2.947 Y24.719 E1.37936
G1 X3.419 Y24.422 E1.39454
G1 X3.946 Y24.238 E1.40972
G1 X4.414 Y24.185 E1.42253
G1 X4.761 Y24.669 F7800.000
G1 X5.078 Y23.659
G1 X5.184 Y23.670 F540.000 E1.42542
G1 X5.833 Y23.898 E1.44415
G1 X6.416 Y24.264 E1.46287
G1 X6.903 Y24.751 E1.48159
G1 X7.269 Y25.333 E1.50031
G1 X7.496 Y25.983 E1.51904
G1 X7.573 Y26.667 E1.53777
G1 X7.496 Y27.350 E1.55649
G1 X7.269 Y28.000 E1.57521
G1 X7.213 Y28.090 E1.57810
G1 X6.903 Y28.583 E1.59393
G1 X6.416 Y29.069 E1.61266
G1 X5.833 Y29.436 E1.63138
G1 X5.184 Y29.663 E1.65011
G1 X4.500 Y29.740 E1.66883
G1 X3.816 Y29.663 E1.68756
G1 X3.167 Y29.436 E1.70627
G1 X2.584 Y29.069 E1.72500
G1 X2.097 Y28.583 E1.74372
G1 X1.731 Y28.000 E1.76245
G1 X1.504 Y27.351 E1.78117
G1 X1.427 Y26.667 E1.79989
G1 X1.504 Y25.983 E1.81862
G1 X1.731 Y25.333 E1.83734
G1 X2.097 Y24.751 E1.85606
G1 X2.584 Y24.264 E1.87479
G1 X3.167 Y23.898 E1.89352
G1 X3.816 Y23.670 E1.91224
G1 X4.500 Y23.593 E1.93096
G1 X4.992 Y23.649 E1.94443
G1 F1800.000 E0.94443
G92 E0
G1 X4.500 Y-24.176 F7800.000
G1 F1800.000 E1.00000
G1 X3.946 Y-24.238 F540.000 E1.01518
G1 X3.419 Y-24.422 E1.03035
G1 X2.947 Y-24.719 E1.04553
G1 X2.552 Y-25.114 E1.06071
G1 X2.256 Y-25.586 E1.07588
G1 X2.071 Y-26.112 E1.09106
G1 X2.009 Y-26.667 E1.10624
G1 X2.071 Y-27.221 E1.12142
G1 X2.256 Y-27.747 E1.13659
G1 X2.552 Y-28.220 E1.15177
G1 X2.947 Y-28.614 E1.16694
G1 X3.419 Y-28.911 E1.18212
G1 X3.946 Y-29.095 E1.19730
G1 X4.500 Y-29.158 E1.21247
G1 X5.054 Y-29.095 E1.22765
G1 X5.581 Y-28.911 E1.24282
G1 X6.053 Y-28.614 E1.25800
G1 X6.448 Y-28.220 E1.27318
G1 X6.744 Y-27.748 E1.28836
G1 X6.929 Y-27.221 E1.30353
G1 X6.991 Y-26.667 E1.31871
G1 X6.929 Y-26.112 E1.33389
G1 X6.744 Y-25.586 E1.34906
G1 X6.448 Y-25.113 E1.36424
G1 X6.053 Y-24.719 E1.37941
G1 X5.581 Y-24.422 E1.39459
G1 X5.054 Y-24.238 E1.40977
G1 X4.586 Y-24.185 E1.42258
G1 X4.239 Y-24.669 F7800.000
G1 X4.395 Y-23.605
G1 X3.816 Y-23.670 F540.000 E1.43842
G1 X3.167 Y-23.898 E1.45715
G1 X2.584 Y-24.264 E1.47588
G1 X2.097 Y-24.751 E1.49460
G1 X1.731 Y-25.333 E1.51332
G1 X1.504 Y-25.983 E1.53204
G1 X1.427 Y-26.667 E1.55077
G1 X1.504 Y-27.351 E1.56949
G1 X1.731 Y-28.000 E1.58821
G1 X2.097 Y-28.583 E1.60694
G1 X2.584 Y-29.069 E1.62566
G1 X3.167 Y-29.436 E1.64439
G1 X3.816 Y-29.663 E1.66311
G1 X4.500 Y-29.740 E1.68184
G1 X5.184 Y-29.663 E1.70056
G1 X5.833 Y-29.436 E1.71928
G1 X6.416 Y-29.069 E1.73801
G1 X6.903 Y-28.583 E1.75672
G1 X7.269 Y-28.000 E1.77545
G1 X7.496 Y-27.351 E1.79417
G1 X7.573 Y-26.667 E1.81290
G1 X7.496 Y-25.983 E1.83162
G1 X7.269 Y-25.333 E1.85035
G1 X6.903 Y-24.750 E1.86907
G1 X6.416 Y-24.264 E1.88779
G1 X5.833 Y-23.898 E1.90652
G1 X5.184 Y-23.670 E1.92524
G1 X4.481 Y-23.596 E1.94447
G1 X2.537 Y-23.798 F7800.000
G1 X8.381 Y-17.954 F1080.000 E2.16981
G1 X7.561 Y-17.954 E2.19216
G1 X-9.783 Y-35.298 E2.86094
G1 X-10.467 Y-35.162 E2.87995
G1 X6.741 Y-17.954 E3.54347
G1 X5.921 Y-17.954 E3.56582
G1 X-11.083 Y-34.958 E4.22151
G1 X-11.575 Y-34.630 E4.23763
G1 X5.102 Y-17.954 E4.88065
G1 X4.282 Y-17.954 E4.90301
G1 X-12.067 Y-34.302 E5.53338
G1 X-12.409 Y-33.824 E5.54941
G1 X3.462 Y-17.954 E6.16135
G1 X2.642 Y-17.954 E6.18370
G1 X-12.737 Y-33.332 E6.77668
G1 X-12.972 Y-32.748 E6.79386
G1 X1.822 Y-17.954 E7.36430
G1 X1.002 Y-17.954 E7.38666
G1 X-13.108 Y-32.064 E7.93074
G1 X-13.213 Y-31.349 E7.95045
G1 X0.182 Y-17.954 E8.46694
G1 X-0.638 Y-17.954 E8.48930
G1 X-13.213 Y-30.529 E8.97417
G1 X-13.213 Y-29.709 E8.99653
G1 X-1.458 Y-17.954 E9.44978
G1 X-2.278 Y-17.954 E9.47214
G1 X-13.213 Y-28.889 E9.89378
G1 X-13.213 Y-28.069 E9.91613
G1 X-3.098 Y-17.954 E10.30616
G1 X-3.918 Y-17.954 E10.32851
G1 X-13.213 Y-27.249 E10.68692
G1 X-13.213 Y-26.429 E10.70928
G1 X-4.738 Y-17.954 E11.03607
G1 X-5.558 Y-17.954 E11.05842
G1 X-13.213 Y-25.609 E11.35360
G1 X-13.213 Y-24.789 E11.37595
G1 X-6.378 Y-17.954 E11.63951
G1 X-6.787 Y-17.543 E11.65532
G1 X-13.213 Y-23.969 E11.90309
G1 X-13.213 Y-23.149 E11.92545
G1 X-6.787 Y-16.723 E12.17322
G1 X-6.787 Y-15.903 E12.19557
G1 X-13.213 Y-22.329 E12.44334
G1 X-13.213 Y-21.509 E12.46570
G1 X-6.787 Y-15.084 E12.71347
G1 X-6.787 Y-14.264 E12.73583
G1 X-13.213 Y-20.689 E12.98360
G1 X-13.213 Y-19.869 E13.00595
G1 X-6.787 Y-13.444 E13.25372
G1 X-6.787 Y-12.624 E13.27608
G1 X-13.213 Y-19.049 E13.52385
G1 X-13.213 Y-18.229 E13.54620
G1 X-6.787 Y-11.804 E13.79397
G1 X-6.787 Y-10.984 E13.81633
G1 X-13.213 Y-17.410 E14.06410
G1 X-13.213 Y-16.590 E14.08646
G1 X-6.787 Y-10.164 E14.33423
G1 X-6.787 Y-9.344 E14.35658
G1 X-13.213 Y-15.770 E14.60435
G1 X-13.213 Y-14.950 E14.62671
G1 X-6.787 Y-8.524 E14.87448
G1 X-6.787 Y-7.704 E14.89684
G1 X-13.213 Y-14.130 E15.14461
G1 X-13.213 Y-13.310 E15.16696
G1 X-7.190 Y-7.287 E15.39919
G1 X-7.896 Y-7.173 E15.41869
G1 X-13.213 Y-12.490 E15.62370
G1 X-13.213 Y-11.670 E15.64605
G1 X-7.896 Y-6.353 E15.85106
G1 X-7.896 Y-5.533 E15.87342
G1 X-13.213 Y-10.850 E16.07842
G1 X-13.213 Y-10.030 E16.10078
G1 X-7.896 Y-4.713 E16.30579
G1 X-7.896 Y-3.893 E16.32814
G1 X-13.213 Y-9.210 E16.53315
G1 X-13.213 Y-8.390 E16.55551
G1 X-7.896 Y-3.073 E16.76052
G1 X-7.896 Y-2.253 E16.78287
G1 X-13.213 Y-7.570 E16.98788
G1 X-13.213 Y-6.750 E17.01024
G1 X-7.896 Y-1.434 E17.21525
G1 X-7.896 Y-0.614 E17.23760
G1 X-13.213 Y-5.930 E17.44261
G1 X-13.213 Y-5.110 E17.46497
G1 X-7.896 Y0.206 E17.66998
G1 X-7.896 Y1.026 E17.69233
G1 X-13.213 Y-4.290 E17.89734
G1 X-13.213 Y-3.470 E17.91970
G1 X-7.896 Y1.846 E18.12471
G1 X-7.896 Y2.666 E18.14706
G1 X-13.213 Y-2.651 E18.35207
G1 X-13.213 Y-1.831 E18.37443
G1 X-7.896 Y3.486 E18.57943
G1 X-7.896 Y4.306 E18.60179
G1 X-13.213 Y-1.011 E18.80680
G1 X-13.213 Y-0.191 E18.82916
G1 X-7.896 Y5.126 E19.03416
G1 X-7.896 Y5.946 E19.05652
G1 X-13.213 Y0.629 E19.26153
G1 X-13.213 Y1.449 E19.28389
G1 X-7.896 Y6.766 E19.48889
G1 X-7.375 Y7.287 F7800.000
G1 X-6.787 Y7.875 F1080.000 E19.51156
G1 X-6.787 Y8.695 E19.53392
G1 X-13.213 Y2.269 E19.78169
G1 X-13.213 Y3.089 E19.80404
G1 X-6.787 Y9.515 E20.05181
G1 X-6.787 Y10.335 E20.07417
G1 X-13.213 Y3.909 E20.32194
G1 X-13.213 Y4.729 E20.34429
G1 X-6.787 Y11.155 E20.59206
G1 X-6.787 Y11.975 E20.61442
G1 X-13.213 Y5.549 E20.86219
G1 X-13.213 Y6.369 E20.88455
G1 X-6.787 Y12.795 E21.13232
G1 X-6.787 Y13.615 E21.15467
G1 X-13.213 Y7.189 E21.40244
G1 X-13.213 Y8.009 E21.42480
G1 X-6.787 Y14.434 E21.67257
G1 X-6.787 Y15.254 E21.69492
G1 X-13.213 Y8.829 E21.94269
G1 X-13.213 Y9.649 E21.96505
G1 X-6.787 Y16.074 E22.21282
G1 X-6.787 Y16.894 E22.23518
G1 X-13.213 Y10.469 E22.48295
G1 X-13.213 Y11.289 E22.50530
G1 X-6.787 Y17.714 E22.75307
G1 X-6.548 Y17.954 F7800.000
G1 X1.169 Y25.670 F1080.000 E23.05061
G1 X1.039 Y26.361 E23.06976
G1 X-13.213 Y12.108 E23.61931
G1 X-13.213 Y12.928 E23.64167
G1 X1.066 Y27.207 E24.19223
G1 X1.569 Y28.530 E24.23083
G1 X-13.213 Y13.748 E24.80080
G1 X-13.213 Y14.568 E24.82316
G1 X7.598 Y35.380 E25.62562
G1 X6.778 Y35.380 E25.64798
G1 X-13.213 Y15.388 E26.41882
G1 X-13.213 Y16.208 E26.44118
G1 X5.959 Y35.380 E27.18041
