; generated by Slic3r 0.9.10b on 2013-12-20 at 13:39:53

; layer_height = 0.3
; perimeters = 2
; top_solid_layers = 3
; bottom_solid_layers = 3
; fill_density = 0.4
; perimeter_speed = 30
; infill_speed = 60
; travel_speed = 130
; nozzle_diameter = 0.5
; filament_diameter = 2.85
; extrusion_multiplier = 1
; perimeters extrusion width = 0.70mm
; infill extrusion width = 0.70mm
; solid infill extrusion width = 0.70mm
; top infill extrusion width = 0.70mm
; first layer extrusion width = 0.60mm

G21 ; set units to millimeters
M107
M104 S0
M83
M140 S70
G28
G1Y98F9000
M190 S70
G1X5Y98Z150F9000
M104 S210
G1X5Y98Z1F9000
G1Z0.05
M109 S210
G1Z5
G1X15
;G1E5F50
G90 ; use absolute coordinates
G92 E0
M82 ; use absolute distances for extrusion
G1 F1800.000 E-1.00000
G92 E0
G1 Z0.300 F7800.000
G1 X0.603 Y18.240
G1 F1800.000 E1.00000
G1 X-0.077 Y18.770 F540.000 E1.02346
G1 X-0.587 Y19.120 E1.04028
G1 X-1.617 Y19.750 E1.07313
G1 X-2.227 Y20.070 E1.09187
G1 X-2.767 Y20.320 E1.10806
G1 X-3.417 Y20.590 E1.12721
G1 X-4.607 Y20.990 E1.16137
G1 X-5.197 Y21.150 E1.17800
G1 X-5.887 Y21.300 E1.19721
G1 X-6.437 Y21.390 E1.21238
G1 X-7.127 Y21.480 E1.23131
G1 X-7.697 Y21.530 E1.24687
G1 X-8.397 Y21.560 E1.26594
G1 X-8.967 Y21.560 E1.28144
G1 X-9.657 Y21.530 E1.30023
G1 X-10.217 Y21.480 E1.31553
G1 X-10.907 Y21.390 E1.33446
G1 X-11.457 Y21.300 E1.34962
G1 X-12.147 Y21.150 E1.36884
G1 X-12.737 Y20.990 E1.38547
G1 X-13.397 Y20.780 E1.40431
G1 X-13.927 Y20.590 E1.41963
G1 X-14.577 Y20.320 E1.43878
G1 X-15.077 Y20.090 E1.45375
G1 X-15.697 Y19.770 E1.47273
G1 X-16.217 Y19.470 E1.48907
G1 X-16.797 Y19.100 E1.50778
G1 X-17.267 Y18.770 E1.52341
G1 X-17.827 Y18.340 E1.54262
G1 X-18.277 Y17.960 E1.55864
G1 X-19.167 Y17.110 E1.59213
G1 X-19.637 Y16.600 E1.61099
G1 X-20.017 Y16.150 E1.62702
G1 X-20.447 Y15.590 E1.64623
G1 X-20.797 Y15.080 E1.66306
G1 X-21.427 Y14.050 E1.69591
G1 X-21.747 Y13.440 E1.71465
G1 X-21.997 Y12.900 E1.73084
G1 X-22.267 Y12.250 E1.74999
G1 X-22.667 Y11.060 E1.78414
G1 X-22.827 Y10.470 E1.80077
G1 X-22.977 Y9.780 E1.81998
G1 X-23.067 Y9.230 E1.83515
G1 X-23.157 Y8.540 E1.85408
G1 X-23.207 Y7.970 E1.86965
G1 X-23.237 Y7.270 E1.88871
G1 X-23.237 Y6.700 E1.90422
G1 X-23.207 Y6.010 E1.92301
G1 X-23.157 Y5.450 E1.93830
G1 X-22.977 Y4.210 E1.97239
G1 X-22.827 Y3.520 E1.99160
G1 X-22.667 Y2.930 E2.00823
G1 X-22.267 Y1.740 E2.04239
G1 X-21.997 Y1.090 E2.06154
G1 X-21.767 Y0.590 E2.07651
G1 X-21.447 Y-0.030 E2.09550
G1 X-21.147 Y-0.550 E2.11183
G1 X-20.777 Y-1.130 E2.13055
G1 X-20.447 Y-1.600 E2.14617
G1 X-20.017 Y-2.160 E2.16538
G1 X-19.637 Y-2.610 E2.18140
G1 X-18.787 Y-3.500 E2.21489
G1 X-17.947 Y-4.250 E2.24552
G1 X-0.607 Y-18.250 E2.85186
G1 X0.023 Y-18.740 E2.87357
G1 X0.573 Y-19.130 E2.89192
G1 X1.573 Y-19.740 E2.92378
G1 X2.193 Y-20.070 E2.94289
G1 X2.803 Y-20.350 E2.96115
G1 X3.443 Y-20.610 E2.97995
G1 X3.953 Y-20.800 E2.99476
G1 X4.623 Y-21.010 E3.01386
G1 X5.173 Y-21.150 E3.02930
G1 X6.383 Y-21.400 E3.06291
G1 X7.113 Y-21.500 E3.08296
G1 X7.803 Y-21.560 E3.10180
G1 X8.463 Y-21.580 E3.11977
G1 X9.643 Y-21.540 E3.15189
G1 X10.213 Y-21.490 E3.16746
G1 X10.903 Y-21.400 E3.18639
G1 X11.473 Y-21.300 E3.20213
G1 X12.153 Y-21.150 E3.22108
G1 X12.723 Y-21.000 E3.23712
G1 X13.913 Y-20.600 E3.27127
G1 X15.063 Y-20.100 E3.30539
G1 X15.683 Y-19.780 E3.32437
G1 X16.753 Y-19.130 E3.35843
G1 X17.303 Y-18.740 E3.37678
G1 X17.853 Y-18.310 E3.39577
G1 X18.733 Y-17.540 E3.42758
G1 X19.163 Y-17.120 E3.44394
G1 X19.633 Y-16.610 E3.46281
G1 X20.053 Y-16.100 E3.48078
G1 X20.713 Y-15.200 E3.51115
G1 X21.093 Y-14.620 E3.53001
G1 X21.443 Y-14.030 E3.54867
G1 X21.763 Y-13.410 E3.56766
G1 X22.263 Y-12.260 E3.60177
G1 X22.663 Y-11.070 E3.63593
G1 X22.823 Y-10.480 E3.65256
G1 X22.973 Y-9.790 E3.67177
G1 X23.153 Y-8.550 E3.70586
G1 X23.203 Y-7.990 E3.72116
G1 X23.233 Y-7.300 E3.73995
G1 X23.233 Y-6.730 E3.75546
G1 X23.203 Y-6.030 E3.77452
G1 X23.153 Y-5.460 E3.79009
G1 X22.973 Y-4.220 E3.82418
G1 X22.823 Y-3.530 E3.84339
G1 X22.663 Y-2.940 E3.86002
G1 X22.263 Y-1.750 E3.89417
G1 X21.993 Y-1.100 E3.91332
G1 X21.743 Y-0.560 E3.92951
G1 X21.423 Y0.050 E3.94825
G1 X21.123 Y0.550 E3.96412
G1 X20.473 Y1.530 E3.99611
G1 X20.053 Y2.090 E4.01516
G1 X19.633 Y2.600 E4.03313
G1 X19.163 Y3.110 E4.05200
G1 X18.733 Y3.530 E4.06835
G1 X17.933 Y4.240 E4.09746
G1 X0.671 Y18.185 E4.70122
G1 F1800.000 E3.70122
G92 E0
G1 X5.658 Y1.342 F7800.000
G1 F1800.000 E1.00000
G1 X4.930 Y1.042 F540.000 E1.02143
G1 X4.222 Y0.673 E1.04314
G1 X3.569 Y0.256 E1.06421
G1 X2.948 Y-0.223 E1.08557
G1 X2.378 Y-0.748 E1.10664
G1 X1.882 Y-1.291 E1.12666
G1 X1.418 Y-1.892 E1.14732
G1 X0.993 Y-2.555 E1.16874
G1 X0.636 Y-3.241 E1.18978
G1 X0.338 Y-3.955 E1.21083
G1 X0.105 Y-4.693 E1.23188
G1 X-0.068 Y-5.472 E1.25360
G1 X-0.170 Y-6.253 E1.27502
G1 X-0.201 Y-7.012 E1.29571
G1 X-0.165 Y-7.799 E1.31712
G1 X-0.064 Y-8.552 E1.33781
G1 X0.095 Y-9.271 E1.35783
G1 X0.329 Y-10.021 E1.37920
G1 X0.625 Y-10.737 E1.40028
G1 X0.993 Y-11.445 E1.42199
G1 X1.410 Y-12.097 E1.44306
G1 X1.890 Y-12.719 E1.46441
G1 X2.414 Y-13.289 E1.48549
G1 X2.976 Y-13.801 E1.50618
G1 X3.559 Y-14.249 E1.52617
G1 X4.222 Y-14.673 E1.54759
G1 X4.907 Y-15.031 E1.56862
G1 X5.622 Y-15.329 E1.58968
G1 X6.384 Y-15.569 E1.61141
G1 X7.141 Y-15.735 E1.63252
G1 X7.957 Y-15.838 E1.65490
G1 X8.679 Y-15.868 E1.67455
G1 X9.414 Y-15.836 E1.69456
G1 X10.182 Y-15.737 E1.71564
G1 X10.950 Y-15.569 E1.73701
G1 X11.687 Y-15.338 E1.75804
G1 X12.403 Y-15.042 E1.77913
G1 X13.111 Y-14.673 E1.80083
G1 X13.764 Y-14.256 E1.82191
G1 X14.385 Y-13.777 E1.84326
G1 X14.955 Y-13.252 E1.86434
G1 X15.452 Y-12.709 E1.88435
G1 X15.916 Y-12.108 E1.90502
G1 X16.340 Y-11.445 E1.92644
G1 X16.698 Y-10.759 E1.94747
G1 X16.996 Y-10.045 E1.96853
G1 X17.229 Y-9.307 E1.98958
G1 X17.401 Y-8.528 E2.01129
G1 X17.503 Y-7.747 E2.03271
G1 X17.534 Y-6.988 E2.05340
G1 X17.499 Y-6.201 E2.07481
G1 X17.397 Y-5.448 E2.09550
G1 X17.238 Y-4.729 E2.11552
G1 X17.005 Y-3.979 E2.13689
G1 X16.708 Y-3.263 E2.15797
G1 X16.340 Y-2.555 E2.17968
G1 X15.923 Y-1.903 E2.20075
G1 X15.443 Y-1.281 E2.22211
G1 X14.919 Y-0.711 E2.24318
G1 X14.376 Y-0.215 E2.26320
G1 X13.774 Y0.249 E2.28386
G1 X13.111 Y0.673 E2.30528
G1 X12.426 Y1.031 E2.32632
G1 X11.712 Y1.329 E2.34737
G1 X10.974 Y1.562 E2.36842
G1 X10.195 Y1.735 E2.39014
G1 X9.414 Y1.836 E2.41156
G1 X8.654 Y1.868 E2.43225
G1 X7.868 Y1.832 E2.45366
G1 X7.102 Y1.728 E2.47468
G1 X6.384 Y1.569 E2.49471
G1 X5.741 Y1.368 E2.51303
G1 X5.844 Y0.794 F7800.000
G1 X5.175 Y0.517 F540.000 E2.53273
G1 X4.511 Y0.172 E2.55308
G1 X3.901 Y-0.218 E2.57277
G1 X3.329 Y-0.659 E2.59241
G1 X2.796 Y-1.148 E2.61210
G1 X2.325 Y-1.663 E2.63109
G1 X1.884 Y-2.235 E2.65074
G1 X1.495 Y-2.845 E2.67043
G1 X1.160 Y-3.486 E2.69010
G1 X0.882 Y-4.153 E2.70978
G1 X0.664 Y-4.842 E2.72944
G1 X0.502 Y-5.573 E2.74980
G1 X0.408 Y-6.291 E2.76949
G1 X0.378 Y-7.012 E2.78915
G1 X0.410 Y-7.735 E2.80883
G1 X0.502 Y-8.427 E2.82783
G1 X0.657 Y-9.134 E2.84750
G1 X0.873 Y-9.823 E2.86715
G1 X1.150 Y-10.492 E2.88685
G1 X1.495 Y-11.155 E2.90720
G1 X1.884 Y-11.765 E2.92689
G1 X2.325 Y-12.337 E2.94654
G1 X2.814 Y-12.870 E2.96623
G1 X3.329 Y-13.341 E2.98521
G1 X3.901 Y-13.782 E3.00486
G1 X4.511 Y-14.172 E3.02455
G1 X5.152 Y-14.507 E3.04422
G1 X5.820 Y-14.785 E3.06390
G1 X6.533 Y-15.009 E3.08425
G1 X7.241 Y-15.165 E3.10396
G1 X7.995 Y-15.261 E3.12463
G1 X8.679 Y-15.289 E3.14327
G1 X9.376 Y-15.259 E3.16225
G1 X10.094 Y-15.165 E3.18194
G1 X10.800 Y-15.009 E3.20162
G1 X11.489 Y-14.794 E3.22127
G1 X12.159 Y-14.517 E3.24097
G1 X12.822 Y-14.172 E3.26132
G1 X13.432 Y-13.782 E3.28101
G1 X14.004 Y-13.341 E3.30066
G1 X14.537 Y-12.852 E3.32035
G1 X15.008 Y-12.337 E3.33933
G1 X15.449 Y-11.765 E3.35898
G1 X15.839 Y-11.155 E3.37867
G1 X16.173 Y-10.515 E3.39834
G1 X16.452 Y-9.847 E3.41802
G1 X16.670 Y-9.158 E3.43768
G1 X16.831 Y-8.427 E3.45804
G1 X16.926 Y-7.709 E3.47774
G1 X16.956 Y-6.988 E3.49739
G1 X16.923 Y-6.265 E3.51708
G1 X16.831 Y-5.573 E3.53607
G1 X16.676 Y-4.866 E3.55575
G1 X16.461 Y-4.177 E3.57539
G1 X16.184 Y-3.508 E3.59510
G1 X15.839 Y-2.845 E3.61544
G1 X15.449 Y-2.235 E3.63513
G1 X15.008 Y-1.663 E3.65478
G1 X14.519 Y-1.130 E3.67447
G1 X14.004 Y-0.659 E3.69346
G1 X13.432 Y-0.218 E3.71310
G1 X12.822 Y0.172 E3.73279
G1 X12.181 Y0.507 E3.75246
G1 X11.514 Y0.785 E3.77214
G1 X10.824 Y1.003 E3.79181
G1 X10.094 Y1.165 E3.81217
G1 X9.376 Y1.259 E3.83186
G1 X8.654 Y1.289 E3.85152
G1 X7.932 Y1.257 E3.87120
G1 X7.215 Y1.160 E3.89087
G1 X6.533 Y1.009 E3.90987
G1 X5.927 Y0.820 E3.92715
G1 F1800.000 E2.92715
G92 E0
G1 X-0.620 Y3.275 F7800.000
G1 F1800.000 E1.00000
G1 X-0.329 Y3.979 F540.000 E1.02075
G1 X-0.095 Y4.729 E1.04212
G1 X0.064 Y5.448 E1.06214
G1 X0.165 Y6.201 E1.08283
G1 X0.201 Y6.975 E1.10390
G1 X0.169 Y7.760 E1.12527
G1 X0.068 Y8.528 E1.14634
G1 X-0.105 Y9.307 E1.16806
G1 X-0.338 Y10.045 E1.18911
G1 X-0.636 Y10.759 E1.21017
G1 X-1.000 Y11.455 E1.23154
G1 X-1.418 Y12.108 E1.25262
G1 X-1.866 Y12.690 E1.27261
G1 X-2.378 Y13.252 E1.29330
G1 X-2.957 Y13.785 E1.31471
G1 X-3.569 Y14.256 E1.33573
G1 X-4.222 Y14.673 E1.35680
G1 X-4.930 Y15.042 E1.37851
G1 X-5.646 Y15.338 E1.39959
G1 X-6.384 Y15.569 E1.42062
G1 X-7.139 Y15.735 E1.44166
G1 X-7.919 Y15.836 E1.46308
G1 X-8.679 Y15.868 E1.48376
G1 X-9.465 Y15.832 E1.50517
G1 X-10.219 Y15.730 E1.52587
G1 X-10.937 Y15.572 E1.54589
G1 X-11.687 Y15.338 E1.56726
G1 X-12.403 Y15.042 E1.58834
G1 X-13.111 Y14.673 E1.61005
G1 X-13.764 Y14.256 E1.63112
G1 X-14.385 Y13.777 E1.65247
G1 X-14.955 Y13.252 E1.67355
G1 X-15.452 Y12.709 E1.69356
G1 X-15.916 Y12.108 E1.71423
G1 X-16.340 Y11.445 E1.73565
G1 X-16.698 Y10.759 E1.75668
G1 X-16.996 Y10.045 E1.77774
G1 X-17.229 Y9.307 E1.79879
G1 X-17.401 Y8.528 E1.82051
G1 X-17.503 Y7.747 E1.84193
G1 X-17.534 Y6.988 E1.86261
G1 X-17.499 Y6.201 E1.88402
G1 X-17.397 Y5.448 E1.90471
G1 X-17.238 Y4.729 E1.92473
G1 X-17.005 Y3.979 E1.94610
G1 X-16.708 Y3.263 E1.96719
G1 X-16.340 Y2.555 E1.98890
G1 X-15.923 Y1.903 E2.00997
G1 X-15.443 Y1.281 E2.03132
G1 X-14.919 Y0.711 E2.05240
G1 X-14.357 Y0.199 E2.07308
G1 X-13.774 Y-0.249 E2.09308
G1 X-13.111 Y-0.673 E2.11450
G1 X-12.426 Y-1.031 E2.13553
G1 X-11.712 Y-1.329 E2.15659
G1 X-10.950 Y-1.569 E2.17832
G1 X-10.192 Y-1.735 E2.19943
G1 X-9.376 Y-1.838 E2.22181
G1 X-8.654 Y-1.868 E2.24146
G1 X-7.919 Y-1.836 E2.26146
G1 X-7.151 Y-1.737 E2.28255
G1 X-6.384 Y-1.569 E2.30392
G1 X-5.646 Y-1.338 E2.32495
G1 X-4.930 Y-1.042 E2.34603
G1 X-4.222 Y-0.673 E2.36774
G1 X-3.569 Y-0.256 E2.38881
G1 X-2.948 Y0.223 E2.41016
G1 X-2.387 Y0.738 E2.43089
G1 X-1.858 Y1.319 E2.45226
G1 X-1.388 Y1.934 E2.47331
G1 X-0.993 Y2.555 E2.49334
G1 X-0.658 Y3.197 E2.51303
G1 X-1.160 Y3.485 F7800.000
G1 X-0.882 Y4.153 F540.000 E2.53271
G1 X-0.664 Y4.842 E2.55237
G1 X-0.502 Y5.573 E2.57273
G1 X-0.408 Y6.291 E2.59242
G1 X-0.378 Y7.012 E2.61208
G1 X-0.410 Y7.735 E2.63176
G1 X-0.502 Y8.427 E2.65076
G1 X-0.657 Y9.134 E2.67043
G1 X-0.873 Y9.823 E2.69008
G1 X-1.150 Y10.492 E2.70978
G1 X-1.495 Y11.155 E2.73013
G1 X-1.884 Y11.765 E2.74982
G1 X-2.325 Y12.337 E2.76947
G1 X-2.814 Y12.870 E2.78916
G1 X-3.329 Y13.341 E2.80814
G1 X-3.901 Y13.782 E2.82779
G1 X-4.511 Y14.172 E2.84748
G1 X-5.152 Y14.507 E2.86715
G1 X-5.820 Y14.785 E2.88683
G1 X-6.509 Y15.003 E2.90650
G1 X-7.240 Y15.165 E2.92685
G1 X-7.957 Y15.259 E2.94655
G1 X-8.679 Y15.289 E2.96620
G1 X-9.402 Y15.257 E2.98589
G1 X-10.094 Y15.165 E3.00488
G1 X-10.800 Y15.009 E3.02456
G1 X-11.489 Y14.794 E3.04420
G1 X-12.159 Y14.517 E3.06391
G1 X-12.822 Y14.172 E3.08425
G1 X-13.432 Y13.782 E3.10394
G1 X-14.004 Y13.341 E3.12359
G1 X-14.537 Y12.852 E3.14328
G1 X-15.008 Y12.337 E3.16227
G1 X-15.449 Y11.765 E3.18191
G1 X-15.839 Y11.155 E3.20160
G1 X-16.173 Y10.514 E3.22127
G1 X-16.452 Y9.847 E3.24095
G1 X-16.670 Y9.158 E3.26062
G1 X-16.831 Y8.427 E3.28098
G1 X-16.926 Y7.709 E3.30067
G1 X-16.956 Y6.988 E3.32033
G1 X-16.923 Y6.265 E3.34001
G1 X-16.831 Y5.573 E3.35900
G1 X-16.676 Y4.866 E3.37868
G1 X-16.461 Y4.177 E3.39833
G1 X-16.184 Y3.508 E3.41803
G1 X-15.839 Y2.845 E3.43837
G1 X-15.449 Y2.235 E3.45807
G1 X-15.008 Y1.663 E3.47771
G1 X-14.519 Y1.130 E3.49740
G1 X-14.004 Y0.659 E3.51639
G1 X-13.432 Y0.218 E3.53604
G1 X-12.822 Y-0.172 E3.55573
G1 X-12.181 Y-0.507 E3.57540
G1 X-11.514 Y-0.785 E3.59507
G1 X-10.800 Y-1.009 E3.61542
G1 X-10.092 Y-1.165 E3.63514
G1 X-9.339 Y-1.261 E3.65581
G1 X-8.654 Y-1.289 E3.67445
G1 X-7.957 Y-1.259 E3.69343
G1 X-7.240 Y-1.165 E3.71312
G1 X-6.533 Y-1.009 E3.73280
G1 X-5.844 Y-0.794 E3.75244
G1 X-5.175 Y-0.517 E3.77215
G1 X-4.511 Y-0.172 E3.79249
G1 X-3.901 Y0.218 E3.81219
G1 X-3.329 Y0.659 E3.83183
G1 X-2.796 Y1.148 E3.85152
G1 X-2.309 Y1.682 E3.87118
G1 X-1.870 Y2.256 E3.89085
G1 X-1.495 Y2.845 E3.90985
G1 X-1.200 Y3.409 E3.92716
G1 X-1.679 Y3.741 F7800.000
G1 X-1.421 Y4.363 F540.000 E3.94547
G1 X-1.219 Y5.004 E3.96374
G1 X-1.074 Y5.661 E3.98207
G1 X-0.985 Y6.328 E4.00037
G1 X-0.956 Y7.000 E4.01866
G1 X-0.985 Y7.672 E4.03695
G1 X-1.074 Y8.339 E4.05526
G1 X-1.219 Y8.996 E4.07358
G1 X-1.421 Y9.637 E4.09185
G1 X-1.679 Y10.259 E4.11017
G1 X-1.989 Y10.855 E4.12847
G1 X-2.351 Y11.423 E4.14677
G1 X-2.760 Y11.956 E4.16506
G1 X-3.214 Y12.452 E4.18336
G1 X-3.711 Y12.906 E4.20166
G1 X-4.244 Y13.316 E4.21995
G1 X-4.811 Y13.677 E4.23826
G1 X-5.408 Y13.988 E4.25656
G1 X-6.030 Y14.246 E4.27487
G1 X-6.670 Y14.447 E4.29315
G1 X-7.328 Y14.593 E4.31147
G1 X-7.995 Y14.682 E4.32978
G1 X-8.667 Y14.710 E4.34807
G1 X-9.338 Y14.682 E4.36636
G1 X-10.005 Y14.593 E4.38466
G1 X-10.663 Y14.447 E4.40299
G1 X-11.304 Y14.246 E4.42126
G1 X-11.925 Y13.988 E4.43957
G1 X-12.522 Y13.677 E4.45787
G1 X-13.090 Y13.316 E4.47618
G1 X-13.623 Y12.906 E4.49447
G1 X-14.119 Y12.452 E4.51277
G1 X-14.573 Y11.956 E4.53107
G1 X-14.983 Y11.423 E4.54936
G1 X-15.344 Y10.855 E4.56767
G1 X-15.654 Y10.259 E4.58597
G1 X-15.913 Y9.637 E4.60428
G1 X-16.114 Y8.996 E4.62255
G1 X-16.260 Y8.339 E4.64088
G1 X-16.348 Y7.672 E4.65918
G1 X-16.377 Y7.000 E4.67747
G1 X-16.348 Y6.328 E4.69576
G1 X-16.260 Y5.661 E4.71407
G1 X-16.114 Y5.004 E4.73239
G1 X-15.913 Y4.363 E4.75067
G1 X-15.654 Y3.741 E4.76898
G1 X-15.344 Y3.145 E4.78728
G1 X-14.983 Y2.577 E4.80559
G1 X-14.573 Y2.044 E4.82388
G1 X-14.119 Y1.548 E4.84218
G1 X-13.623 Y1.094 E4.86048
G1 X-13.090 Y0.684 E4.87877
G1 X-12.522 Y0.323 E4.89707
G1 X-11.925 Y0.012 E4.91537
G1 X-11.304 Y-0.246 E4.93369
G1 X-10.663 Y-0.447 E4.95196
G1 X-10.005 Y-0.593 E4.97028
G1 X-9.338 Y-0.682 E4.98859
G1 X-8.667 Y-0.710 E5.00688
G1 X-7.995 Y-0.682 E5.02517
G1 X-7.328 Y-0.593 E5.04347
G1 X-6.670 Y-0.447 E5.06180
G1 X-6.030 Y-0.246 E5.08007
G1 X-5.408 Y0.012 E5.09839
G1 X-4.811 Y0.323 E5.11669
G1 X-4.244 Y0.684 E5.13499
G1 X-3.711 Y1.094 E5.15328
G1 X-3.214 Y1.548 E5.17158
G1 X-2.760 Y2.044 E5.18988
G1 X-2.351 Y2.577 E5.20817
G1 X-1.989 Y3.145 E5.22648
G1 X-1.719 Y3.664 E5.24242
G1 X-2.017 Y4.211 F7800.000
G1 F1800.000 E4.24242
G92 E0
G1 X-14.842 Y10.566 F7800.000
G1 F1800.000 E1.00000
G1 X-15.130 Y10.014 F540.000 E1.01694
G1 X-15.368 Y9.439 E1.03387
G1 X-15.555 Y8.847 E1.05076
G1 X-15.689 Y8.238 E1.06773
G1 X-15.771 Y7.621 E1.08465
G1 X-15.798 Y7.000 E1.10156
G1 X-15.771 Y6.379 E1.11848
G1 X-15.689 Y5.762 E1.13540
G1 X-15.555 Y5.153 E1.15237
G1 X-15.368 Y4.561 E1.16926
G1 X-15.130 Y3.986 E1.18619
G1 X-14.842 Y3.434 E1.20313
G1 X-14.508 Y2.909 E1.22005
G1 X-14.129 Y2.416 E1.23697
G1 X-13.709 Y1.957 E1.25390
G1 X-13.250 Y1.537 E1.27082
G1 X-12.757 Y1.158 E1.28774
G1 X-12.233 Y0.824 E1.30467
G1 X-11.680 Y0.537 E1.32160
G1 X-11.105 Y0.298 E1.33854
G1 X-10.513 Y0.112 E1.35542
G1 X-9.904 Y-0.023 E1.37239
G1 X-9.288 Y-0.105 E1.38932
G1 X-8.667 Y-0.131 E1.40623
G1 X-8.046 Y-0.105 E1.42314
G1 X-7.429 Y-0.023 E1.44007
G1 X-6.820 Y0.112 E1.45704
G1 X-6.228 Y0.298 E1.47392
G1 X-5.653 Y0.537 E1.49086
G1 X-5.101 Y0.824 E1.50780
G1 X-4.576 Y1.158 E1.52472
G1 X-4.083 Y1.537 E1.54164
G1 X-3.624 Y1.957 E1.55856
G1 X-3.204 Y2.416 E1.57549
G1 X-2.825 Y2.909 E1.59241
G1 X-2.491 Y3.434 E1.60933
G1 X-2.204 Y3.986 E1.62627
G1 X-1.965 Y4.561 E1.64320
G1 X-1.779 Y5.153 E1.66009
G1 X-1.644 Y5.762 E1.67706
G1 X-1.562 Y6.379 E1.69399
G1 X-1.535 Y7.000 E1.71090
G1 X-1.562 Y7.621 E1.72781
G1 X-1.644 Y8.238 E1.74473
G1 X-1.779 Y8.847 E1.76170
