; generated by Slic3r 0.9.10b on 2013-12-20 at 21:53:38

; layer_height = 0.3
; perimeters = 2
; top_solid_layers = 3
; bottom_solid_layers = 3
; fill_density = 0.4
; perimeter_speed = 30
; infill_speed = 60
; travel_speed = 130
; nozzle_diameter = 0.5
; filament_diameter = 2.85
; extrusion_multiplier = 1
; perimeters extrusion width = 0.70mm
; infill extrusion width = 0.70mm
; solid infill extrusion width = 0.70mm
; top infill extrusion width = 0.70mm
; first layer extrusion width = 0.60mm

G21 ; set units to millimeters
M107
M104 S0
M83
M140 S70
G28
G1Y98F9000
M190 S70
G1X5Y98Z150F9000
M104 S210
G1X5Y98Z1F9000
G1Z0.05
M109 S210
G1Z5
G1X15
;G1E5F50
G90 ; use absolute coordinates
G92 E0
M82 ; use absolute distances for extrusion
G1 F1800.000 E-1.00000
G92 E0
G1 Z0.300 F7800.000
G1 X-22.610 Y-2.230
G1 F1800.000 E1.00000
G1 X-23.420 Y-3.260 F540.000 E1.03565
G1 X-24.200 Y-4.440 E1.07413
G1 X-24.520 Y-5.000 E1.09168
G1 X-24.920 Y-5.780 E1.11553
G1 X-25.160 Y-6.300 E1.13111
G1 X-25.680 Y-7.620 E1.16971
G1 X-25.940 Y-8.450 E1.19337
G1 X-26.080 Y-8.980 E1.20829
G1 X-26.270 Y-9.830 E1.23198
G1 X-26.370 Y-10.360 E1.24666
G1 X-26.490 Y-11.220 E1.27028
G1 X-26.540 Y-11.910 E1.28911
G1 X-26.570 Y-12.790 E1.31306
G1 X-26.540 Y-14.110 E1.34898
G1 X-26.490 Y-14.790 E1.36753
G1 X-26.370 Y-15.650 E1.39116
G1 X-26.080 Y-17.030 E1.42952
G1 X-25.680 Y-18.380 E1.46783
G1 X-25.480 Y-18.940 E1.48401
G1 X-25.150 Y-19.740 E1.50755
G1 X-24.520 Y-21.010 E1.54612
G1 X-24.200 Y-21.570 E1.56367
G1 X-23.420 Y-22.750 E1.60215
G1 X-22.890 Y-23.440 E1.62583
G1 X-21.950 Y-24.500 E1.66437
G1 X-21.500 Y-24.950 E1.68169
G1 X-20.440 Y-25.890 E1.72023
G1 X-19.750 Y-26.420 E1.74390
G1 X-19.300 Y-26.730 E1.75877
G1 X-18.570 Y-27.200 E1.78239
G1 X-18.010 Y-27.520 E1.79994
G1 X-16.740 Y-28.150 E1.83851
G1 X-15.940 Y-28.480 E1.86205
G1 X-15.380 Y-28.680 E1.87823
G1 X-14.540 Y-28.940 E1.90215
G1 X-14.030 Y-29.080 E1.91654
G1 X-12.650 Y-29.370 E1.95491
G1 X-11.790 Y-29.490 E1.97853
G1 X-11.110 Y-29.540 E1.99708
G1 X-10.010 Y-29.580 E2.02703
G1 X9.990 Y-29.580 E2.57116
G1 X11.090 Y-29.540 E2.60111
G1 X11.780 Y-29.490 E2.61993
G1 X12.640 Y-29.370 E2.64356
G1 X14.020 Y-29.080 E2.68192
G1 X14.550 Y-28.940 E2.69683
G1 X15.380 Y-28.680 E2.72050
G1 X15.890 Y-28.490 E2.73531
G1 X16.700 Y-28.160 E2.75910
G1 X17.250 Y-27.910 E2.77554
G1 X18.020 Y-27.510 E2.79915
G1 X18.520 Y-27.220 E2.81487
G1 X19.260 Y-26.750 E2.83872
G1 X19.740 Y-26.420 E2.85457
G1 X20.430 Y-25.890 E2.87824
G1 X21.490 Y-24.950 E2.91679
G1 X21.980 Y-24.460 E2.93564
G1 X22.560 Y-23.810 E2.95934
G1 X23.370 Y-22.790 E2.99478
G1 X23.780 Y-22.210 E3.01410
G1 X24.460 Y-21.090 E3.04975
G1 X24.870 Y-20.320 E3.07348
G1 X25.150 Y-19.710 E3.09174
G1 X25.670 Y-18.390 E3.13034
G1 X25.930 Y-17.560 E3.15401
G1 X26.070 Y-17.030 E3.16892
G1 X26.360 Y-15.650 E3.20729
G1 X26.480 Y-14.790 E3.23091
G1 X26.530 Y-14.180 E3.24756
G1 X26.580 Y-13.010 E3.27942
G1 X26.570 Y15.370 E4.05155
G1 X26.530 Y16.070 E4.07062
G1 X26.390 Y17.230 E4.10241
G1 X26.300 Y17.780 E4.11757
G1 X26.150 Y18.470 E4.13679
G1 X25.990 Y19.060 E4.15342
G1 X25.590 Y20.250 E4.18757
G1 X25.320 Y20.900 E4.20672
G1 X25.070 Y21.440 E4.22291
G1 X24.750 Y22.050 E4.24165
G1 X24.490 Y22.490 E4.25556
G1 X24.120 Y23.080 E4.27450
G1 X23.770 Y23.590 E4.29133
G1 X23.340 Y24.150 E4.31054
G1 X22.960 Y24.600 E4.32657
G1 X22.490 Y25.110 E4.34544
G1 X21.600 Y25.960 E4.37892
G1 X21.150 Y26.340 E4.39494
G1 X20.590 Y26.770 E4.41415
G1 X20.080 Y27.120 E4.43098
G1 X19.050 Y27.750 E4.46383
G1 X18.440 Y28.070 E4.48257
G1 X17.900 Y28.320 E4.49876
G1 X17.250 Y28.590 E4.51791
G1 X16.720 Y28.780 E4.53323
G1 X16.060 Y28.990 E4.55207
G1 X15.470 Y29.150 E4.56870
G1 X14.780 Y29.300 E4.58791
G1 X14.230 Y29.390 E4.60308
G1 X13.540 Y29.480 E4.62201
G1 X12.970 Y29.530 E4.63758
G1 X12.270 Y29.560 E4.65664
G1 X11.700 Y29.560 E4.67215
G1 X11.010 Y29.530 E4.69094
G1 X10.450 Y29.480 E4.70623
G1 X9.760 Y29.390 E4.72516
G1 X9.210 Y29.300 E4.74033
G1 X8.520 Y29.150 E4.75954
G1 X7.930 Y28.990 E4.77617
G1 X6.740 Y28.590 E4.81032
G1 X5.590 Y28.090 E4.84444
G1 X4.970 Y27.770 E4.86342
G1 X4.450 Y27.470 E4.87976
G1 X3.870 Y27.100 E4.89847
G1 X3.400 Y26.770 E4.91410
G1 X2.840 Y26.340 E4.93331
G1 X2.390 Y25.960 E4.94933
G1 X1.500 Y25.110 E4.98282
G1 X0.930 Y24.490 E5.00573
G1 X-22.553 Y-2.165 E5.97220
G1 F1800.000 E4.97220
G92 E0
G1 X-18.318 Y-6.006 F7800.000
G1 F1800.000 E1.00000
G1 X-18.917 Y-6.787 F540.000 E1.02681
G1 X-19.405 Y-7.556 E1.05157
G1 X-19.839 Y-8.384 E1.07701
G1 X-20.208 Y-9.271 E1.10315
G1 X-20.501 Y-10.200 E1.12963
G1 X-20.707 Y-11.138 E1.15577
G1 X-20.828 Y-12.065 E1.18120
G1 X-20.868 Y-12.975 E1.20598
G1 X-20.828 Y-13.935 E1.23213
G1 X-20.698 Y-14.912 E1.25893
G1 X-20.494 Y-15.825 E1.28438
G1 X-20.221 Y-16.693 E1.30914
G1 X-19.855 Y-17.581 E1.33529
G1 X-19.399 Y-18.455 E1.36210
G1 X-18.895 Y-19.244 E1.38757
G1 X-18.340 Y-19.967 E1.41236
G1 X-17.667 Y-20.702 E1.43950
G1 X-16.977 Y-21.333 E1.46493
G1 X-16.255 Y-21.888 E1.48970
G1 X-15.444 Y-22.405 E1.51586
G1 X-14.581 Y-22.855 E1.54233
G1 X-13.705 Y-23.217 E1.56814
G1 X-12.788 Y-23.503 E1.59427
G1 X-11.862 Y-23.707 E1.62006
G1 X-10.960 Y-23.825 E1.64481
G1 X-10.031 Y-23.867 E1.67010
G1 X10.025 Y-23.867 E2.21578
G1 X10.960 Y-23.825 E2.24125
G1 X11.874 Y-23.705 E2.26633
G1 X12.800 Y-23.501 E2.29213
G1 X13.693 Y-23.221 E2.31757
G1 X14.616 Y-22.839 E2.34475
G1 X15.444 Y-22.405 E2.37019
G1 X16.223 Y-21.910 E2.39530
G1 X16.996 Y-21.317 E2.42180
G1 X17.702 Y-20.667 E2.44793
G1 X18.333 Y-19.977 E2.47335
G1 X18.888 Y-19.255 E2.49813
G1 X19.405 Y-18.444 E2.52429
G1 X19.855 Y-17.581 E2.55076
G1 X20.221 Y-16.693 E2.57691
G1 X20.494 Y-15.825 E2.60167
G1 X20.698 Y-14.912 E2.62712
G1 X20.828 Y-13.935 E2.65392
G1 X20.868 Y-13.006 E2.67922
G1 X20.868 Y15.006 E3.44134
G1 X20.836 Y15.747 E3.46152
G1 X20.728 Y16.564 E3.48395
G1 X20.562 Y17.307 E3.50466
G1 X20.338 Y18.021 E3.52500
G1 X20.026 Y18.770 E3.54710
G1 X19.673 Y19.445 E3.56780
G1 X19.271 Y20.076 E3.58817
G1 X18.785 Y20.709 E3.60988
G1 X18.262 Y21.280 E3.63095
G1 X17.690 Y21.801 E3.65198
G1 X17.066 Y22.278 E3.67337
G1 X16.412 Y22.692 E3.69443
G1 X15.737 Y23.042 E3.71511
G1 X15.057 Y23.324 E3.73514
G1 X14.307 Y23.562 E3.75654
G1 X13.552 Y23.730 E3.77758
G1 X12.786 Y23.833 E3.79862
G1 X11.988 Y23.868 E3.82036
G1 X11.214 Y23.833 E3.84142
G1 X10.436 Y23.728 E3.86280
G1 X9.693 Y23.562 E3.88350
G1 X8.943 Y23.324 E3.90491
G1 X8.263 Y23.042 E3.92494
G1 X7.588 Y22.692 E3.94561
G1 X6.924 Y22.271 E3.96702
G1 X6.281 Y21.777 E3.98907
G1 X5.738 Y21.280 E4.00909
G1 X5.224 Y20.720 E4.02978
G1 X-18.260 Y-5.941 E4.99640
G1 X-17.877 Y-6.381 F7800.000
G1 X-18.436 Y-7.109 F540.000 E5.02137
G1 X-18.904 Y-7.845 E5.04510
G1 X-19.320 Y-8.640 E5.06952
G1 X-19.664 Y-9.469 E5.09394
G1 X-19.941 Y-10.349 E5.11904
G1 X-20.130 Y-11.201 E5.14279
G1 X-20.249 Y-12.090 E5.16718
G1 X-20.289 Y-12.987 E5.19162
G1 X-20.249 Y-13.910 E5.21674
G1 X-20.130 Y-14.799 E5.24113
G1 X-19.941 Y-15.651 E5.26488
G1 X-19.664 Y-16.531 E5.28998
G1 X-19.320 Y-17.360 E5.31440
G1 X-18.904 Y-18.155 E5.33882
G1 X-18.436 Y-18.891 E5.36255
G1 X-17.889 Y-19.604 E5.38700
G1 X-17.266 Y-20.284 E5.41209
G1 X-16.604 Y-20.889 E5.43649
G1 X-15.912 Y-21.421 E5.46024
G1 X-15.155 Y-21.904 E5.48467
G1 X-14.337 Y-22.330 E5.50977
G1 X-13.507 Y-22.673 E5.53420
G1 X-12.651 Y-22.941 E5.55861
G1 X-11.799 Y-23.130 E5.58236
G1 X-10.910 Y-23.249 E5.60675
G1 X-10.013 Y-23.289 E5.63119
G1 X10.013 Y-23.289 E6.17601
G1 X10.885 Y-23.251 E6.19975
G1 X11.774 Y-23.135 E6.22415
G1 X12.651 Y-22.941 E6.24858
G1 X13.507 Y-22.673 E6.27299
G1 X14.360 Y-22.320 E6.29811
G1 X15.155 Y-21.904 E6.32253
G1 X15.912 Y-21.421 E6.34695
G1 X16.604 Y-20.889 E6.37070
G1 X17.266 Y-20.284 E6.39510
G1 X17.873 Y-19.623 E6.41952
G1 X18.436 Y-18.891 E6.44464
G1 X18.917 Y-18.134 E6.46905
G1 X19.330 Y-17.337 E6.49348
G1 X19.664 Y-16.531 E6.51721
G1 X19.935 Y-15.675 E6.54163
G1 X20.135 Y-14.774 E6.56674
G1 X20.251 Y-13.885 E6.59114
G1 X20.289 Y-13.000 E6.61523
G1 X20.289 Y15.000 E7.37702
G1 X20.259 Y15.709 E7.39634
G1 X20.165 Y16.427 E7.41603
G1 X20.009 Y17.134 E7.43571
G1 X19.785 Y17.847 E7.45606
G1 X19.517 Y18.492 E7.47506
G1 X19.185 Y19.133 E7.49472
G1 X18.782 Y19.765 E7.51509
G1 X18.341 Y20.337 E7.53474
G1 X17.852 Y20.870 E7.55443
G1 X17.337 Y21.341 E7.57342
G1 X16.765 Y21.782 E7.59307
G1 X16.155 Y22.172 E7.61276
G1 X15.492 Y22.517 E7.63310
G1 X14.823 Y22.794 E7.65281
G1 X14.134 Y23.009 E7.67245
G1 X13.427 Y23.165 E7.69213
G1 X12.709 Y23.259 E7.71182
G1 X12.012 Y23.289 E7.73080
G1 X11.291 Y23.259 E7.75046
G1 X10.573 Y23.165 E7.77015
G1 X9.866 Y23.009 E7.78983
G1 X9.177 Y22.794 E7.80948
G1 X8.508 Y22.517 E7.82918
G1 X7.845 Y22.172 E7.84953
G1 X7.235 Y21.782 E7.86922
G1 X6.663 Y21.341 E7.88887
G1 X6.148 Y20.870 E7.90785
G1 X5.655 Y20.333 E7.92769
G1 X-17.820 Y-6.316 E8.89390
G1 X-17.437 Y-6.756 F7800.000
G1 X-17.955 Y-7.430 F540.000 E8.91703
G1 X-18.409 Y-8.145 E8.94007
G1 X-18.801 Y-8.896 E8.96313
G1 X-19.125 Y-9.679 E8.98618
G1 X-19.379 Y-10.487 E9.00922
G1 X-19.563 Y-11.314 E9.03228
G1 X-19.674 Y-12.153 E9.05530
G1 X-19.710 Y-13.000 E9.07836
G1 X-19.674 Y-13.847 E9.10142
G1 X-19.563 Y-14.686 E9.12444
G1 X-19.379 Y-15.513 E9.14750
G1 X-19.125 Y-16.321 E9.17054
G1 X-18.801 Y-17.104 E9.19359
G1 X-18.409 Y-17.855 E9.21665
G1 X-17.955 Y-18.570 E9.23969
G1 X-17.438 Y-19.242 E9.26275
G1 X-16.866 Y-19.866 E9.28579
G1 X-16.242 Y-20.438 E9.30883
G1 X-15.570 Y-20.955 E9.33188
G1 X-14.855 Y-21.409 E9.35492
G1 X-14.104 Y-21.801 E9.37798
G1 X-13.321 Y-22.125 E9.40103
G1 X-12.513 Y-22.379 E9.42407
G1 X-11.686 Y-22.563 E9.44713
G1 X-10.847 Y-22.674 E9.47015
G1 X-9.994 Y-22.711 E9.49338
G1 X9.994 Y-22.711 E10.03717
G1 X10.847 Y-22.674 E10.06040
G1 X11.686 Y-22.563 E10.08343
G1 X12.531 Y-22.374 E10.10699
G1 X13.321 Y-22.125 E10.12953
G1 X14.104 Y-21.801 E10.15258
G1 X14.855 Y-21.409 E10.17563
G1 X15.570 Y-20.955 E10.19867
G1 X16.242 Y-20.438 E10.22173
G1 X16.866 Y-19.866 E10.24477
G1 X17.438 Y-19.242 E10.26781
G1 X17.955 Y-18.570 E10.29087
G1 X18.409 Y-17.855 E10.31391
G1 X18.801 Y-17.104 E10.33696
G1 X19.125 Y-16.321 E10.36001
G1 X19.379 Y-15.513 E10.38306
G1 X19.563 Y-14.686 E10.40612
G1 X19.674 Y-13.847 E10.42914
G1 X19.711 Y-12.994 E10.45237
G1 X19.711 Y14.994 E11.21381
G1 X19.682 Y15.672 E11.23227
G1 X19.593 Y16.339 E11.25058
G1 X19.447 Y16.996 E11.26890
G1 X19.246 Y17.637 E11.28718
G1 X18.988 Y18.259 E11.30549
G1 X18.677 Y18.855 E11.32379
G1 X18.316 Y19.423 E11.34209
G1 X17.906 Y19.956 E11.36039
G1 X17.452 Y20.452 E11.37869
G1 X16.956 Y20.906 E11.39698
G1 X16.423 Y21.316 E11.41528
G1 X15.855 Y21.677 E11.43358
G1 X15.259 Y21.988 E11.45188
G1 X14.637 Y22.246 E11.47020
G1 X13.996 Y22.447 E11.48847
G1 X13.339 Y22.593 E11.50679
G1 X12.672 Y22.682 E11.52510
G1 X12.000 Y22.710 E11.54339
G1 X11.328 Y22.682 E11.56168
G1 X10.661 Y22.593 E11.57998
G1 X10.004 Y22.447 E11.59831
G1 X9.363 Y22.246 E11.61658
G1 X8.741 Y21.988 E11.63489
G1 X8.145 Y21.677 E11.65320
G1 X7.577 Y21.316 E11.67150
G1 X7.044 Y20.906 E11.68979
G1 X6.548 Y20.452 E11.70809
G1 X6.087 Y19.949 E11.72665
G1 X-17.379 Y-6.691 E12.69253
G1 X-17.228 Y-7.295 F7800.000
G1 F1800.000 E11.69253
G92 E0
G1 X9.981 Y-22.132 F7800.000
G1 F1800.000 E1.00000
G1 X10.796 Y-22.097 F540.000 E1.02220
G1 X11.585 Y-21.993 E1.04384
G1 X12.363 Y-21.820 E1.06553
G1 X13.123 Y-21.581 E1.08720
G1 X13.859 Y-21.276 E1.10887
G1 X14.566 Y-20.908 E1.13056
G1 X15.238 Y-20.480 E1.15222
G1 X15.869 Y-19.995 E1.17390
G1 X16.457 Y-19.457 E1.19557
G1 X16.995 Y-18.869 E1.21724
G1 X17.480 Y-18.238 E1.23892
G1 X17.908 Y-17.566 E1.26058
G1 X18.276 Y-16.859 E1.28227
G1 X18.581 Y-16.123 E1.30394
G1 X18.820 Y-15.363 E1.32561
G1 X18.993 Y-14.585 E1.34730
G1 X19.097 Y-13.796 E1.36894
G1 X19.132 Y-12.981 E1.39114
G1 X19.132 Y14.981 E2.15191
G1 X19.105 Y15.621 E2.16933
G1 X19.023 Y16.238 E2.18625
G1 X18.888 Y16.847 E2.20322
G1 X18.702 Y17.439 E2.22011
G1 X18.463 Y18.014 E2.23704
G1 X18.176 Y18.566 E2.25398
G1 X17.842 Y19.091 E2.27090
G1 X17.463 Y19.584 E2.28782
G1 X17.043 Y20.043 E2.30475
G1 X16.584 Y20.463 E2.32167
G1 X16.091 Y20.842 E2.33859
G1 X15.566 Y21.176 E2.35551
G1 X15.014 Y21.463 E2.37245
G1 X14.439 Y21.702 E2.38939
G1 X13.847 Y21.888 E2.40627
G1 X13.238 Y22.023 E2.42324
G1 X12.621 Y22.105 E2.44017
G1 X12.000 Y22.131 E2.45708
G1 X11.379 Y22.105 E2.47399
G1 X10.762 Y22.023 E2.49092
G1 X10.153 Y21.888 E2.50789
G1 X9.561 Y21.702 E2.52477
G1 X8.986 Y21.463 E2.54171
G1 X8.434 Y21.176 E2.55864
G1 X7.909 Y20.842 E2.57557
G1 X7.416 Y20.463 E2.59249
G1 X6.957 Y20.043 E2.60941
G1 X-16.990 Y-7.124 E3.59468
G1 X-17.480 Y-7.762 E3.61659
G1 X-17.908 Y-8.434 E3.63825
G1 X-18.276 Y-9.141 E3.65994
G1 X-18.581 Y-9.877 E3.68161
G1 X-18.820 Y-10.637 E3.70328
G1 X-18.993 Y-11.415 E3.72497
G1 X-19.097 Y-12.204 E3.74662
G1 X-19.131 Y-13.000 E3.76830
G1 X-19.097 Y-13.796 E3.78998
G1 X-18.993 Y-14.585 E3.81163
G1 X-18.820 Y-15.363 E3.83332
G1 X-18.581 Y-16.123 E3.85499
G1 X-18.276 Y-16.859 E3.87666
G1 X-17.908 Y-17.566 E3.89835
G1 X-17.480 Y-18.238 E3.92001
G1 X-16.995 Y-18.869 E3.94168
G1 X-16.457 Y-19.457 E3.96336
G1 X-15.869 Y-19.995 E3.98503
G1 X-15.238 Y-20.480 E4.00670
G1 X-14.566 Y-20.908 E4.02836
G1 X-13.859 Y-21.276 E4.05005
G1 X-13.123 Y-21.581 E4.07172
G1 X-12.363 Y-21.820 E4.09339
G1 X-11.585 Y-21.993 E4.11508
G1 X-10.796 Y-22.097 E4.13673
G1 X-9.981 Y-22.132 E4.15893
G1 X9.894 Y-22.132 E4.69967
G1 F1800.000 E3.69967
G92 E0
G1 X12.000 Y12.509 F7800.000
G1 F1800.000 E1.00000
G1 X12.555 Y12.571 F540.000 E1.01519
G1 X13.081 Y12.756 E1.03037
G1 X13.553 Y13.052 E1.04554
G1 X13.948 Y13.447 E1.06070
G1 X14.244 Y13.919 E1.07587
G1 X14.429 Y14.445 E1.09105
G1 X14.491 Y15.000 E1.10624
G1 X14.429 Y15.555 E1.12143
G1 X14.244 Y16.081 E1.13661
G1 X13.948 Y16.553 E1.15178
G1 X13.553 Y16.948 E1.16695
G1 X13.081 Y17.244 E1.18212
G1 X12.555 Y17.429 E1.19730
G1 X12.000 Y17.491 E1.21249
G1 X11.445 Y17.429 E1.22767
G1 X10.919 Y17.244 E1.24286
G1 X10.447 Y16.948 E1.25803
G1 X10.052 Y16.553 E1.27319
G1 X9.756 Y16.081 E1.28836
G1 X9.571 Y15.555 E1.30354
G1 X9.509 Y15.000 E1.31873
G1 X9.571 Y14.445 E1.33392
G1 X9.756 Y13.919 E1.34910
G1 X10.052 Y13.447 E1.36427
G1 X10.447 Y13.052 E1.37943
G1 X10.918 Y12.756 E1.39457
G1 X11.445 Y12.571 E1.40978
G1 X11.914 Y12.519 E1.42261
G1 X12.261 Y13.002 F7800.000
G1 X12.114 Y11.940
G1 X12.684 Y12.004 F540.000 E1.43822
G1 X13.334 Y12.231 E1.45695
G1 X13.916 Y12.597 E1.47566
G1 X14.403 Y13.084 E1.49437
G1 X14.769 Y13.666 E1.51308
G1 X14.996 Y14.316 E1.53182
G1 X15.073 Y15.000 E1.55055
G1 X14.996 Y15.684 E1.56929
G1 X14.769 Y16.334 E1.58802
G1 X14.403 Y16.916 E1.60673
G1 X13.916 Y17.403 E1.62544
G1 X13.334 Y17.769 E1.64416
G1 X12.684 Y17.996 E1.66289
G1 X12.000 Y18.073 E1.68163
G1 X11.316 Y17.996 E1.70036
G1 X10.666 Y17.769 E1.71909
G1 X10.084 Y17.403 E1.73781
G1 X9.597 Y16.916 E1.75652
G1 X9.231 Y16.334 E1.77523
G1 X9.004 Y15.684 E1.79396
G1 X8.927 Y15.000 E1.81270
G1 X9.004 Y14.316 E1.83144
G1 X9.231 Y13.666 E1.85017
G1 X9.597 Y13.084 E1.86888
G1 X10.084 Y12.597 E1.88759
G1 X10.657 Y12.234 E1.90606
G1 X11.316 Y12.004 E1.92504
G1 X12.028 Y11.930 E1.94453
G1 X10.000 Y-10.509 F7800.000
G1 X9.445 Y-10.571 F540.000 E1.95971
G1 X8.919 Y-10.756 E1.97489
G1 X8.446 Y-11.052 E1.99007
G1 X8.088 Y-11.411 E2.00386
G1 X7.756 Y-11.919 E2.02037
G1 X7.571 Y-12.445 E2.03555
G1 X7.509 Y-13.000 E2.05074
G1 X7.571 Y-13.555 E2.06593
G1 X7.756 Y-14.081 E2.08111
G1 X8.088 Y-14.589 E2.09761
G1 X8.446 Y-14.948 E2.11141
G1 X8.919 Y-15.244 E2.12658
G1 X9.445 Y-15.429 E2.14176
G1 X10.000 Y-15.491 E2.15695
G1 X10.555 Y-15.429 E2.17214
G1 X11.081 Y-15.244 E2.18732
G1 X11.553 Y-14.948 E2.20249
G1 X11.948 Y-14.554 E2.21765
G1 X12.244 Y-14.081 E2.23282
G1 X12.429 Y-13.555 E2.24800
G1 X12.491 Y-13.000 E2.26319
G1 X12.429 Y-12.445 E2.27838
G1 X12.244 Y-11.919 E2.29356
G1 X11.948 Y-11.446 E2.30873
G1 X11.553 Y-11.052 E2.32389
G1 X11.081 Y-10.756 E2.33906
G1 X10.555 Y-10.571 E2.35424
G1 X10.086 Y-10.519 E2.36707
G1 X9.739 Y-11.002 F7800.000
G1 X9.431 Y-9.991
G1 X9.316 Y-10.004 F540.000 E2.37022
G1 X8.666 Y-10.231 E2.38896
G1 X8.083 Y-10.597 E2.40767
G1 X7.597 Y-11.084 E2.42638
G1 X7.231 Y-11.666 E2.44509
G1 X7.004 Y-12.316 E2.46382
