; generated by Slic3r 0.9.10b on 2013-12-20 at 13:49:49

; layer_height = 0.3
; perimeters = 2
; top_solid_layers = 3
; bottom_solid_layers = 3
; fill_density = 0.4
; perimeter_speed = 30
; infill_speed = 60
; travel_speed = 130
; nozzle_diameter = 0.5
; filament_diameter = 2.85
; extrusion_multiplier = 1
; perimeters extrusion width = 0.70mm
; infill extrusion width = 0.70mm
; solid infill extrusion width = 0.70mm
; top infill extrusion width = 0.70mm
; first layer extrusion width = 0.60mm

G21 ; set units to millimeters
M107
M104 S0
M83
M140 S70
G28
G1Y98F9000
M190 S70
G1X5Y98Z150F9000
M104 S210
G1X5Y98Z1F9000
G1Z0.05
M109 S210
G1Z5
G1X15
;G1E5F50
G90 ; use absolute coordinates
G92 E0
M82 ; use absolute distances for extrusion
G1 F1800.000 E-1.00000
G92 E0
G1 Z0.300 F7800.000
G1 X10.500 Y29.570
G1 F1800.000 E1.00000
G1 X-10.510 Y29.570 F540.000 E1.57161
G1 X-11.490 Y29.530 E1.59830
G1 X-12.050 Y29.480 E1.61359
G1 X-12.740 Y29.390 E1.63252
G1 X-13.290 Y29.300 E1.64769
G1 X-13.980 Y29.150 E1.66690
G1 X-14.570 Y28.990 E1.68353
G1 X-15.760 Y28.590 E1.71769
G1 X-16.910 Y28.090 E1.75180
G1 X-17.530 Y27.770 E1.77078
G1 X-18.050 Y27.470 E1.78712
G1 X-18.630 Y27.100 E1.80584
G1 X-19.100 Y26.770 E1.82146
G1 X-19.660 Y26.340 E1.84067
G1 X-20.110 Y25.960 E1.85669
G1 X-20.620 Y25.490 E1.87556
G1 X-21.000 Y25.110 E1.89018
G1 X-21.570 Y24.490 E1.91310
G1 X-45.110 Y-2.230 E2.88193
G1 X-45.920 Y-3.260 E2.91758
G1 X-46.230 Y-3.710 E2.93245
G1 X-46.700 Y-4.440 E2.95607
G1 X-47.020 Y-5.000 E2.97362
G1 X-47.420 Y-5.780 E2.99747
G1 X-47.660 Y-6.300 E3.01305
G1 X-48.180 Y-7.620 E3.05165
G1 X-48.440 Y-8.450 E3.07531
G1 X-48.580 Y-8.980 E3.09022
G1 X-48.870 Y-10.360 E3.12859
G1 X-48.990 Y-11.220 E3.15221
G1 X-49.040 Y-11.910 E3.17104
G1 X-49.070 Y-12.790 E3.19499
G1 X-49.040 Y-14.110 E3.23091
G1 X-48.990 Y-14.790 E3.24946
G1 X-48.870 Y-15.650 E3.27309
G1 X-48.580 Y-17.030 E3.31145
G1 X-48.180 Y-18.380 E3.34976
G1 X-47.980 Y-18.940 E3.36594
G1 X-47.650 Y-19.740 E3.38948
G1 X-47.420 Y-20.230 E3.40421
G1 X-47.020 Y-21.010 E3.42806
G1 X-46.700 Y-21.570 E3.44561
G1 X-45.920 Y-22.750 E3.48409
G1 X-45.390 Y-23.440 E3.50776
G1 X-44.450 Y-24.500 E3.54631
G1 X-44.000 Y-24.950 E3.56362
G1 X-43.350 Y-25.540 E3.58750
G1 X-42.940 Y-25.890 E3.60217
G1 X-42.250 Y-26.420 E3.62584
G1 X-41.070 Y-27.200 E3.66433
G1 X-40.510 Y-27.520 E3.68187
G1 X-39.240 Y-28.150 E3.72044
G1 X-38.440 Y-28.480 E3.74399
G1 X-37.880 Y-28.680 E3.76017
G1 X-36.530 Y-29.080 E3.79847
G1 X-35.680 Y-29.270 E3.82217
G1 X-35.150 Y-29.370 E3.83684
G1 X-34.290 Y-29.490 E3.86047
G1 X-33.610 Y-29.540 E3.87902
G1 X-32.510 Y-29.580 E3.90897
G1 X32.490 Y-29.580 E5.67740
G1 X33.590 Y-29.540 E5.70734
G1 X34.280 Y-29.490 E5.72617
G1 X35.140 Y-29.370 E5.74979
G1 X36.520 Y-29.080 E5.78816
G1 X37.050 Y-28.940 E5.80307
G1 X37.880 Y-28.680 E5.82673
G1 X39.200 Y-28.160 E5.86533
G1 X39.750 Y-27.910 E5.88177
G1 X40.520 Y-27.510 E5.90538
G1 X41.020 Y-27.220 E5.92110
G1 X41.760 Y-26.750 E5.94495
G1 X42.240 Y-26.420 E5.96080
G1 X42.930 Y-25.890 E5.98447
G1 X43.990 Y-24.950 E6.02302
G1 X44.480 Y-24.460 E6.04187
G1 X45.060 Y-23.810 E6.06557
G1 X45.870 Y-22.790 E6.10101
G1 X46.260 Y-22.250 E6.11913
G1 X46.720 Y-21.520 E6.14261
G1 X47.380 Y-20.290 E6.18058
G1 X47.640 Y-19.740 E6.19713
G1 X47.970 Y-18.940 E6.22068
G1 X48.170 Y-18.380 E6.23686
G1 X48.430 Y-17.540 E6.26078
G1 X48.570 Y-17.030 E6.27517
G1 X48.760 Y-16.180 E6.29887
G1 X48.860 Y-15.650 E6.31354
G1 X48.980 Y-14.790 E6.33716
G1 X49.030 Y-14.110 E6.35571
G1 X49.060 Y-13.240 E6.37940
G1 X49.030 Y-11.910 E6.41559
G1 X48.980 Y-11.220 E6.43441
G1 X48.860 Y-10.360 E6.45804
G1 X48.760 Y-9.830 E6.47271
G1 X48.570 Y-8.980 E6.49641
G1 X48.430 Y-8.450 E6.51132
G1 X48.170 Y-7.620 E6.53499
G1 X47.980 Y-7.110 E6.54979
G1 X47.650 Y-6.300 E6.57359
G1 X47.370 Y-5.690 E6.59185
G1 X46.740 Y-4.540 E6.62752
G1 X46.280 Y-3.800 E6.65123
G1 X45.870 Y-3.220 E6.67055
G1 X45.090 Y-2.230 E6.70484
G1 X21.560 Y24.490 E7.67350
G1 X20.990 Y25.110 E7.69641
G1 X20.610 Y25.490 E7.71103
G1 X20.100 Y25.960 E7.72990
G1 X19.650 Y26.340 E7.74593
G1 X19.090 Y26.770 E7.76514
G1 X18.580 Y27.120 E7.78197
G1 X17.550 Y27.750 E7.81481
G1 X16.940 Y28.070 E7.83356
G1 X16.400 Y28.320 E7.84975
G1 X15.750 Y28.590 E7.86889
G1 X14.560 Y28.990 E7.90305
G1 X13.970 Y29.150 E7.91968
G1 X13.280 Y29.300 E7.93889
G1 X12.040 Y29.480 E7.97298
G1 X11.480 Y29.530 E7.98828
G1 X10.587 Y29.567 E8.01260
G1 F1800.000 E7.01260
G92 E0
G1 X10.512 Y23.868 F7800.000
G1 F1800.000 E1.00000
G1 X9.740 Y23.836 F540.000 E1.02104
G1 X8.972 Y23.735 E1.04211
G1 X8.217 Y23.569 E1.06314
G1 X7.479 Y23.338 E1.08417
G1 X6.763 Y23.042 E1.10525
G1 X6.055 Y22.673 E1.12696
G1 X5.403 Y22.256 E1.14803
G1 X4.791 Y21.785 E1.16905
G1 X4.220 Y21.262 E1.19011
G1 X3.699 Y20.690 E1.21115
G1 X3.229 Y20.076 E1.23219
G1 X2.814 Y19.423 E1.25325
G1 X2.458 Y18.737 E1.27427
G1 X2.162 Y18.021 E1.29536
G1 X1.931 Y17.283 E1.31639
G1 X1.765 Y16.528 E1.33742
G1 X1.664 Y15.760 E1.35849
G1 X1.632 Y15.006 E1.37902
G1 X1.633 Y-13.031 E2.14183
G1 X1.675 Y-13.960 E2.16713
G1 X1.793 Y-14.862 E2.19187
G1 X2.006 Y-15.825 E2.21869
G1 X2.283 Y-16.705 E2.24380
G1 X2.640 Y-17.570 E2.26926
G1 X3.095 Y-18.444 E2.29607
G1 X3.612 Y-19.255 E2.32223
G1 X4.167 Y-19.977 E2.34701
G1 X4.798 Y-20.667 E2.37243
G1 X5.523 Y-21.333 E2.39924
G1 X6.287 Y-21.917 E2.42541
G1 X7.077 Y-22.418 E2.45085
G1 X7.884 Y-22.839 E2.47561
G1 X8.771 Y-23.208 E2.50176
G1 X9.712 Y-23.503 E2.52858
G1 X10.626 Y-23.705 E2.55403
G1 X11.527 Y-23.824 E2.57877
G1 X12.494 Y-23.868 E2.60510
G1 X32.506 Y-23.868 E3.14957
G1 X33.422 Y-23.828 E3.17452
G1 X34.374 Y-23.705 E3.20064
G1 X35.337 Y-23.491 E3.22746
G1 X36.229 Y-23.208 E3.25291
G1 X37.070 Y-22.860 E3.27769
G1 X37.944 Y-22.405 E3.30450
G1 X38.744 Y-21.895 E3.33031
G1 X39.505 Y-21.308 E3.35645
G1 X40.202 Y-20.667 E3.38224
G1 X40.833 Y-19.977 E3.40766
G1 X41.388 Y-19.255 E3.43244
G1 X41.905 Y-18.444 E3.45860
G1 X42.344 Y-17.604 E3.48438
G1 X42.708 Y-16.729 E3.51018
G1 X43.001 Y-15.800 E3.53666
G1 X43.205 Y-14.874 E3.56246
G1 X43.328 Y-13.922 E3.58858
G1 X43.368 Y-13.013 E3.61335
G1 X43.328 Y-12.078 E3.63882
G1 X43.207 Y-11.138 E3.66459
G1 X43.001 Y-10.200 E3.69073
G1 X42.717 Y-9.295 E3.71652
G1 X42.355 Y-8.419 E3.74232
G1 X41.905 Y-7.556 E3.76879
G1 X41.395 Y-6.756 E3.79460
G1 X40.818 Y-6.006 E3.82036
G1 X17.277 Y20.718 E4.78927
G1 X16.780 Y21.262 E4.80933
G1 X16.209 Y21.785 E4.83039
G1 X15.576 Y22.271 E4.85210
G1 X14.923 Y22.686 E4.87317
G1 X14.225 Y23.047 E4.89452
G1 X13.521 Y23.338 E4.91527
G1 X12.771 Y23.572 E4.93664
G1 X12.016 Y23.737 E4.95767
G1 X11.286 Y23.833 E4.97770
G1 X10.599 Y23.864 E4.99640
G1 X10.512 Y23.289 F7800.000
G1 X9.791 Y23.259 F540.000 E5.01606
G1 X9.073 Y23.165 E5.03575
G1 X8.366 Y23.009 E5.05543
G1 X7.677 Y22.794 E5.07508
G1 X7.008 Y22.517 E5.09478
G1 X6.345 Y22.172 E5.11512
G1 X5.735 Y21.782 E5.13482
G1 X5.163 Y21.341 E5.15446
G1 X4.630 Y20.852 E5.17415
G1 X4.143 Y20.318 E5.19381
G1 X3.703 Y19.744 E5.21348
G1 X3.315 Y19.133 E5.23316
G1 X2.983 Y18.492 E5.25282
G1 X2.706 Y17.823 E5.27253
G1 X2.491 Y17.134 E5.29217
G1 X2.335 Y16.427 E5.31185
G1 X2.241 Y15.709 E5.33154
G1 X2.211 Y15.000 E5.35086
G1 X2.211 Y-13.013 E6.11299
G1 X2.249 Y-13.885 E6.13674
G1 X2.365 Y-14.774 E6.16114
G1 X2.565 Y-15.675 E6.18625
G1 X2.836 Y-16.531 E6.21067
G1 X3.170 Y-17.337 E6.23441
G1 X3.596 Y-18.155 E6.25951
G1 X4.079 Y-18.912 E6.28394
G1 X4.611 Y-19.604 E6.30769
G1 X5.216 Y-20.266 E6.33209
G1 X5.896 Y-20.889 E6.35718
G1 X6.609 Y-21.436 E6.38163
G1 X7.366 Y-21.917 E6.40604
G1 X8.140 Y-22.320 E6.42978
G1 X8.969 Y-22.664 E6.45420
G1 X9.849 Y-22.941 E6.47930
G1 X10.701 Y-23.130 E6.50305
G1 X11.590 Y-23.249 E6.52744
G1 X12.500 Y-23.289 E6.55222
G1 X32.500 Y-23.289 E7.09635
G1 X33.385 Y-23.251 E7.12044
G1 X34.299 Y-23.130 E7.14553
G1 X35.151 Y-22.941 E7.16927
G1 X36.007 Y-22.673 E7.19368
G1 X36.837 Y-22.330 E7.21811
G1 X37.655 Y-21.904 E7.24321
G1 X38.412 Y-21.421 E7.26764
G1 X39.123 Y-20.873 E7.29207
G1 X39.784 Y-20.266 E7.31648
G1 X40.389 Y-19.604 E7.34088
G1 X40.921 Y-18.912 E7.36463
G1 X41.404 Y-18.155 E7.38906
G1 X41.830 Y-17.337 E7.41416
G1 X42.173 Y-16.507 E7.43859
G1 X42.441 Y-15.651 E7.46301
G1 X42.635 Y-14.774 E7.48743
G1 X42.751 Y-13.885 E7.51183
G1 X42.789 Y-13.013 E7.53558
G1 X42.751 Y-12.115 E7.56001
G1 X42.635 Y-11.226 E7.58441
G1 X42.435 Y-10.325 E7.60952
G1 X42.164 Y-9.469 E7.63394
G1 X41.820 Y-8.640 E7.65836
G1 X41.404 Y-7.845 E7.68278
G1 X40.921 Y-7.088 E7.70721
G1 X40.377 Y-6.381 E7.73149
G1 X16.845 Y20.333 E8.70005
G1 X16.370 Y20.852 E8.71919
G1 X15.837 Y21.341 E8.73888
G1 X15.244 Y21.797 E8.75922
G1 X14.633 Y22.185 E8.77890
G1 X13.992 Y22.517 E8.79856
G1 X13.323 Y22.794 E8.81827
G1 X12.634 Y23.009 E8.83791
G1 X11.927 Y23.165 E8.85759
G1 X11.235 Y23.257 E8.87658
G1 X10.599 Y23.285 E8.89390
G1 F1800.000 E7.89390
G92 E0
G1 X-2.176 Y18.057 F7800.000
G1 F1800.000 E1.00000
G1 X-2.458 Y18.737 F540.000 E1.02003
G1 X-2.808 Y19.412 E1.04071
G1 X-3.244 Y20.097 E1.06281
G1 X-3.699 Y20.690 E1.08315
G1 X-4.211 Y21.252 E1.10384
G1 X-4.810 Y21.801 E1.12592
G1 X-5.434 Y22.278 E1.14731
G1 X-6.077 Y22.686 E1.16803
G1 X-6.741 Y23.031 E1.18837
G1 X-7.491 Y23.342 E1.21048
G1 X-8.217 Y23.569 E1.23116
G1 X-8.936 Y23.728 E1.25118
G1 X-9.753 Y23.836 E1.27361
G1 X-10.512 Y23.868 E1.29430
G1 X-11.260 Y23.836 E1.31466
G1 X-12.064 Y23.728 E1.33674
G1 X-12.783 Y23.569 E1.35676
G1 X-13.509 Y23.342 E1.37744
G1 X-14.237 Y23.042 E1.39888
G1 X-14.955 Y22.667 E1.42093
G1 X-15.576 Y22.271 E1.44096
G1 X-16.181 Y21.809 E1.46166
G1 X-16.780 Y21.262 E1.48374
G1 X-17.277 Y20.718 E1.50379
G1 X-40.818 Y-6.006 E2.47270
G1 X-41.410 Y-6.777 E2.49916
G1 X-41.918 Y-7.577 E2.52495
G1 X-42.355 Y-8.419 E2.55074
G1 X-42.708 Y-9.271 E2.57585
G1 X-42.994 Y-10.175 E2.60165
G1 X-43.200 Y-11.101 E2.62744
G1 X-43.325 Y-12.040 E2.65321
G1 X-43.368 Y-12.987 E2.67902
G1 X-43.328 Y-13.935 E2.70483
G1 X-43.207 Y-14.862 E2.73026
G1 X-43.001 Y-15.800 E2.75640
G1 X-42.721 Y-16.693 E2.78184
G1 X-42.339 Y-17.616 E2.80902
G1 X-41.905 Y-18.444 E2.83446
G1 X-41.395 Y-19.244 E2.86027
G1 X-40.817 Y-19.996 E2.88608
G1 X-40.176 Y-20.694 E2.91186
G1 X-39.477 Y-21.333 E2.93763
G1 X-38.723 Y-21.910 E2.96345
G1 X-37.944 Y-22.405 E2.98856
G1 X-37.104 Y-22.844 E3.01435
G1 X-36.229 Y-23.208 E3.04015
G1 X-35.325 Y-23.494 E3.06594
G1 X-34.399 Y-23.700 E3.09174
G1 X-33.473 Y-23.824 E3.11716
G1 X-32.506 Y-23.868 E3.14349
G1 X-12.494 Y-23.868 E3.68797
G1 X-11.540 Y-23.825 E3.71395
G1 X-10.588 Y-23.698 E3.74006
G1 X-9.675 Y-23.494 E3.76551
G1 X-8.807 Y-23.221 E3.79027
G1 X-7.930 Y-22.860 E3.81608
G1 X-7.077 Y-22.418 E3.84221
G1 X-6.277 Y-21.910 E3.86800
G1 X-5.523 Y-21.333 E3.89383
G1 X-4.806 Y-20.676 E3.92029
G1 X-4.167 Y-19.977 E3.94606
G1 X-3.590 Y-19.223 E3.97188
G1 X-3.082 Y-18.423 E3.99767
G1 X-2.645 Y-17.581 E4.02346
G1 X-2.283 Y-16.705 E4.04927
G1 X-1.999 Y-15.800 E4.07506
G1 X-1.795 Y-14.874 E4.10085
G1 X-1.672 Y-13.935 E4.12663
G1 X-1.632 Y-13.006 E4.15192
G1 X-1.632 Y15.012 E4.91422
G1 X-1.664 Y15.760 E4.93458
G1 X-1.765 Y16.528 E4.95565
G1 X-1.931 Y17.283 E4.97668
G1 X-2.147 Y17.975 E4.99640
G1 X-2.706 Y17.823 F7800.000
G1 X-2.993 Y18.515 F540.000 E5.01678
G1 X-3.328 Y19.155 E5.03645
G1 X-3.703 Y19.744 E5.05545
G1 X-4.159 Y20.337 E5.07579
G1 X-4.648 Y20.870 E5.09548
G1 X-5.163 Y21.341 E5.11447
G1 X-5.735 Y21.782 E5.13411
G1 X-6.367 Y22.185 E5.15449
G1 X-7.008 Y22.517 E5.17415
G1 X-7.653 Y22.785 E5.19315
G1 X-8.366 Y23.009 E5.21350
G1 X-9.048 Y23.160 E5.23250
G1 X-9.765 Y23.257 E5.25217
G1 X-10.512 Y23.289 E5.27253
G1 X-11.235 Y23.257 E5.29221
G1 X-11.927 Y23.165 E5.31120
G1 X-12.658 Y23.003 E5.33156
G1 X-13.347 Y22.785 E5.35123
G1 X-13.992 Y22.517 E5.37023
G1 X-14.655 Y22.172 E5.39058
G1 X-15.244 Y21.797 E5.40957
G1 X-15.818 Y21.357 E5.42924
G1 X-16.370 Y20.852 E5.44960
G1 X-16.845 Y20.333 E5.46874
G1 X-40.377 Y-6.381 E6.43731
G1 X-40.936 Y-7.109 E6.46228
G1 X-41.417 Y-7.866 E6.48669
G1 X-41.830 Y-8.663 E6.51111
G1 X-42.173 Y-9.493 E6.53554
G1 X-42.441 Y-10.349 E6.55995
G1 X-42.635 Y-11.226 E6.58438
G1 X-42.751 Y-12.115 E6.60878
G1 X-42.789 Y-12.987 E6.63253
G1 X-42.751 Y-13.885 E6.65696
G1 X-42.635 Y-14.774 E6.68136
G1 X-42.441 Y-15.651 E6.70579
G1 X-42.173 Y-16.507 E6.73020
G1 X-41.820 Y-17.360 E6.75531
G1 X-41.404 Y-18.155 E6.77973
G1 X-40.921 Y-18.912 E6.80416
G1 X-40.373 Y-19.623 E6.82859
G1 X-39.766 Y-20.284 E6.85300
G1 X-39.104 Y-20.889 E6.87740
G1 X-38.391 Y-21.436 E6.90185
G1 X-37.634 Y-21.917 E6.92626
G1 X-36.837 Y-22.330 E6.95068
G1 X-36.031 Y-22.664 E6.97442
G1 X-35.175 Y-22.935 E6.99884
G1 X-34.299 Y-23.130 E7.02327
G1 X-33.410 Y-23.249 E7.04766
G1 X-32.500 Y-23.289 E7.07244
G1 X-12.500 Y-23.289 E7.61657
G1 X-11.590 Y-23.249 E7.64135
G1 X-10.701 Y-23.130 E7.66575
G1 X-9.849 Y-22.941 E7.68949
G1 X-8.993 Y-22.673 E7.71390
G1 X-8.163 Y-22.330 E7.73833
G1 X-7.366 Y-21.917 E7.76276
G1 X-6.609 Y-21.436 E7.78716
G1 X-5.896 Y-20.889 E7.81161
G1 X-5.216 Y-20.266 E7.83670
G1 X-4.611 Y-19.604 E7.86110
G1 X-4.064 Y-18.891 E7.88555
G1 X-3.583 Y-18.134 E7.90996
G1 X-3.170 Y-17.337 E7.93439
G1 X-2.827 Y-16.507 E7.95881
G1 X-2.559 Y-15.651 E7.98323
G1 X-2.365 Y-14.774 E8.00765
G1 X-2.249 Y-13.885 E8.03205
G1 X-2.211 Y-13.000 E8.05614
G1 X-2.211 Y15.000 E8.81793
G1 X-2.241 Y15.709 E8.83725
G1 X-2.335 Y16.427 E8.85694
G1 X-2.491 Y17.134 E8.87662
G1 X-2.680 Y17.740 E8.89390
G1 F1800.000 E7.89390
G92 E0
G1 X2.907 Y16.339 F7800.000
G1 F1800.000 E1.00000
G1 X2.818 Y15.672 F540.000 E1.01831
G1 X2.789 Y14.994 E1.03677
G1 X2.789 Y-12.994 E1.79821
G1 X2.826 Y-13.847 E1.82144
G1 X2.937 Y-14.686 E1.84446
G1 X3.121 Y-15.513 E1.86752
G1 X3.375 Y-16.321 E1.89057
G1 X3.699 Y-17.104 E1.91361
G1 X4.091 Y-17.855 E1.93667
G1 X4.545 Y-18.570 E1.95971
G1 X5.062 Y-19.242 E1.98277
G1 X5.634 Y-19.866 E2.00581
G1 X6.258 Y-20.438 E2.02885
G1 X6.930 Y-20.955 E2.05191
G1 X7.645 Y-21.409 E2.07494
G1 X8.396 Y-21.801 E2.09800
G1 X9.179 Y-22.125 E2.12105
G1 X9.987 Y-22.379 E2.14409
G1 X10.814 Y-22.563 E2.16715
G1 X11.653 Y-22.674 E2.19018
G1 X12.506 Y-22.711 E2.21341
G1 X32.494 Y-22.711 E2.75720
G1 X33.347 Y-22.674 E2.78043
G1 X34.186 Y-22.563 E2.80345
G1 X35.013 Y-22.379 E2.82651
G1 X35.821 Y-22.125 E2.84955
G1 X36.604 Y-21.801 E2.87260
G1 X37.355 Y-21.409 E2.89566
G1 X38.070 Y-20.955 E2.91870
G1 X38.742 Y-20.438 E2.94175
G1 X39.366 Y-19.866 E2.96479
G1 X39.938 Y-19.242 E2.98783
G1 X40.455 Y-18.570 E3.01089
G1 X40.909 Y-17.855 E3.03393
G1 X41.301 Y-17.104 E3.05699
G1 X41.625 Y-16.321 E3.08004
G1 X41.879 Y-15.513 E3.10308
G1 X42.063 Y-14.686 E3.12614
G1 X42.174 Y-13.847 E3.14916
G1 X42.210 Y-13.000 E3.17222
G1 X42.174 Y-12.153 E3.19528
G1 X42.063 Y-11.314 E3.21830
G1 X41.879 Y-10.487 E3.24136
G1 X41.625 Y-9.679 E3.26440
G1 X41.301 Y-8.896 E3.28745
G1 X40.909 Y-8.145 E3.31051
G1 X40.455 Y-7.430 E3.33355
G1 X39.937 Y-6.756 E3.35668
G1 X15.952 Y20.452 E4.34348
G1 X15.456 Y20.906 E4.36178
G1 X14.923 Y21.316 E4.38007
G1 X14.355 Y21.677 E4.39837
G1 X13.759 Y21.988 E4.41667
G1 X13.137 Y22.246 E4.43499
G1 X12.496 Y22.447 E4.45326
G1 X11.839 Y22.593 E4.47159
G1 X11.172 Y22.682 E4.48989
G1 X10.500 Y22.710 E4.50818
G1 X9.828 Y22.682 E4.52647
G1 X9.161 Y22.593 E4.54477
G1 X8.504 Y22.447 E4.56310
G1 X7.863 Y22.246 E4.58137
G1 X7.241 Y21.988 E4.59969
G1 X6.645 Y21.677 E4.61799
G1 X6.077 Y21.316 E4.63629
G1 X5.544 Y20.906 E4.65458
G1 X5.048 Y20.452 E4.67288
G1 X4.594 Y19.956 E4.69118
G1 X4.184 Y19.423 E4.70947
G1 X3.823 Y18.855 E4.72778
G1 X3.512 Y18.259 E4.74608
G1 X3.254 Y17.637 E4.76439
G1 X3.053 Y16.996 E4.78267
G1 X2.926 Y16.423 E4.79863
G1 X3.355 Y15.973 F7800.000
G1 X39.980 Y-7.762
G1 X39.490 Y-7.124 F540.000 E4.82054
G1 X15.982 Y19.562 E5.78810
G1 X15.543 Y20.043 E5.80581
G1 X15.084 Y20.463 E5.82274
G1 X14.591 Y20.842 E5.83966
G1 X14.066 Y21.176 E5.85658
G1 X13.514 Y21.463 E5.87352
G1 X12.939 Y21.702 E5.89045
G1 X12.347 Y21.888 E5.90734
G1 X11.738 Y22.023 E5.92431
G1 X11.121 Y22.105 E5.94123
G1 X10.500 Y22.131 E5.95814
G1 X9.879 Y22.105 E5.97506
G1 X9.262 Y22.023 E5.99198
G1 X8.653 Y21.888 E6.00895
G1 X8.061 Y21.702 E6.02584
G1 X7.486 Y21.463 E6.04277
G1 X6.934 Y21.176 E6.05971
G1 X6.409 Y20.842 E6.07663
G1 X5.916 Y20.463 E6.09355
