; generated by Slic3r 0.9.10b on 2013-12-21 at 10:30:34

; layer_height = 0.3
; perimeters = 2
; top_solid_layers = 3
; bottom_solid_layers = 3
; fill_density = 0.4
; perimeter_speed = 30
; infill_speed = 60
; travel_speed = 130
; nozzle_diameter = 0.5
; filament_diameter = 2.85
; extrusion_multiplier = 1
; perimeters extrusion width = 0.70mm
; infill extrusion width = 0.70mm
; solid infill extrusion width = 0.70mm
; top infill extrusion width = 0.70mm
; first layer extrusion width = 0.60mm

G21 ; set units to millimeters
M107
M104 S0
M83
M140 S70
G28
G1Y98F9000
M190 S70
G1X5Y98Z150F9000
M104 S210
G1X5Y98Z1F9000
G1Z0.05
M109 S210
G1Z5
G1X15
;G1E5F50
G90 ; use absolute coordinates
G92 E0
M82 ; use absolute distances for extrusion
G1 F1800.000 E-1.00000
G92 E0
G1 Z0.300 F7800.000
G1 X16.470 Y11.190
G1 F1800.000 E1.00000
G1 X16.530 Y11.890 F540.000 E1.01911
G1 X16.560 Y12.760 E1.04280
G1 X16.530 Y14.090 E1.07899
G1 X16.480 Y14.780 E1.09781
G1 X16.360 Y15.640 E1.12144
G1 X16.260 Y16.170 E1.13611
G1 X16.070 Y17.020 E1.15981
G1 X15.930 Y17.550 E1.17472
G1 X15.670 Y18.380 E1.19839
G1 X15.480 Y18.890 E1.21319
G1 X15.150 Y19.700 E1.23699
G1 X14.870 Y20.310 E1.25525
G1 X14.240 Y21.460 E1.29093
G1 X13.780 Y22.200 E1.31463
G1 X13.370 Y22.780 E1.33396
G1 X12.560 Y23.800 E1.36939
G1 X11.980 Y24.450 E1.39309
G1 X11.450 Y24.980 E1.41349
G1 X10.800 Y25.560 E1.43719
G1 X9.780 Y26.370 E1.47262
G1 X9.200 Y26.780 E1.49195
G1 X8.460 Y27.240 E1.51565
G1 X7.310 Y27.870 E1.55133
G1 X6.700 Y28.150 E1.56959
G1 X5.890 Y28.480 E1.59339
G1 X5.380 Y28.670 E1.60819
G1 X4.550 Y28.930 E1.63186
G1 X4.020 Y29.070 E1.64677
G1 X3.170 Y29.260 E1.67047
G1 X2.640 Y29.360 E1.68514
G1 X1.780 Y29.480 E1.70876
G1 X1.090 Y29.530 E1.72759
G1 X-0.240 Y29.560 E1.76378
G1 X-1.110 Y29.530 E1.78746
G1 X-1.790 Y29.480 E1.80601
G1 X-2.650 Y29.360 E1.82964
G1 X-3.180 Y29.260 E1.84431
G1 X-4.030 Y29.070 E1.86801
G1 X-4.560 Y28.930 E1.88292
G1 X-5.390 Y28.670 E1.90659
G1 X-5.900 Y28.480 E1.92139
G1 X-6.710 Y28.150 E1.94519
G1 X-7.320 Y27.870 E1.96345
G1 X-8.090 Y27.460 E1.98718
G1 X-9.210 Y26.780 E2.02283
G1 X-9.790 Y26.370 E2.04216
G1 X-10.480 Y25.830 E2.06599
G1 X-11.460 Y24.980 E2.10129
G1 X-11.950 Y24.490 E2.12014
G1 X-12.540 Y23.840 E2.14403
G1 X-12.890 Y23.430 E2.15869
G1 X-13.420 Y22.740 E2.18236
G1 X-13.750 Y22.260 E2.19821
G1 X-14.220 Y21.520 E2.22206
G1 X-14.520 Y21.000 E2.23839
G1 X-14.900 Y20.260 E2.26103
G1 X-15.470 Y18.940 E2.30014
G1 X-15.680 Y18.380 E2.31642
G1 X-15.940 Y17.550 E2.34008
G1 X-16.080 Y17.020 E2.35499
G1 X-16.370 Y15.640 E2.39336
G1 X-16.490 Y14.780 E2.41698
G1 X-16.540 Y14.090 E2.43581
G1 X-16.580 Y12.990 E2.46575
G1 X-16.580 Y-15.000 E3.22727
G1 X-16.540 Y-15.980 E3.25395
G1 X-16.490 Y-16.550 E3.26952
G1 X-16.310 Y-17.790 E3.30361
G1 X-16.160 Y-18.480 E3.32282
G1 X-16.000 Y-19.070 E3.33945
G1 X-15.630 Y-20.180 E3.37128
G1 X-15.370 Y-20.830 E3.39033
G1 X-15.070 Y-21.480 E3.40981
G1 X-14.740 Y-22.100 E3.42892
G1 X-14.480 Y-22.550 E3.44306
G1 X-14.110 Y-23.130 E3.46177
G1 X-13.780 Y-23.600 E3.47740
G1 X-13.350 Y-24.160 E3.49661
G1 X-12.970 Y-24.610 E3.51263
G1 X-12.500 Y-25.120 E3.53150
G1 X-11.610 Y-25.970 E3.56498
G1 X-11.160 Y-26.350 E3.58101
G1 X-10.600 Y-26.780 E3.60022
G1 X-10.090 Y-27.130 E3.61704
G1 X-9.500 Y-27.500 E3.63599
G1 X-8.520 Y-28.050 E3.66657
G1 X-7.830 Y-28.370 E3.68726
G1 X-7.180 Y-28.630 E3.70631
G1 X-6.070 Y-29.000 E3.73814
G1 X-5.480 Y-29.160 E3.75477
G1 X-4.790 Y-29.310 E3.77398
G1 X-4.310 Y-29.390 E3.78722
G1 X-3.600 Y-29.490 E3.80673
G1 X-2.880 Y-29.560 E3.82641
G1 X-2.210 Y-29.580 E3.84465
G1 X-1.030 Y-29.540 E3.87677
G1 X-0.460 Y-29.490 E3.89234
G1 X0.230 Y-29.400 E3.91127
G1 X0.780 Y-29.310 E3.92643
G1 X1.470 Y-29.160 E3.94564
G1 X2.060 Y-29.000 E3.96227
G1 X3.250 Y-28.600 E3.99643
G1 X3.900 Y-28.330 E4.01558
G1 X4.440 Y-28.080 E4.03177
G1 X5.050 Y-27.760 E4.05051
G1 X5.490 Y-27.500 E4.06441
G1 X6.080 Y-27.130 E4.08336
G1 X6.590 Y-26.780 E4.10019
G1 X7.150 Y-26.350 E4.11940
G1 X7.600 Y-25.970 E4.13542
G1 X8.110 Y-25.500 E4.15429
G1 X8.960 Y-24.610 E4.18777
G1 X9.340 Y-24.160 E4.20380
G1 X9.770 Y-23.600 E4.22301
G1 X10.100 Y-23.130 E4.23863
G1 X10.470 Y-22.550 E4.25735
G1 X10.770 Y-22.030 E4.27368
G1 X11.090 Y-21.410 E4.29266
G1 X11.320 Y-20.910 E4.30764
G1 X11.590 Y-20.260 E4.32679
G1 X11.990 Y-19.070 E4.36094
G1 X12.150 Y-18.480 E4.37758
G1 X12.300 Y-17.790 E4.39679
G1 X16.458 Y11.104 E5.19099
G1 F1800.000 E4.19099
G92 E0
G1 X10.823 Y12.019 F7800.000
G1 F1800.000 E1.00000
G1 X10.868 Y12.987 F540.000 E1.02637
G1 X10.828 Y13.935 E1.05218
G1 X10.705 Y14.874 E1.07795
G1 X10.501 Y15.800 E1.10375
G1 X10.217 Y16.705 E1.12954
G1 X9.855 Y17.581 E1.15534
G1 X9.418 Y18.423 E1.18113
G1 X8.910 Y19.223 E1.20692
G1 X8.333 Y19.977 E1.23275
G1 X7.694 Y20.676 E1.25852
G1 X6.996 Y21.317 E1.28430
G1 X6.244 Y21.895 E1.31010
G1 X5.444 Y22.405 E1.33591
G1 X4.604 Y22.844 E1.36170
G1 X3.729 Y23.208 E1.38750
G1 X2.825 Y23.494 E1.41329
G1 X1.899 Y23.700 E1.43909
G1 X0.960 Y23.825 E1.46486
G1 X0.013 Y23.868 E1.49067
G1 X-0.935 Y23.828 E1.51648
G1 X-1.874 Y23.705 E1.54225
G1 X-2.800 Y23.501 E1.56805
G1 X-3.705 Y23.217 E1.59384
G1 X-4.581 Y22.855 E1.61964
G1 X-5.423 Y22.418 E1.64543
G1 X-6.223 Y21.910 E1.67122
G1 X-6.977 Y21.333 E1.69705
G1 X-7.676 Y20.694 E1.72282
G1 X-8.317 Y19.996 E1.74860
G1 X-8.895 Y19.244 E1.77440
G1 X-9.405 Y18.444 E1.80021
G1 X-9.829 Y17.633 E1.82513
G1 X-10.217 Y16.706 E1.85246
G1 X-10.503 Y15.788 E1.87861
G1 X-10.705 Y14.874 E1.90407
G1 X-10.824 Y13.973 E1.92881
G1 X-10.867 Y13.025 E1.95462
G1 X-10.868 Y-15.006 E2.71726
G1 X-10.833 Y-15.786 E2.73849
G1 X-10.735 Y-16.528 E2.75886
G1 X-10.572 Y-17.271 E2.77955
G1 X-10.329 Y-18.045 E2.80163
G1 X-10.042 Y-18.737 E2.82201
G1 X-9.692 Y-19.412 E2.84269
G1 X-9.271 Y-20.076 E2.86409
G1 X-8.777 Y-20.719 E2.88614
G1 X-8.262 Y-21.280 E2.90687
G1 X-7.709 Y-21.785 E2.92723
G1 X-7.066 Y-22.278 E2.94929
G1 X-6.423 Y-22.686 E2.97001
G1 X-5.759 Y-23.031 E2.99035
G1 X-5.045 Y-23.329 E3.01141
G1 X-4.283 Y-23.569 E3.03314
G1 X-3.526 Y-23.735 E3.05422
G1 X-2.722 Y-23.838 E3.07628
G1 X-1.988 Y-23.868 E3.09628
G1 X-1.253 Y-23.836 E3.11629
G1 X-0.484 Y-23.737 E3.13737
G1 X0.283 Y-23.569 E3.15874
G1 X1.021 Y-23.338 E3.17977
G1 X1.737 Y-23.042 E3.20085
G1 X2.445 Y-22.673 E3.22256
G1 X3.097 Y-22.256 E3.24363
G1 X3.719 Y-21.777 E3.26499
G1 X4.289 Y-21.252 E3.28606
G1 X4.785 Y-20.709 E3.30608
G1 X5.249 Y-20.108 E3.32674
G1 X5.673 Y-19.445 E3.34816
G1 X6.031 Y-18.759 E3.36920
G1 X6.342 Y-18.009 E3.39131
G1 X6.569 Y-17.283 E3.41198
G1 X6.735 Y-16.523 E3.43316
G1 X10.811 Y11.933 E4.21525
G1 X10.248 Y12.087 F7800.000
G1 X10.289 Y12.987 F540.000 E4.23977
G1 X10.251 Y13.885 E4.26420
G1 X10.135 Y14.774 E4.28860
G1 X9.941 Y15.651 E4.31303
G1 X9.673 Y16.507 E4.33745
G1 X9.330 Y17.337 E4.36187
G1 X8.917 Y18.134 E4.38630
G1 X8.436 Y18.891 E4.41071
G1 X7.889 Y19.604 E4.43515
G1 X7.284 Y20.266 E4.45956
G1 X6.623 Y20.873 E4.48397
G1 X5.912 Y21.421 E4.50839
G1 X5.155 Y21.904 E4.53282
G1 X4.360 Y22.320 E4.55724
G1 X3.531 Y22.664 E4.58166
G1 X2.675 Y22.935 E4.60609
G1 X1.799 Y23.130 E4.63051
G1 X0.910 Y23.249 E4.65491
G1 X0.013 Y23.289 E4.67934
G1 X-0.885 Y23.251 E4.70377
G1 X-1.774 Y23.135 E4.72817
G1 X-2.651 Y22.941 E4.75260
G1 X-3.507 Y22.673 E4.77702
G1 X-4.337 Y22.330 E4.80144
G1 X-5.134 Y21.917 E4.82587
G1 X-5.891 Y21.436 E4.85028
G1 X-6.604 Y20.889 E4.87472
G1 X-7.266 Y20.284 E4.89913
G1 X-7.873 Y19.623 E4.92354
G1 X-8.421 Y18.912 E4.94796
G1 X-8.904 Y18.155 E4.97239
G1 X-9.316 Y17.365 E4.99663
G1 X-9.673 Y16.507 E5.02192
G1 X-9.941 Y15.651 E5.04634
G1 X-10.130 Y14.799 E5.07008
G1 X-10.249 Y13.910 E5.09447
G1 X-10.289 Y13.013 E5.11891
G1 X-10.289 Y-15.000 E5.88104
G1 X-10.257 Y-15.735 E5.90106
G1 X-10.160 Y-16.452 E5.92072
G1 X-10.009 Y-17.134 E5.93973
G1 X-9.785 Y-17.847 E5.96008
G1 X-9.517 Y-18.492 E5.97908
G1 X-9.185 Y-19.133 E5.99874
G1 X-8.782 Y-19.765 E6.01911
G1 X-8.341 Y-20.337 E6.03876
G1 X-7.870 Y-20.852 E6.05775
G1 X-7.318 Y-21.357 E6.07811
G1 X-6.744 Y-21.797 E6.09778
G1 X-6.155 Y-22.172 E6.11678
G1 X-5.492 Y-22.517 E6.13712
G1 X-4.823 Y-22.794 E6.15683
G1 X-4.134 Y-23.009 E6.17647
G1 X-3.426 Y-23.165 E6.19617
G1 X-2.709 Y-23.258 E6.21584
G1 X-2.012 Y-23.289 E6.23482
G1 X-1.291 Y-23.259 E6.25448
G1 X-0.573 Y-23.165 E6.27417
G1 X0.158 Y-23.003 E6.29453
G1 X0.847 Y-22.785 E6.31420
G1 X1.492 Y-22.517 E6.33320
G1 X2.133 Y-22.185 E6.35286
G1 X2.744 Y-21.797 E6.37254
G1 X3.318 Y-21.357 E6.39221
G1 X3.852 Y-20.870 E6.41187
G1 X4.341 Y-20.337 E6.43156
G1 X4.797 Y-19.744 E6.45190
G1 X5.185 Y-19.133 E6.47158
G1 X5.517 Y-18.492 E6.49124
G1 X5.785 Y-17.847 E6.51024
G1 X6.003 Y-17.158 E6.52991
G1 X6.164 Y-16.430 E6.55019
G1 X10.236 Y12.001 E7.33160
G1 X9.674 Y12.153 F7800.000
G1 X9.710 Y13.000 F540.000 E7.35466
G1 X9.674 Y13.847 E7.37771
G1 X9.563 Y14.686 E7.40074
G1 X9.379 Y15.513 E7.42380
G1 X9.125 Y16.321 E7.44684
G1 X8.801 Y17.104 E7.46989
G1 X8.409 Y17.855 E7.49295
G1 X7.955 Y18.570 E7.51598
G1 X7.438 Y19.242 E7.53904
G1 X6.866 Y19.866 E7.56208
G1 X6.242 Y20.438 E7.58512
G1 X5.570 Y20.955 E7.60818
G1 X4.855 Y21.409 E7.63122
G1 X4.104 Y21.801 E7.65428
G1 X3.321 Y22.125 E7.67732
G1 X2.513 Y22.379 E7.70037
G1 X1.686 Y22.563 E7.72343
G1 X0.847 Y22.674 E7.74645
G1 X0.000 Y22.710 E7.76951
G1 X-0.847 Y22.674 E7.79257
G1 X-1.686 Y22.563 E7.81559
G1 X-2.513 Y22.379 E7.83865
G1 X-3.321 Y22.125 E7.86169
G1 X-4.104 Y21.801 E7.88474
G1 X-4.855 Y21.409 E7.90780
G1 X-5.570 Y20.955 E7.93084
G1 X-6.242 Y20.438 E7.95390
G1 X-6.866 Y19.866 E7.97693
G1 X-7.438 Y19.242 E7.99997
G1 X-7.955 Y18.570 E8.02303
G1 X-8.409 Y17.855 E8.04607
G1 X-8.801 Y17.104 E8.06913
G1 X-9.125 Y16.321 E8.09218
G1 X-9.379 Y15.513 E8.11522
G1 X-9.563 Y14.686 E8.13828
G1 X-9.674 Y13.847 E8.16130
G1 X-9.711 Y12.994 E8.18453
G1 X-9.711 Y-14.994 E8.94598
G1 X-9.682 Y-15.672 E8.96444
G1 X-9.593 Y-16.339 E8.98274
G1 X-9.447 Y-16.996 E9.00107
G1 X-9.246 Y-17.637 E9.01934
G1 X-8.988 Y-18.259 E9.03765
G1 X-8.677 Y-18.855 E9.05596
G1 X-8.316 Y-19.423 E9.07426
G1 X-7.906 Y-19.956 E9.09255
G1 X-7.452 Y-20.452 E9.11085
G1 X-6.956 Y-20.906 E9.12915
G1 X-6.423 Y-21.316 E9.14744
G1 X-5.855 Y-21.677 E9.16575
G1 X-5.259 Y-21.988 E9.18405
G1 X-4.637 Y-22.246 E9.20236
G1 X-3.996 Y-22.447 E9.22063
G1 X-3.339 Y-22.593 E9.23896
G1 X-2.672 Y-22.682 E9.25726
G1 X-2.000 Y-22.710 E9.27555
G1 X-1.328 Y-22.682 E9.29384
G1 X-0.661 Y-22.593 E9.31215
G1 X-0.004 Y-22.447 E9.33047
G1 X0.637 Y-22.246 E9.34875
G1 X1.259 Y-21.988 E9.36706
G1 X1.855 Y-21.677 E9.38536
G1 X2.423 Y-21.316 E9.40367
G1 X2.956 Y-20.906 E9.42196
G1 X3.452 Y-20.452 E9.44026
G1 X3.906 Y-19.956 E9.45856
G1 X4.316 Y-19.423 E9.47685
G1 X4.677 Y-18.855 E9.49515
G1 X4.988 Y-18.259 E9.51345
G1 X5.246 Y-17.637 E9.53177
G1 X5.447 Y-16.996 E9.55004
G1 X5.593 Y-16.337 E9.56841
G1 X9.662 Y12.067 E10.34908
G1 X9.196 Y12.480 F7800.000
G1 X4.176 Y-18.566
G1 X4.463 Y-18.014 F540.000 E10.36602
G1 X4.702 Y-17.439 E10.38295
G1 X4.888 Y-16.847 E10.39984
G1 X5.024 Y-16.233 E10.41693
G1 X9.097 Y12.204 E11.19851
G1 X9.131 Y13.000 E11.22019
G1 X9.097 Y13.796 E11.24187
G1 X8.993 Y14.585 E11.26352
G1 X8.820 Y15.363 E11.28521
G1 X8.581 Y16.123 E11.30688
G1 X8.276 Y16.859 E11.32855
G1 X7.908 Y17.566 E11.35024
G1 X7.480 Y18.238 E11.37190
G1 X6.995 Y18.869 E11.39357
G1 X6.457 Y19.457 E11.41524
G1 X5.869 Y19.995 E11.43692
G1 X5.238 Y20.480 E11.45859
G1 X4.566 Y20.908 E11.48025
G1 X3.859 Y21.276 E11.50194
G1 X3.123 Y21.581 E11.52361
G1 X2.363 Y21.820 E11.54528
G1 X1.585 Y21.993 E11.56697
G1 X0.796 Y22.097 E11.58862
G1 X0.000 Y22.131 E11.61030
G1 X-0.796 Y22.097 E11.63198
G1 X-1.585 Y21.993 E11.65363
G1 X-2.363 Y21.820 E11.67532
G1 X-3.123 Y21.581 E11.69699
G1 X-3.859 Y21.276 E11.71866
G1 X-4.566 Y20.908 E11.74035
G1 X-5.238 Y20.480 E11.76201
G1 X-5.869 Y19.995 E11.78369
G1 X-6.457 Y19.457 E11.80536
G1 X-6.995 Y18.869 E11.82703
G1 X-7.480 Y18.238 E11.84871
G1 X-7.908 Y17.566 E11.87036
G1 X-8.276 Y16.859 E11.89206
G1 X-8.581 Y16.123 E11.91373
G1 X-8.820 Y15.363 E11.93540
G1 X-8.993 Y14.585 E11.95708
G1 X-9.097 Y13.796 E11.97873
G1 X-9.132 Y12.981 E12.00093
G1 X-9.132 Y-14.981 E12.76169
G1 X-9.105 Y-15.621 E12.77911
G1 X-9.023 Y-16.238 E12.79604
G1 X-8.888 Y-16.847 E12.81301
G1 X-8.702 Y-17.439 E12.82989
G1 X-8.463 Y-18.014 E12.84683
G1 X-8.176 Y-18.566 E12.86377
G1 X-7.842 Y-19.091 E12.88069
G1 X-7.463 Y-19.584 E12.89761
G1 X-7.043 Y-20.043 E12.91453
G1 X-6.584 Y-20.463 E12.93146
G1 X-6.091 Y-20.842 E12.94838
G1 X-5.566 Y-21.176 E12.96530
G1 X-5.014 Y-21.463 E12.98224
G1 X-4.439 Y-21.702 E12.99917
G1 X-3.847 Y-21.888 E13.01606
G1 X-3.238 Y-22.023 E13.03303
G1 X-2.621 Y-22.105 E13.04996
G1 X-2.000 Y-22.131 E13.06687
G1 X-1.379 Y-22.105 E13.08378
G1 X-0.762 Y-22.023 E13.10070
G1 X-0.153 Y-21.888 E13.11767
G1 X0.439 Y-21.702 E13.13456
G1 X1.014 Y-21.463 E13.15149
G1 X1.566 Y-21.176 E13.16843
G1 X2.091 Y-20.842 E13.18535
G1 X2.584 Y-20.463 E13.20228
G1 X3.043 Y-20.043 E13.21920
G1 X3.463 Y-19.584 E13.23612
G1 X3.842 Y-19.091 E13.25304
G1 X4.129 Y-18.639 E13.26761
G1 X0.555 Y10.571 F7800.000
G1 X1.081 Y10.756 F540.000 E13.28279
G1 X1.553 Y11.052 E13.29796
G1 X1.948 Y11.446 E13.31312
G1 X2.244 Y11.919 E13.32829
G1 X2.429 Y12.445 E13.34347
G1 X2.491 Y13.000 E13.35866
G1 X2.429 Y13.555 E13.37385
G1 X2.244 Y14.081 E13.38903
G1 X1.948 Y14.554 E13.40420
G1 X1.553 Y14.948 E13.41936
G1 X1.081 Y15.244 E13.43453
G1 X0.555 Y15.429 E13.44971
G1 X-0.000 Y15.491 E13.46490
G1 X-0.555 Y15.429 E13.48009
G1 X-1.081 Y15.244 E13.49527
G1 X-1.553 Y14.948 E13.51044
G1 X-1.948 Y14.553 E13.52561
G1 X-2.244 Y14.081 E13.54078
G1 X-2.429 Y13.555 E13.55596
G1 X-2.491 Y13.000 E13.57115
G1 X-2.429 Y12.445 E13.58633
G1 X-2.244 Y11.919 E13.60152
G1 X-1.948 Y11.447 E13.61669
G1 X-1.553 Y11.052 E13.63185
G1 X-1.081 Y10.756 E13.64702
G1 X-0.555 Y10.571 E13.66220
G1 X-0.000 Y10.509 E13.67739
G1 X0.469 Y10.562 E13.69022
G1 X0.699 Y11.110 F7800.000
G1 X0.794 Y10.042
G1 X1.334 Y10.231 F540.000 E13.70580
G1 X1.916 Y10.597 E13.72451
G1 X2.403 Y11.083 E13.74322
G1 X2.769 Y11.666 E13.76193
G1 X2.996 Y12.316 E13.78066
G1 X3.073 Y13.000 E13.79940
G1 X2.996 Y13.684 E13.81814
G1 X2.769 Y14.334 E13.83687
G1 X2.403 Y14.917 E13.85558
G1 X1.916 Y15.403 E13.87429
G1 X1.334 Y15.769 E13.89301
G1 X0.684 Y15.996 E13.91174
G1 X-0.000 Y16.073 E13.93047
G1 X-0.684 Y15.996 E13.94921
G1 X-1.334 Y15.769 E13.96794
G1 X-1.916 Y15.403 E13.98665
G1 X-2.403 Y14.916 E14.00536
G1 X-2.769 Y14.334 E14.02408
G1 X-2.996 Y13.684 E14.04281
G1 X-3.073 Y13.000 E14.06154
G1 X-2.996 Y12.316 E14.08028
G1 X-2.769 Y11.666 E14.09901
G1 X-2.403 Y11.084 E14.11772
G1 X-1.916 Y10.597 E14.13644
G1 X-1.334 Y10.231 E14.15515
G1 X-0.684 Y10.004 E14.17388
G1 X-0.000 Y9.927 E14.19262
G1 X0.712 Y10.013 E14.21212
G1 X-2.000 Y-12.509 F7800.000
G1 X-2.555 Y-12.571 F540.000 E14.22731
G1 X-3.081 Y-12.756 E14.24249
G1 X-3.553 Y-13.052 E14.25766
G1 X-3.948 Y-13.447 E14.27283
G1 X-4.244 Y-13.919 E14.28800
G1 X-4.429 Y-14.445 E14.30318
G1 X-4.491 Y-15.000 E14.31837
G1 X-4.429 Y-15.555 E14.33356
G1 X-4.244 Y-16.081 E14.34874
G1 X-3.920 Y-16.581 E14.36495
G1 X-3.554 Y-16.948 E14.37904
G1 X-3.081 Y-17.244 E14.39421
G1 X-2.555 Y-17.429 E14.40939
G1 X-2.000 Y-17.491 E14.42458
G1 X-1.445 Y-17.429 E14.43977
G1 X-0.919 Y-17.244 E14.45495
G1 X-0.411 Y-16.912 E14.47146
G1 X-0.052 Y-16.554 E14.48526
G1 X0.244 Y-16.081 E14.50043
G1 X0.429 Y-15.555 E14.51561
G1 X0.491 Y-15.000 E14.53080
G1 X0.429 Y-14.445 E14.54598
G1 X0.244 Y-13.919 E14.56117
G1 X-0.052 Y-13.446 E14.57634
G1 X-0.447 Y-13.052 E14.59150
G1 X-0.919 Y-12.756 E14.60667
G1 X-1.445 Y-12.571 E14.62185
G1 X-1.914 Y-12.519 E14.63468
G1 X-2.261 Y-13.002 F7800.000
G1 X-2.684 Y-12.004
G1 X-3.334 Y-12.231 F540.000 E14.65341
G1 X-3.916 Y-12.597 E14.67212
G1 X-4.403 Y-13.084 E14.69084
G1 X-4.769 Y-13.666 E14.70954
G1 X-4.996 Y-14.316 E14.72827
G1 X-5.073 Y-15.000 E14.74701
G1 X-4.996 Y-15.684 E14.76575
G1 X-4.769 Y-16.334 E14.78448
G1 X-4.403 Y-16.916 E14.80319
G1 X-3.917 Y-17.403 E14.82190
G1 X-3.334 Y-17.769 E14.84061
G1 X-2.684 Y-17.996 E14.85935
G1 X-2.000 Y-18.073 E14.87808
G1 X-1.316 Y-17.996 E14.89682
G1 X-0.666 Y-17.769 E14.91555
G1 X-0.084 Y-17.403 E14.93426
